/* XPM */
static char *result[] = {
/* columns rows colors chars-per-pixel */
"288 288 72 1 ",
"  c #765540",
". c #654632",
"X c #4D372A",
"o c #6B4F3C",
"O c #634A38",
"+ c #45352B",
"@ c #6D5340",
"# c #856853",
"$ c #261911",
"% c #7D624D",
"& c #442C1F",
"* c #2D1F17",
"= c #554234",
"- c #3A2C24",
"; c #110703",
": c #8E6D54",
"> c #593F2D",
", c #503C2E",
"< c #35261D",
"1 c #866D5A",
"2 c #85654E",
"3 c #5D4536",
"4 c #907259",
"5 c #504034",
"6 c #61412E",
"7 c #342219",
"8 c #3C281D",
"9 c #5D4232",
"0 c #694C37",
"q c #95755B",
"w c #755B48",
"e c #6E4C35",
"r c #7C5B42",
"t c #6C5949",
"y c #433023",
"u c #887462",
"i c #5B3B28",
"p c #7B5D47",
"a c #786657",
"s c #846249",
"d c #99795E",
"f c #8F694C",
"g c #815F46",
"h c #5C4D42",
"j c #9B8068",
"k c #745139",
"l c #513322",
"z c #947D68",
"x c #1F130D",
"c c #745944",
"v c #4A3223",
"b c #534940",
"n c #3E322A",
"m c #78614F",
"M c #725E4F",
"N c #644E3F",
"B c #543929",
"V c #8C7968",
"C c #7C6B5D",
"Z c #9F7D60",
"A c #63554A",
"S c #A1856B",
"D c #968575",
"F c #1A0F0A",
"G c #A9896D",
"H c #443D35",
"J c #B09479",
"K c #A68364",
"L c #9F8B79",
"P c #A78F78",
"I c #AC9A87",
"U c #BCAC99",
/* pixels */
"9X60.000.kggs#4::4q1qjVLDLILDLILDLPLDDDLPIIIIIIIIIJPJKdSjZZdqq:4zdz#s:2#sg#4#ss211%%##%#4#u#c4d4:::%%12##%wMMmaamMCCaCmamMtMtt5-3N3=&*$5CCO3O3O@ *xCzDDPzjPGjSSDjVVuV#,aCCaaamaCmtMmCmMamMMMmmmaa#m####1##1##11q44ut,1apq##1114q::12#:#:#1411:##qKGZKKJJIPDPPLLILDDDDLIPDPIIPLLPPjdfqq:ZZdddqq2d",
"9X..6..66rgg2sffsssgss%uuuzzLLLIIIPDDLDLVDLLLILLPZZZ4ZSjzSSzqd4jSjdd::#:q:::s%:#%12#u4#141%wt%##uuuu1#a%mmmmMmmmaaCCCCaaMMttAA,+9O3&*$$<haNOO9O@ *FaVLPILLLLSjSDV1111:,MaCCCCCaaCaaCaaaMCMaMaCaC11#%%#%%#uu4111##11w0%#22:1114#2rps2:#%111q1#dz44qjq4jSSPPPDDzzVDLDDDLLILDDjjuuC##qfddd4djZZqd:2",
",vi6i.ers  %s g2  k  pc1M=@Na1CVzCMtCVzLLLLDDzjjjjjz4jPPPIJPDzLDzuq4##42%12#21:#:11##41uV1111VVVuuzDVuaMmaaCCaaMCaaaaaaaaaCaaah+3N3<$*-*-5,=O3Oo@*FauLLLLPzSSSSzzuu1#4XaCCCCCCaCaaMaammmaammCCama1ua#aam#uuu1uuzzj4 @c%1#4u421:#22p%#%11a%uVVzVzDDDSPLPPDLIPLLLDLPV@NmuuuV#rkocV% gf:ff:fs:qdKGZ",
"B78&&&B>wMm1ataatMMttttNaN,XOMtCDILPDV11VuVVDPDDjjzz1DIDDDzVVDzuDzDzVDPDLLDzVDz1u11%auzuuVuuVVDDLDzVzjjzjzuVVVuVVCuzLuuu1CCCaCh+ON3*$FF$F$&=@oOOo$FaDLLLLPzSLSSzjVuu4qXuDDuuuCCCuuCuu1111CCaaaC1uuuuCmCuVVuuuVVuzDuC1CujzVjjz1zjDDjVDPDDVVVzDVzDDDDVzDDLDIIzuVV1VDDIIIILu1p 6wtatww%2%2:1qq1d:2%",
"o3.e6i.993=NohCDLLCuaCzab,NONAOONh5bhtMtttCMCVVuVDDDuzzVzzzzzDDDDzLIPzuCuuuzzzzDVzV1C1Cuuu1VV1zu1VuCamMNNhhhh3=5==bbhbb=+5555=5,O@37FxFF*n-,OoOo $FaDLLLDDzzSzjVVu11:47+bbbAMMthAAAAtAAAAhhAMMMAtaCaCaauzDDLIDDDDDVuCCCuVattzDDLPDILDPDLDDzVDDDDDLPLDDVuuVVCaaMtttNONt@mtmMcOmuauCC11zzDt@3,@ps4",
">>.oe.666oko@OO@NNN3hhhh=+ttaCuVVDVuuuu1CCVu1uuaCaaCVzVuuuCCamtMwM@wM9o@35,=5X+=3h3A3NANAttAtAAAthX8*7y-&<7XX7*777788&++<<8<<7-5OO3X$Fx$88-XOoOo $;aDILLLDjqSjjjVu12::8-n+nnnnn--$x$**7-+y+,,,=hh+5,++y+5tAauu11Mthhh5+3A3++hhb=+,AtNNtmtM1a1uu11uuCCaCCCCuuCuuuCCVzzzuDVVaaahh=5,ONNN3@M#u14:::",
"B8&vXBBB>Bv93555Xvvv,ONOhbaMAhNNAttAttoNOOOooOO3@@@oO@t@ta##c@@o@wcwaCmmCaMm5+=mM33tmtoNo@tttmCh5vXvX3oooNOO=M3vi>B=5,XXXvXXXiO5=35>9<xFx8B..33oc$;tzIILPPD4jSdzzu##4:-O coOOO99=vvXXyXOoOoo3OOoo-XX,A=X=thhCMmN3tNA@3OtttN+bua,53AtttttCaCmttAamttto@@30.O3OO@ w%%1#%p ooOc%@O3Oo>9>>9..9O0 w o",
",<<8<<<<&yy53X+,5++X,=335,hh33hhhAtMm#%@@p O0.9>>9Bl&BB,93=O@  @@@ONtMMmmtaCCCmCattCVVVVVVuuCC1amMwwwMttttt@,ta3>=,X,O,X,Xvv&&3=3353 9X8X>.eO.O# $;tDIILLDDqjSdqVz#4:#-@%c33oO3O5tO,5=9NNNmMNtmtNbb=atwo3@MtmaCmDzu1CCaaMtNtt1umC1Vu1uCawo3OOh5O3X==,533O.00@kc##pp%#m@h3NhhhAN3O333=3OO33OO0e.i",
"bb=555==5=bhbbbbbb=bbbhbhbbbbhhhbbbN@mw@ c@o@cw%%12%aa%wccc%%wpwwmmaammC1C1CCC1uuDDDDDDuu1uuuVuaaCCCCmMMttAN,=AO3=,,,3==33,B,XN5,==.2r09O0ee0OOpm$;ADIILLzjjLLz4Vzuq24&3OOOONO33n5b,=39NOOOAAACVuuuaaauumau1uDzaaa#zLLDDzVuuuuuuCCCmmmm22sp%%%p p%p%%1uu#2% %2wwm%%wo5bhAhhAAAAhhhbhhhAthAhhhhhA",
"bbb5bhbbbbbbbhb55bb5b5bbbh5HHbH5bb5b5333Oo p%%w##%#%%w%%c#1%%% wwwp p#%ww1#%#%#amwMtNNtttAaa%1114q441#%MMwO3OOooO9O..O3OON99Oo@=,5=efroooee..Oopp$;AzLLILjzjLLzqzV1dfdnO3OO33=55-H+39....OO@wMaCCuamCVuVuCVV1VuMNoOoO@o@NONMCCV1%mpp@p w %%ggs#2s#%%aaa1%%#wc@@0oo.6,nAAAAb5bhhAhhbbhbbbhAAAAAhA",
"5H5bHbHbbbbH5bhbbbbbbbbHb5bbHbbbbH5boB,3OOOO@ctwcwmww %%p%r@ r   %%%##%%c%w @wmmmMMwwmaMtmC11uuVVu#a%%%a#w@@@@ oOOOo@ooNONO3O@o=333ogkeo@eke o@%p$;AzLLLDVzzLLj:jV%q2u+o@@@OO3=35X=3ON@o0@@t@%1Ca11Mmuu#C#u1uuMwc @2#141%@ww%Mamw%r r2grrsgpr   r p m%mMMmaMwo@0@@N,n+bAbhAAAAhhAAhhAbbAAAAAtAbh",
"bH5b5HbbbbbbbbbbbbbbbHbb5bhbbhbbH5bbtN=3OwMwwaCaaCCmMwc@@o@oo0ocww@@@Noa1% cw@NNNNoOotw@@MMwtMMma#a#aaaa1mtwt tto@@tt@AANONO3O=,35,0f kokkke @ gp$;hzILLLzDzDSj1zD#d2V5OoNNOOONNhhAtt@MMtwMMw%mmm#122#4:#2#gpp@  cwcco@ @0o @wwcc%   @0oo00@  @@   @@tMMaaC1CMcw@oA=-HhAhbAAAbbbbtAbAAAhhAAAtAhh",
"5bHbbbbbbbHbbbbbbbbH5bhbb5bbbbbbbbbAb=3=5tMMCu1CuVVuCCaama#ammmamMMMMC#a%m%%s%%%a#1mma##aa##mama%%aCCCCCCmMamaaaamtMtAtMtAAtAthX35,eqg  oekk    %*;3uLDLDVDzDjz21D4q:uhtmamttAtMMCCCCC1aCCCaa1CmaC#a1u1#42#:2:#%%#1%112#1%2%p@ r@ @www wm%mww%mm%%%%##1C1CCuCmtNX+hb+HhAtAAhAhAhhAAAAAAAAAAhbbhb",
"b5bHH5bbbb5bbbAbbhbbbbbhbbbHbbhhbhAb555b,OttMmMtaCCaMMmamaCamMMMwwwmwm%w%mp%pcp1#%#aa%M%w@Mwp##11:41C1uuuu%%%wM#1#ammMaaaaCCC1M53=B0:r   e.e0   #<;hCzDzzCuVzjqp2D44#u5t#1#%%%mmmmmmaCamamm#11u1CCCC1u44q4111#1212%ww%%%2%22%r r rg2#%ccmMwtwww%ma###wccMM%mt@o0+-H5hhAAAAhbhAhAhAAAhAtAAAAAAbhh",
"5H55bbbbbhbbbbAbbhbhbbbHbbbbbbbbbhAbH<nhX=39oc@@wwmM@m#%   @@    pmmmc w ppcwwc###%###11p%%221#%w%CCm1uuu1#%%#1m%%m%%%%%%m%%%mO=N3Bk:g r 0.oeoppu-FhCVDVV111:4# 1j4:g4,@a#%%%#2%%%%%%mwm%##CV11Vuuuu1112#qd:##2p%s222##2#spgg#g %%p     rwc cc @@o9@% m%wwMw@...8*H<nbAAthhMAAAhAAhAAAAttttAAAhh",
"b5b5bbbbbbbbbbbbbbbbbbbbbbbbbbhbbbhb+n+b+X9..  @ o@0oo  rgr@@  gg%p c @ @@wwwmm%##%mww%%%% %1%m%11###1111a#%wm#%%wwMcp2#%%pp%%9=o3= 2f2r ..e.o w1<FACuVu1u4##22kpz##g1XM%%mMwwwccwp%mM##w##%uua1u1uu##1#2f::::::2%%#2gpr ppp% p o0@o00 o@ o c@cccc sp0006600....v*5H$<hAAAtAAAAAhhAbbAhAAhAAAAhA",
"b5bb55bbhbbbbbbbbhbbhhbhbhhbbhbhhbH--n5hhO@ k@koe0ookorrg% @   %%%p%%po@cw%pmw%%%c@w%mpwmmw%1#%11%wpuuuV111112##%%%%wwwmwcw111@3@33 #2sg eek0 gp1*FAauVuC#1#42sk z11#1,@@tttttwma% mww1V11111#a111444q1#1##1:#g222pw%mpw    wc@@ @ww@otwwc wwcrp%%  o0O0000..666v-H5+*5hhhAhAAtAAtAAAAAhbbhAAAtA",
"bbbb5HHHHHHHHHHn+HHHH5bbbbbbbb5b55n$<5Hb5,996..6.000e0000..o@@@   @pp ooocw ppprg%%##w#4#ccw%%#1#21d411%m##%%ppw%%mwcw%mc0O %w=3tOOp:gsg  kko@s#1$xaCCu111%%#ssekq4121&oo pc%w @mmwmc%#mwwMwa#14#4GJZPj:#%:4:#2g2#4:4q%p% oo@@@cw@p  c    p @@ @@ oeo@0o@o00o.66vn+bb+-nbhhbbbbbbbhaAhhAbhhbhbbb",
"<<<---<<<<*<*****<*<<<**<**$$$$*$xF;;FF$xx$$$$$$$*****7***788777777788&&88777888777&vXXv&88&v&&&&&lBllv&&v&&&&88&&&&v&&&&&878&*3MOog#gss  kk@ 11M;xAu1uC%1#%% s.0pqd11$$78&7877*8&&&&XX&&yv8XlBBlBi>li>>iB>>>il&llvvvv&&&877788&87&&&vv&&&&888&&8888&vvXv&&&8777$$$$-+Hnn+n---<<-**<$$$xxxFx$xx$",
";;;;;;F;;;;;;;;;;;;;;;;;;;;;;;;;;;;;;;;;;;;;;;;;;;;;;;;;;;;;;;;;;;;;;;;;;;;;;;;;;;;;;;;;;;;;;;;;;;;;;;;;;;;;;;;;;;;;;;;;;;;;;;;@mo@p2s#srr   o%1M;$MzVCCc1%#% g.  qSdZ&;;;;;;;;;;;;;;;;;;;;;;;;;;;;;;;;;;;;;;;;;;;;;;;;;;;;;;;;;;;;;;;;;;;;;;;;;;;;;;;;;;;;;;;;;;;;;;;;;;;;;;;;;;;;;;;FF;F$xxxF;",
"X8&&++&<<$*<7<<<88*F;;;;;;;;;;;;;;;;;;;;F;;F;;;;;xFF;;;;;x;;Fx;;;;;;;;;;;;;;;;;;;;;;;;;;;;;;;;;;;;;;;;;;;;;;;;;;;;;;;;;;;;;;;;;M%cp s22gr r oom1w;$aVzCaw1w#p@p0  ddqG3;;;;;;;;;;;;;;;;;;;;;;;;;;;;;;;;;;;;;;;;;;;;;;;;;;;;;;;;;;;;F;;;;FFxF;;;;;;;;;;F;;;;;;;;;;;;;;;;;;;;;;;;;;;F778&8&,>BlXX8",
"@,9B>o@9Bl&>i66lB>>X8;;Fxxx$x;;xxxFFx$*$$$$$$$;$****$;;x$****<*$*7*$$$$FFFFFx;;Fxx$$$xxFxFFFxFxxFFFF;;;xx$$$x$$$$***$$$xxxFxF;F#%c%%22f2srrr  #ut;$muVm#M#m4%0@ s:qdZJ3;;Fxxx$xx$$$xx$x$$*$$x$F;;$$$$$$$$$*$xF$x$$*$x$xx;;x*$$$$$7*<*$$$****$$$$$x;F$**$$xFxxxxFFF;;;;FFFF;F$$xF;<,,=O3=orrgr@o@",
"@B>@.O%a ..B0 e6BB63o=$$$$$$*Fx$*$x$<7*7*7$*7**<y--y8xx<8&8<8y-7<8<7**7**$$$$x;x*7-7**$$*$*$$$$$$$$$x;x**<-*$777<888**7<*$$$$;$1%w2g#ss2sr g c1VMF$C11@ww#M1%@ %24KZKJAF$$$$$**$7<7**7***<77**$;F*77*77<**<<*****<-<*<-*x;$<<777<+y+<787---8<77<<*x$-nn-7*$$$$$$$$;xxx$$$$x$**$$+N3oMw@p::qq#m2%",
"o6>>0.o%#p... rk.Bi.. o8$***7x$***$x$-*7<*778--n+,,++*$+yy&8&+y<&y<<77<<7**$$$;$<-n-<***<*77777777**$F$778y7<88-n++y--n-<***$x$um%1%srgggrrs o%1@FFC1#twcmw%o0rg24SddJtF******7*<<-7<<<<<88-7<*Fx788<<<--<---*-<-nn-<nn-x;*---<7-,n++-y-y++y8&-&y8$7+55Hn<*$$*****x;$$$***$7<**5@ow2p 2qdqZq:42z",
"@>60i.e %%pk . #reBi..cM+**7<x$***$x$77<<7<7-++5+H5=,**X+X&&&+n8&v&8<8&8777***;*-nn+-7<*<<<77<777*77$F*<88n8--n+n++++-n--<***$*1%p:22srssgrgcc#VtxxC11pmtm%roOo  #jddPtx7***7<-----<8n--8---<-<xx<-+n--+++nnn*n--n+n-n+-$;<nnnn8y,++,&+-n,+y8&+XX-$<+5HHHn-******<x;$***<*$<-<XOO#:  2zjqqq4q:KS",
"cliee6.k %p   . 4g0lie@%mX*7<x*<***$*$7-<<<8-n55=Hbb5775+yyy+,X-&v&888X&<<7*7<;7---n--<<-<-7<<77*7<<*x*---n---n++H++nnn--<*<*$*#2r12#2rsgggpow#CtxFC#:2%w#p OO   gjzzGt$777*7--n-nn-8nn-8-8---<x$&n+nnn+H+nHn<+n-n+nn+Hy$;<+++,+X,X+5+Xnn5=+yyXX,+*-5b5b5+-7***<<*$F**<*<*$*853O14oo#Sjqq4dZZGjd",
"w.i6k 6. s%cwr Osdr0li0w%%57-x$<*<**$*<<8-<-n+b=bbbbh-7=+y&&y=5+yX&8-&X&&-<7<<;7-n---<<<<<<7887**<<87F*--y+-nnn,,5+nn+nn-<*****#1pss2ggg gg oc1#@xFa##2#p2s%@O% k jzdKtx777*<---<n+-8-n--y--8<<x$y+++--+HHHnH<+n--nn-+Hy$F-+H+++5h=55+X++5=++++X5X7+bhhhbH<777<<<*$x*<<<<<*7=..:4k0:Pzd:4dZKJSqd",
"cvB.. @6k 2%w%wwO:qroiB.r1m5-x$<7<<<7<-8-n<-+nbAAhAb3n<=X+y&&55&8X+&y++&+&877*;7-----<*<<7<<<88*7<8&<F*-8n+-++n+,,++n-nn--<<<$*%#gs#22s2 psp @%#oxxMq:2:%sq:@o p  q%wSt$*7<7<--<<-+n-n+n-y+&---x$yn++--++H++n<+n---+-nHy$FnHH,=,=b3h=XX+=5=++XX5=X7+hthtbH-777-<<-*<----<**5o0::ee:JjZ4:qZGGdZZq",
"t8$ii0@@. 22p%#w .1dsklB.%1t,F$<<---<<------++bhtAth5n<=,XXv&X,-8Xy-y&yyy--87*;<--8-<<<<*7-8<88*<7787x*--n+yn+++H,++n-nn--<<*<*a1%%:4:#2 grpwoM#oxxtd4g%2g#qcOp2r::.5zA$77<7----<-n-<n+n--n-8--x$+n---nnHHH+n<H+n--+nnHn*F+HH==,=35=5XX+,5=++55h3,7+hthAt5-<<<---n--n---<*=No41ekfGz4:::qKKdKZdK",
"N-;$ll.@ e s2s%2pwo1qpoiB.%ut<$*<----<-<-++n++bhthAh3+7=XX+yyXX88y&-&&yyy&---<;7888<**<7**8888<<<7888x$---y8n+++,++nn++n-<<*<**142#::2:s%2spwMm%tx$Mz4s s:s#c@cgg::4wzt$7*<<----<-+n<n+n<--y8--x$++nn-nnHH+nn-++--n--HH+7x+55b,3NO3O=55XX53X,3NoAO<=Maaaabn-----+Hnnn--<*=tom#0erddZ:ffqZZqZZKGj",
"o+;;$lvo@ke s#gg2  O#4po6.9%um+7--n---H5b,,,+XhaCatAo+<O>,=XX9=&yXXvvvX,XXy++-;<77<<<77<7-8-&&&&&8&vv$$n++n-++-+,+X++HH+---<<**C:#:#::2pcCt% m%%@$$wq:s2#4sr  o2:ZZGZZt$77<<-nn---nn--+n8-ny-<-x$v+++nn+H5H+nnnn--n--+++<$5hAhb@mw@t@OO=ON@9op%#%w-ACuVVuh++++H55H+H+n-<3w%o o. 4Gq:ff:dqqdZKKd4",
"O,;;;$vyok krgsg%2 oo%  poo3%413--y+n5bbt==33OwCVuuCwX+p0OO9>o@Xv>6Bii.O9.>,5n;77*<y+&-8-yXX,Xilllil><*ny++++,+=h=,+=55Hn----<*1q221:qs ob5w@@#1w*$c:#g:::gss og:PGJSKM$-8-<-+H+-n++n++,y&+++n+$7>===55=bAbb5+HHnXXX+XX,y$bMaCa11#sppc@o@rpogs#ju%yaDLLLVaO==h+n+HHHHn<=%%cekkgr:2f2fqqqqdZKKq#4",
"33;;;;*vXoo 0 2#22p@@@O.rg c.m1utX=3=b+3bMo@  1DDDz1%5+#  O93  >v>6ii60@0.3>9y;7--&X5X++++,>>B>lliii.+<X+,35,=hAAAh5hbbHH-<<-**a4###::p @,5 @@#%c$$w22s:4d24:so2qPSJGK%*+++y-+=HnH5++33=X+5==,5*70ONNhhtaatAh=55,+y,X,3.y*tuuVzjq::r p%  rpo2g#Sz1yaDLIDVC@@o@+=b5hb=+92p@.. gggssr2qqqdZZZZd%##",
"X5;;;;;7vB00@op:s4g%o@c.o  c@>maz#O@w@5@h111#szLILD1%=+4gro9.  >liiBl.oO.oO>>-;<yX&,XXX,,v>99B6ii6..k,n3,3O3ONotMChhAhb5+-*-n$*a1#::::g   pwcw1%w$xo2:g#4q4::19cjJSJKG#*X5X+n+5,,5==3NoN,53O3==**0ONAttaCCaaAbbb=88y=hoc+<aCCVLL1sf2ssp kr o22:SV1&aDLIILVwwwmXNttCabo#c0.6 %##rfgrf:ZdqdqZq %%3",
"+,F;;;;;&vB6.  s:sq2g w Or  @o9aaj4%##Amtuqd:sLIIID##=+zfrkO.o 6liili6o..e0=3y;8yy&&y55hXv9O966Bi.ee ,,NNtwo@Mw#CttMmAhb+-<<n**a#%#qq#%p%  @pwp%#*xOs1r2qq:::qo2jJKJZG%7=O3,,,h=35+hNo@t=9No3O=*7.ONtaaMCVCatbAt-7+,=Ot#+-CaazPD1s2sg:s kgok2:qSV1-MuzIIPz%pw#3tauLt@#%k@0 p1dg2g2f:dq:ff::@ppO;",
"yX$;;FF;;&Xi60k s2##ppc2 pq%  O9##Sz21o5@zzq44GPIPD#:=,d:s@00rc6l.ili6eeeo03o+;&&-v8<5=AX+9O966ii.eer,+@NmaM@w%CC,auuMAb+--<-**%121dd1r s%  %w%%%-$o2#ssq::gg:%:KJKJdJ1<9O95,5hN5+nhOoow9Oo@N33*7OootCCaCVVCabht88+,5bt1+-CuaDIL12f224#rrrrk224Lz18t1VIPSq%#%1M3mzaow% p  p%qc2sg2fqqdf2f2ww%=;;",
"yX$;;x$x;;XX>66. s#2gggr%Opq%w 9>%#Sdp2#qjZZ44GLIPD#:=,z:2@O@%w6l.6iiie r O9c+;+88yvyXbb+XOo.6ii60.erX+@oma%wwmCzNtu1thbH--<-$*a11#:::gp2g p#2##w7xo%#224::r:2%4GJPJdJu7=0=XX5hhN+,Ntw@@3oo@N=3<*0ota1aCVVuCaAhA--+,+bt1X5CVuDILq:2244:rggg #2qLz1<t#uIILu%%#qq1uM9ow %@@#pr 2#:4:4f::fsp@c%3F;;",
"X37;;x$$$;FvB>>66 g2%2:rk 6@1% 9,>%#j4s#jjZGd2jPUID22,+j42r.k%%.i.6ii.rp2sO3m+x++-<&7+bhX,htO6.i6..kkX,@NMamwcM1D1VzuthbHn---**#411:2#222g p%%#1%*Fow::#:##s4%#:ZJJJSJ17>o35,5hhhX3Nt%@@O@ttoOO7*0NM1uaaVuaaCh5h-8X++ha1X5CDuVPj4#22#42 r#s #:jLz17@11IILu4#2:4%3Nww pO6%p  2fffq42:4::m@osO$;;;",
"+=-;F$**$$Fx&,3966@   s4psge@sp.XB9%#j#sjSZPZsSPIIL#:,+d4s 0e22e6.6i66ep:s03%+xX=X+<<5AM,5h@O6.666.ekv5@NM##wcMCDzuVuMAA5n<-n**Cu#2:%2ss g p%2%:1*F@ #::442:414zjJGJGJ1<5O9533h3h5hOot@N3@wt@OO<*0NtauuCuVCaCAb5-88+=tCa5HuDuVLV4:#:2d4g :2r::jSz18ouVUIP142s#%33Mw@c.6 g@ ggfs:4s:4f#w@0p0$FxF;",
"v=&;x$<****Fx&=9>B9.0k g4gffr 2c>BB>w2d:qjdSz:SPIII44,nz4#reks%o6..>i6.pfr.O%,$+==Xy-5ht,5hNO.6666.eky,tNm%#ww%azDuuumhh5n<--**au11q:1#s ss2%##qq-xww#4#:Z4::#1SZJKJJJu-,.3,,3hhO3NOt@oO3@t@N3O7$oNAmuuauuCCVat+-X+,=MCa3HDDVDPL44:s1q1cc:pp4qjSz1y@DDUIIu41%%OOmcow..cp@gf2:244s:qpc @opo8*$$F;",
"y3-Fx$-**<*$x$y=9>>99. er4rfZr%:@iBB>w%d:44qZdSSIIIV:X+zqq# s22 ..666.op2r>>w+*X,++&+5bA55hOO.66.6ekky,@NMM% w%auuuCumAA5-<nn**14114412#%sss%#:zz7$wm#:::q4ff#4j4JKJJJuy,.O5,=h335hOwooO3oooO3N*$oO@MCVCCuuaCCA++nnyXtuahbDDVDPLq:4#:d#kr2rsqqjjzu+mDLIID1#1w3@ppowO>@%  #4:g::psg@@cNkso&y-*$x;",
",58xx$-<<-<**xxy3=B99>. oc: 4Zg2: 9B>.wmzq2:qZGjIIIV4,+zq44gf44gkk.69.or2soOw+$39,,,,+=t,=AOo.....kkky,tOcww@@%mu#uCVaabH-<-n$$V114::411pgs%pp1:z<$ma%1:dZ42:zuj4JJGJJ1+=3355=NOO3=3@NoO=NoONON**NOtMauCaCaaaM5-,,++,@u#NbVDDLPjV:4:qjz#%:c2qqjjzV+@VLIIz11#3@w@@co6@2ps:q4s:# rp@ @@Op@vXX-*$x;",
"X,yx$*--<-<<<*xF83>B>N>oc0w# qKfg2 9i>O Mj:2:#ZSIPPV45+j4f4:4zzg k0...@p2 .Ot,$OOXy+++ht,btNO....eekky5mo ccc@ww1u1VzMMb+-<nn$$VVqdz4q4#2g2%2%41q7$Cmw1:ZKqs:j4j2SGKKKu+>>>,h33N333OoOO3=ONOOO@7$o@tMauuaaCtat57-+yyXO11AbVDDLLDqd44jjq4##%#44jjjj+ozLLIuatOo@@@toOw#p2qd:p42opr g oO%@vB=3+**$;",
"X,<x$*---n--<<7$F&OiB9N>@ o%20:Z:rp 6>3Oc%j:g:dSIUIu:=+j4f44qGSg eee0o w2#c@t,$NoOX&-,utbhtAo0..ee0kky+%c @@@oomVV1zutth+-<+n$$VVq4zzq:#22%#2%44d-$uam4:qKz1fd4d#ZGGKGu+=>>X553N33h3O9=>O3OONOo*$o@@taCVCaCaMA=-y&&X5o%MhbVDDLLj4q44jj4:4pp2::jqVL5tzLLIVa=@@@ctOOm#csqq#p4sorp0ppo0%wv99Oh+**$;",
"=N8x$*-n-n---<<7x;yN>BO09  @1#0fq:rr 39O@p2j42zSDIIz4=+Lqff:dGL:sree    #:mMt3$O@o3O5tDCAtMNO00.eee k+=aw 0@ooom1V1u#tAb+-<--$$uuq4#4q1ss#2%##1zq-$u#w::qK4dfq#44KGGGGqy=>>,X53Oh=hOo3,=3Oo3NoN*$N@otaCVCaVuahh=+,533oc@XbVDDLLD:##4dd:qq%2##:ddqP,oVLLIMht@@ @No%% %qqs :2 ggor2 0m%X90OO3n**$F",
",O&$$*---+-n--<<*FFXN>>OO. kp42.244gr 990c%#z:jLzPISq=,L:ff:jPJq2 ekrrrp22mMtb*NOO3OOmzVaMaMo0keeok  +Aaooo@ooNtCu111MAb+-7--*$V1qq:q42s2%p%2##jj*$uum:qqZ4d::24qKGGKKuy3>>,X,3Nh=hNo35,=NN55oo-$OtAttMaaaVCahANX,OO3Nwmh5DVLIPzdqdqz4:d4#s:#4q44D+OuLLLawwww@oomm0c:Zsesgrsskr2gowmlOwooN=y<*$F",
"=Oy*$7--+H-+n--<7*xF,OB9O.6 w%4#.2qq2wo99@wp#zjLVPID45+Lqff4GPJqg ee rpp#%ctMh7oN36o@MCCaaCMcook.    +=aO@@to0oC1u1C1thb+<7nn$$u44qq4q:22r@2%#1j4*xuuM:4qZ:::qqqqKGGZZ1+39>9,53Ohh3No3,53OOO53N-$otNtttMMAMMt=NNBB=,3o%2AHDVDIPz4qd:d4:qd#12:dz4uD,3CLDawg%#w@ p @%::gegsrss@pgsk %vOm#w@o3n<*$x",
"5O+*$7--HH-+nnn-<7$;x5O,.0.igspq4es4d2w@33@w%1jjuIPjV=+Ld:f:ZJJqgk okrr2#2wtth<@@OOO@3aCaMut@0ee6Nte +=ac@@wtoMz1CCVCtA=n<7-n$$ujdqz::##::%#%##j47$uum#44KfffqZdKJJJKKu+9,>=5,==hh3hN3,,53OO=5hn*ttNhNNtNtt@@OOO,>,,3Nw%O+DVDIDV2#42:#%#d#4%s4Z1VD,=tDMmgp1#wcp @%44regsrgs rp2ek vO%11%tNh+-<*x",
",Oy7*7nn+H-+nn--<<*$;$5oB.o..2rsjdes4d:#@.O w##V1DjjS3+Lq:f:dPJq2r ek c%1#mtAh7tw0OotNauaauMo00e0O.erXbmwoowwcma1uu1CaA=n<*-n$*uzddz4:##22%1w14Sd**Vz%#qqKfqqdjZjPJGKKzX=,>,5,5Ohh=hNO=353Oo3,h+*taMhhhAAtw@@O3O,=93OOo#O+VVLIDu#2#c#%2#jV4%2::1uD,O@aw%g##%p%  s4:po22rsgg r2.orlo%###M@N=n-**x",
"=3y7*<+++H-+H+n--877$;*>oB.oie2g#zd sqd42@0ocwm1z1%zSh+Gq:::4GJqfr e   212@tAh<M% @@wtaCtaCmc@o.0  krXAa%c@M1aMMzuu11at=n<*-n$$Vz44q:42grg:4M1qz4**uz%#4:Kddq4jZZPGKZKV+99955=533h3hONB3=3OO9=An*@tmAhhhA@tt@O33=,=339O%5+VVDILuq1# 2%%:jzVm2f2:qz+O33cg##%pr c#q:rog: gsrk 2.0rl@umc%mwwN3+<**x",
",5&<7-+nn+n55+n---87*$;7=o>0 .22rfZjrr4dq2 oO@cp#z2zjN+GZ4::4SJd2rrek or%%ttAO8%#c%p#MCVMtamw   0e krXt%%wtaz1MuDzVVatA=+<7nn$$uSq44:42spg##%#1d:**1Vm#4:dqfffdZZJJGKKz-,>9,,55333=3NO,55=3395h-*@ttAh=hN@@@@AON3=93=9Ow++VVVLLuq#2rs%%:jjjMs2g24V+X=O@g2#gc p#44skg4rsgsko20o lOuVmw##aMN3,-<*x",
",=8<8yn-n+n=H+n---8<<7x;7>O>o%@f2s2qSrg4dz1@O.@p%#44zt,PZ4ff:ZJzgrr  r p%%Mth38%1ps%1MaVCNmam@k  ekkrXAw@ocmu1tuDVu1tAh=,<7<n$*1S4q:##g%  %Mm%@##**4Vm24#qf:fgqGqJIJKSz8=>9,X,X=3h3hA3,X,,ONO5hn*NOhhhhhb3O@MNON==OO3=Ow,HDVDDD111%g1p2:zVjmggsp:#&B3oop22rwp#:4s s4%2#%@o2@ el9auu##12amA=,n<*$",
",X88yyXnnn-,+-n---8<<7$x;<>3>o#c::f2qSgg2:41@..ocp#djh,Pq:4:4ZJzr r  rp%11ath3<M:%po#mCVaAM#mokrokkeg,Amw wtCVa1uzu1thhh5-*<n$<uSd4::42p%%pc@#w#1*<uu%%:fqdZqsdGqJJJKKj-,39==5,5hb33N355X+NoNhtn$==hh3bb5=oM%N33+XO9=>>@+HDVDLDV1#c%uw::zzz#2s2g%,v>Oo ggrp%2##gr2d##4:@o# k.&>c1u1#1#%amtb,n<*$",
"tv<&vyXnnn-++-----8<77*$x;8=33o#w4dffqjr g#1ucO0@ p2jhhPdqZdqSJZrk rg2%%11mth3<M:2pp#CuLCAtwc k .eeer+huawwtCzz1uuuCMAhb,n<-n$<VLd:::2grgp wwM111**a#114:qqZq2jSZJJJKKVy5999,3=,3hh3O3==5+NohhAnx93Nh==b5=t%MNOO+,==,>vO+HVuDDVz1MppVwg:djz###:%3X..O     c%2%pr#d42:qro1@e689cmuu414#%1Cth5+-*$",
"3&78vvXynn-55----n-8<8<7*x;&,OO@u%4Z4f4Kss4LIJj%op@ s4MPPPSZdSJdgk  2gpwCCath3<m#2pw1CaVattoc  eeek.r+hum%@MCuuauDVCmAbb5n<-n$*1Sq#::s2%2g %%au1#*$%#%#:ffdff2djJJPJKG1y33,B,=35bbh3OO3=5+ON5hh-x3O3h5,,=O@wwN3O,=OO==v9y5VCVVVzmwc 1wr:qjj22s1OX>.O@     pgggp:q:244%cw9 .&v@wM1u11:#%amt=5+-*$",
"3y*8vXX++n-,=nnn-nn8<88<*$F;&,.Owu%4K4fZGZzJJIIu  wo pw1PJGSjGJ4grr sgpwaCumN3<M##@O%MMCaMtt   kekeer+hu1mtaMaaaaVVuaAhb,-7-n$*1j4##:#1%22pc####%**a%%#:fqdq:#:GGIJPKGuy,>=5=3O=3=3hOO35,+hN3Ah<x>3h==,5bN@tohO3,3O=55XO-hCaVDVCMt s#%#:4jL1:pOB59.oo@kk r  %2#4fsqd2@jtoO$83 Mw#412::#amA5+H<*$",
">X*7&XX++nn,5+++n+n-<<<88$$F;&9O6wugqK4dKZ:dZq:# @wcwr wVIJSSGS:sg  g r%#mCmtN-M1:2ow1aVMmMw    .eeerybuumwuuuCamzVamMAb,-7<-$*#42::s:22#psp%1%#%**mc%#:22fffm1GjIJGGGu-,>=9=33=h==h33==3X3Nh3A-xB=33,5=btt@NhA333O=55X3-bVCVLVm@w@c% #44SLu#OX>93ooo.0 %%w%:4:2sd11p O@07;y@w%p2:##:2%#MN5+n<*x",
",X<7vXX++n+,,,,+nnn87<77<**$;;8.ucaapZK4dKq:22ss oo@@w% cVJSdSS4#2r s  %1mCtANnM##1cwCCDCCwp    ...e ybu1amVVVuuCzzMtat=,n-n-$*uq#222::#2g##%ap%%**Mt##grggffN#GjIJJGJ1&,9955h3=3bhNO==hh+3AAht<xX==3,5bbtttNhh5O33==,XO-hVCVLumtaOo%os4#SLa=yX9.0O0oo %%2#:d4s24m#%c0o.8*Fycp22s:2#:s %wA5nn<*x",
"v&87&X,X++nn+,,+n--888<7777$F;;vzLDuCgKKqKK:f2ssr @oOoc%@%qjdSG:2fsrrrr%CaCa@O+w2sgraCCDuaw2   k...e ytVumaDuuuC1VuatttH+----$<uq#gg:42ss:##aamw@**tm#1prs2ffO%jJUJJSG1&X>355O33,=hAO==33,bhAht-x,>=O,5hhAtMhbh5=3333=,38tVCDD1M@%O@%cp1%Vz,&vX9O@O@ cprg#qd:s#qc##poo97*&$& p%2s:2#:# %Mt5--<$F",
"&&&8&X,X,,y-+,XX+-88-87*<777$;;;XwNNMu%dKZKZf2sgs@ @O3O p@##4SP:#fsrggsa1aaMAO+cs2gr%uaDVtt2k0  ...er+ADuMmVVzzu1uuCaAMbH-<-n$*ud:4#:d##:q11%%wMt*<tt1uw gf:g@tVJUPGSG1y,=,,=35=,=3O33hhO,bbbhh*F,9=O=5hhNNth53=53hN3,,,-taCDV#m@oOOp%w#1%3&v,=99@#%c%wgs::fs44og2see.7$&X*,cg2%g:21:2 %t@X8-<$F",
"=X88&X,X53+-X5,X+y-88877<7<7$;;;;8,X9augZGKKd:fsggw oO.O %w:#qS4#fsrrg2au1atNh+@p2gg#uaVzMws00  e..k nAVCmauuuVu1u1CmMab5+<-n$*4z4d:sgccuu1% ww%%*<mt1Vr  fdf O#PUJGGG#yX==,=O9,,bh3OO3hh,=bht3*;X>9OhAh333Nhbh33NhN=,,=-taVDV%MwOONor ##,&vX339>O%w%%2f::fg::k  g e6*$<v375rggr%q:1:2%pwtX--*$F",
"@,87&vXX=3XyX===Xy+-8877<777$;F;;F7v>.C12KJGGZZ:ss2gro>>ow%%qqj4::frrs2Cu1mt@A+wpsgg#MaauaM2o.ke... pnADuaCzzz11uD1CaAab5-<n-**Vzqd4 .3ha11#Mww1m$<aM#ug  ::fpN%GJJSKG1yv=,,,O3,+bh33O3hh5bhhMh-FX93h=hAh333hhthhh3h35X=-aCuVuMtt@N@ocwtBvX,NO9O>9 rrss:q:s#2o 22ke.7$<&BO<,pgp%%q#2222%mtX--*$;",
"3587&vX,=3,yX539X++y8<77<<77$;xF;;x8v>Oa1#GJGGZZ:2##%@3,3oc##jd::2fsr2#aVuaM@A+%psrs1taaCC1fo6ee.6e pyALVaCVuDuCVDumaMMA5n<<n$*uzqd4 oObA1V1w%M1%$<atMuwO ffd4@1ZJSKZK1+X=XXX335+=h333hAh,hhhAh-F,=OO53hhONOAAaNhhhhh5,9-aCCuuM@@oOo0o5+v,5o@@wc9.%grs2#:#:sor##gk6*$<7&9o7,2srs2#r pgppwN+8-*$;",
"==v7&vX5=3,+X=33XXX+-877<<77*;xxx;;x8v9oCV:GJJGZKd::sp@o3O@w%#Sqq:r22#4uuuCMtNnwcsrg%mCuCm#g.iee6i0 r-ADV11VuzVCuDVaaMAAb+---$*uqqd4 k oAmu#w%tmm*-atA1%wpffdG@zZJPddKuy,5XX,335+=N33OhhN=bAAMN<xX=3O,=3NAoOhACM3ANNO5X9+aCCCCM@tNOOO+8vX5o@p%2p@o2gg::4#:2o%:sg .*x$<-y3o*B2spg2skop2pc 3y<<$x;",
"=,v78v+X==X++533=XX+y87*777<*;x$xF;;x&X3@mu#KJJGKGK4#2%wp@@cmc2jjqgg2:zDuumtAAnc rg221uVCm%re0ee.i6 pyhDzCVuuu1uuzuuCAMA5n---$*zzjd4s0fpaa1#Mmo%m$<#AAam%g:fdJaLJILddZu&XX+XX=3,,=N3O3hOAb5hAtO7FX=3O5=3hAON=bMtOO3Oh=53+aCCCaMtat@oN7X,XOc%%1w2g2g%:s4:22psp2 e6*;$*7yy5O762g%p%s  g#g @=&<<*x;",
"o,v78vX,55X++X=395X++y<7*777$;$$$xx;;$vXOtM14GJJKKGK:#%#%c@ow%cg4:ssgsjIu1MA@tnw r22:1CuCap eke..6> s-hDDuuuuVu1VzCCCAMhH+-<-$$VDSjj#. ptm1#pMOmM$<attm%w 2f2JCIPPGqqZu-+X++X5==,+h33OtAhb=bhtO-xX>hhh3hhNAh=bttt@OON=53yhaCaaMtMtt3,+,,O@%2#%2ssgg:s:#s2gspg k67x$x*8y+,O80fppps2scs2gpc>y8<*x;",
"O,y78vX,==X+++,533,y+&87777*$F$$$$xx;;$v,OwM1qKJJKKGK:::4c@0Ocpgs#gg%2VPDumNt@-ck s2s:aCmMwreek.666 sybDDuCuDz#aVztambaAH+<<n$*1DDLSq 53tau##wh@t$*mth@mp r2s%aUIjj44Z1-+X+y+,=,,y5333tAhbbAAt3-xB>Athhb3hAhbbMamNN3h5X=85aCaamttmO-+,XOcp2#22#2g:4p:p@ppsrp r67$*7$*<y+=o8efrcg22:rps2% ,&<<*x;",
"3,&78vX,5=X++++X=9,Xvy&<<7**$F$$$$$$F;;$X9.MM#4SJJKZGK:2 %co0op%%#2 %#VDDzaN@Ay oksf::aCm@  @.ke.>. 2+hVDza#uu#auja1CtahH+<<n$*1DDLSd1o#11#1#th@w$*amN@w%g2fs,bIIPG4qSC-y++++,5X5n==33tNh3bAMt=-FBBhAh35=hOhbhtMa@ooN5X585aCMa%@mt++,=Oo%1:24:2f#: #p@ @rpprg *$8<8$$<7+9@8efrpg22swpg2g@X&<<*x;",
"9X&78vXX,,X++++X,5,XX+y--7***;$$$$$$xx;;$BOOam#qKJJGZKqs ow3  rg2%%#%VVVDLCooAnwko2f:2#CM@  ke   ..k2+buD11CaCu11jaaaaCA5+-<-$<1DLLSdz1V%#4#wthOM**mCAw%2#f2rn*LIPjqqZC8-+y++35XXn=3=5AA3h5hAM5n$XX3hh3=53hNhhMm%ot@N=,585aaAa%NAX+,3@@w2dq:2::2fg%m@@22pp g%8$7y8-$x$*+=o8efrsg22p@csss Xy<<*x;",
"==v87vX,55X++++X,55,XXy8-8777;$$$$$$$$F;;$ioo1m#dKJJKZdqf oO pp%%2%#:4uaLLuoot+wkogfZqu#wwrkker4# rr2nb1D1Cu111Cuu@ttaaAb+<<-$<1DLPPjqV#m%#%wthNt**aCM@m#::fg.7LILSjdqa8-++++=,XX&,35,Athh5bAA,<$Bv=3NO3O33hhAaa%otOhh59n5aaAC1,-+,O@oc#:dd2#qfgf#%wcpprggs@&$<&+8<*x$<+3o<0fgs2:#cor2sg ,+<<*x;",
">=v&7&B,55X,X++,55==,X+-&8<77;$$$$**$$xF;;*BOoCp:qdGGKZZfs%@c%%pwp%p2#paILC@ot+   sf:qzawt  eegPL4:22nbCDDuDzuuCu1oMMAMMbn<<n$<uujLSjqu#%2#%mAh@t$$maMtw%#:fsr31zLdqjqM<y+++y==XX&X335NAhhbbMt5<$,3AbNhN@3hhAtMC1ttO35,3-5MaACMyX3@ w%q4qZ::q42s4#p cc %2s 7*&vy+87***-X3@76f2g#q2oOrsggoXv77$F;",
"3>B&7&,,5,,,5++===395XX++-8<7;$$$**$$$xxF;;7l9Na%#:4KGZdd 21 %%ppwcww2pmVMAoot+ r gf#1ummM rrk:IIz1%2+haDVuDDuVau#AmAtatbn<<n$*wujLSd41#%###wNhtM$$mCt@@rsf:sgk%VDzqSjM7&+y-y5XXy-+=35hh3N5bAA5<x,NhbhNAN33hAAMmmtoO3,X9<=MaMA,3Oo %2zdKKqf:dss##wOmmw1#2p8*8vvvv&77*7-+=@*6:2s:q%OO rrr0Xv77*F;",
"=o,&7&,,,,,5=,X5==O9=,XX,y--<;$*$**$$$xxxx;;7l9O%%s#4KKq44rp r%g%w@@ m#1N,30tt+   g::1Dmto  s%uILuu#:+ACDCzDDDz1u%NthMCAb+-<-$*MVLSSjq:%#22%w@Awt$$MCMwc%s2s2grdzjjqjdM7-++-+,XXy8X=O=AAAA5btA=-xX5==5bh3=hhhAtttwNNO3X5-5tahX3No 22ZKdKd44q:gs#coww%w #pv*8&XXvXy77*7+5O@*.:2#:4r0Orpr 0BX77*x;",
",o5y7vX,,,5==,X==9OO95,X,+n88F$****$$*$$$$x;;7B53tp g:qq:4fpgrggg @oo@m#1O=cc@+pp g::uSa@o@ pCVILV##1+ACDVDDDLu111AMAtah5+<<-$7w1jLjZ42@#%pp%M@%tx$amww@ pss2rp4uzD4jzM<-++&+,XX+<+53,hAAhbbAA3-xXXX5+5533hAMaaCm%@tO35,<+AA,Noot#1qdKKqqddf22:w@mt%%ccwv7yyv,9BXy<7**+XO@7.:2#442o6 g  o>X7<*x;",
"XO,&7vX,5533=,,O33OOO39,XXX&yF$7*7*$**$$$$$x;;<,,5N@ rs:d4d:2sgrgp oOO@c%1o@cA+psr:44VDuMoor aCLDzm##nhmzVVDDD1#uCMaAaMAbH<<-$<a4jSjZqr0wwppatAat$$CaMM rsgsgr#:1Vz#qzM7-yy-+,XXX<+,93hhhhbbhh5-$Xv+XX55,=hAaaMa#%tMN35,7n,+3oot44z4qdqqKd:f:#2 %%%w@ @&*yXXvB9,>v88**8+9@*6f2#dq:oB gr o9+77*x;",
"vO5v7lB,=,33355OO33OO9=55XX++F$778*$$$$*$$$$x;;8X5XOOO@%:qdK4::ssg @@O.0@w1woAnc#pf:dzzVmoo@oMuzaDa11-bMDDzDLVu4VMNMtaahb+-<-$<#qjGGS4gwwww%%ttaM*$aCmmw #ssgpq41uV22qM<&+y-+=,X+-+X=3hNhhbhthh-$Xy++53=5=bbtCaMmtomO=5,<7-=OOo#djqzZ:fZd4:f4gc#mc0w@@&7&i>BX>9B9Xyy*7-X3o*>f#:ZZq@vospc09X7**x;",
"XN=X7lB==,933==NOOOoOO3=5,5++x*7<-8*$*$$*$$$*x;;8,=hNoo@#:4ZKZd:#gp @@0O00 4%h-@#:22:111tOOoo@CzhDV1q-AMVDDDDzV1#thtMtaAb+-<-$<aqzGSKdg%pwc%wttat$$#CM%c #2rsp#41uj1%dM8-XX--X,,+<+=O3AAh=bhAA3n$>X+==h=bhb=AaMMmttMOO,X<7=O3o1:zddZdq:KK:f4s #%wop c&+,l>9il>9>9vyX77-X9@7Bf#:dSjc&62p O9y7**x;",
"X35l7lX,=,=====hO3O@oOO=,,,+Xx*8-y+-77$$**$$*$$F;<,OtwwO :2dSZKZ4:spccp@.00 4w8os::ff%Mmt3N@ooCahzV1q-ACuVDDzzD#1mNmtAthH+-*-$<#VdGSZq##%wwmmta1t$$Cat% p:2gsg%4#14:2dw-&XX--XXXv<+53=hAhbbhhb5<*=5,,bhhbhbbtaCMa%wMOO,y-9.9O#4zjjZqGdZGK::2p1#%c2r v7==6O.>B9>>9y&X<78y>o7if::qjSsBBrre69y7**x;",
"X,,l8lXX====335=3NNoOO3==5X+Xx*8y+X+88****$**$*$;F8XOMwp0 2:jZKGKq:s%%%%o... qN. #qdZquth=oo@cCaNMw#:7buzuDz1uuu1m=maaAh5H<*-*<#zzGKKd:#:2cpmtCut$*Cm@w p##:2p#qq##12:w<++v8&XX,X-+=3=hh=hbhA3X**=5X+=h==hhbtCuC%aawN3y-=99O#2:ZSz4KZKKq::2p#1%mq#%v&yNN6o03>3>9=X+B&78y=@8>f:44jS:Blk 06iy7**$;",
"XX,l&lBX=3O=33=33ONO3933==X+XF*8y+X+&&7****7<*77$$F8vNww%0@%2KKGJK4::4###cO.3p4p 24qqZ1m=3oo  w1ow%%%<=1DVzzuuauCMhmaaAhb+-*-$*MjSPSSq:s2r%#%AaCw$*1MOpcp22f2p1u1#1#%:w<+X+-y+5>X-+=N,3h5=bAA35-x,XyyXbhhAAhAMVuamwoOX8,93o%#:4ZddGZZKq4fgr##%%qjc<*9XA@O@O99.3O9,5=&<8y>@->f#:qZGd.ieoO6B&7**$;",
"+yXl&lBX=3O==55=3OOO39OO==,XXF*-&XXX++-7****<7<<*7x;&B@cp2o s#fKJGZqdd414u#cO9 #pgq4qdqm33@@ wta@w1%w85uzCuVu1a1CaNmaaMA5+-*-$*ajjjZjq:g:##1mAC1w$*CmOw w#2sfrp1#14:2:t<+XX-yX59B-+3o,=h5+5hAX,-x,5XX+=bhhhhAtuCMttO,&,3O@m24d:fqJKKd:4frg1%wp#Zp&F8o9am@wO.OO3O9,,3&<8y9@-9f#:4qZdroe0.>By7*$xF",
"+&,v8lXX==3335,,=3O@O9>O35,X,F*-&,XX+Xy87***<<-n<-7F;&.w p1  f::KJGKqqq1211%@O=@%g#4Z4S@3OOOta@mtt1#M85uVMmu1auzVCOMCatAb+-*-$<CjjSjZqdf4:41thu1M$*1mN%ww##sfgp###::2#c<+X+-y,,9,-+3@O3hh55At+y-;v=,X+5=33hbhMuuatt3+3o@o%%:d4:qdKKZ:fg g22p%:Zp7X7ycOaMwcO.0O3.=3O9y<<y9@y9ffqdq4:fgoo.iB&7*$x;",
",vv&8lX,==ONO5==33oto=3o=5,X5F*8-,X+yX+&8***<8-n-+<*;;v.@c1s rffqGJKKd4z2 pwOo39o%pfKqGM=N3OtmNtMM11M<5uuCaC11uzVuOmCatbbH<<n$*VLzGSGd:fq:d#NAu1m$-VCAMwp#422%%%##%#2:@8X,y&y,5O=-+=3333555AA5X-xX5+++5,=bb=haCatO=XNo op%4dqdGKKJZ:ro0 pps2#j1&7N-,mOaa%wO.O0ON==t@v78y>oy9ff4dd:sf2eo06B&**$x;",
"5&v&7&X,55OoO=5,=Oo@O,9O95X+=x*<-XyyyX+y-8*7<8-+++<7$;;&.###2rff:KJJGK4:4@o@o0@@oO g4dSM5@O@maOhAC11M*=CaCua1#MVzCOaauabbH<*n**uSzSZZ4f2qqdthMuut$+VaNMwp#:#2pp%#ws#p4t-XXyy+XXO38+=O=55==bbh,X-$XX+X,=,5=bbMCato3=3N@0c%dZZZKJGGK: 99@crg:2z4vvBm-5%OCCm@O..0OOOOo@X<&v>@y.fs4qq:rs2ke..>&**$x;",
"3&v&8lX,55OONh553Oo@o9>O3=,y=x*8&yyyyXvy&&<<8-n+++<-<x;Fv3#%2ff:fqGJJKS#wwoOOOO@@oOw:qSm,OOoMmAhhM1#w*=aaAaCu%muuCNCaCCbb+<*-$<zPzjzq4ffqj1tAtuVw$+VaNwmw1dq2  #12:#24w8y++yXXX3=&+5O5533bbbA3,-*XX,,,5==5hhhCaM3=oo@O %zSKGKGGZqq i,,3pp:dj1vlo.anO%oaCm@...0ooNNtt,&&X9@+Of24q44gs# e.6>y77$x;",
"3yy&8lXX5=3oNh=53O@c@99o39,+,x*<--y&-XXyy+88y-n+,=nn-*;;xv31g2f:q:dGKKSd2wcwo@o.O@@o%#Va,OO@mtAhhN%wN7=auhmCu#1Vz1@VCCab5H-*-$<zLjjSd4:fdjhntMVua*n1CNw%mqdd:p%gs2ss#qw&++++XX,h3+X53==hhhbhA35-xX,,,5H5==AhbMahXopwOo24dGGGJJKdq >,X-5@2dj1&&Ogo1+N1caaw@66..O@oNw@=&y,9oy.q24q1dsg: e.6>y77$x;",
"NXv&8lv,559oo3353Oot@>O O35+,x*<<-&y-XXvyX&-ynnX55-nn*F$FxXo#rg2qZ4dGKJGZ#pwmc@cwo@cw%1M=OO@tAAAhhm%@*=auhta1#1VVCmVCVabb5-<-$<zLjSZqz42q:t,tCD1a$+Cmha#%dq4:s2crsgg2qM&XX+-XXXbhX,,==hO3=5hA3,nxvX,X,5,==Ahhab+@#2@ 4djjSJGGKd4p66>==9wq42&v.c%cV+t#ouuw@O..3O@otMw=&y,9o&.q::414ss: e..>&77$x;",
"=yXl8lXX559ooO3=33N@o..@O95+,x*<<--&-+XvyXX++n+X5b-++7$*$xF,N2rg:dqqZKKJKq4%#aN#wco@wmu#5OottthAhNw%m*=Vu3hM111VuCCVuVChh5-<-$<VjPSjZd:sdq4MtCD1u*+aaNa1mdz:#%2 rss2:zm&XX+-y++=h,X55=hh+5bbtO>+x,,,X,b==bhhAhXo1% #44qSGJGGKZ:p0.@coNM#:2&&.@%p%zX %tuaMo0O..OoNmMM=&y,9o&.d4::44s#zskk09&<7$x;",
"3&v&8lXX,,9ONO==33OoO330O35X5x*7<--&+,XvvB,X+++,=h+++<$-7*FF,osrg4jZq:KGGd#1#at,3ow@Oow1M=NMtttMht@pM*bDDAOMVuCVVuuuCuCb5H-<-$*uzGjjZdfgjjj1aVD11*+atNaa%qds2%:ks:::qSw8yyy--y+53=XX,5hNX,5bhOX+*=5X55==5bhhb+o#p %4qqSjJJJGZ4soo@cwwMw%2v8>0p#2#VX@%auC o@o.6Ooo#%t,&X>3o8.d:4zqqg#G:ke.6&<7$F;",
"hyvl8lBXB,5=O355==9O33OOOO=v>x*<8&y&&XXvvXBXXXX,,h+++7$n-<$xFX. rs4jS4:KKKq:%3,5O@@McON@1MOtMMtaAt@MM*=VVh3tuuCVuCzCauCAbH--<$*1SGdZZd:2ZZPCuDLu1*+MtAm##4qg2g4ggqqqdjw8&&-y8-+===vX55h3X+5AA3X7$X=Xb=5bbAh5n@%@cc#d4jJJIJJdfr@o@Ocm#%%%v&i6.c#2%u5 #muCco  0.@cwamM=yX,9o8.d4qjzqs#Pqrk.6&<7$F;",
"Ovvl&BiX,,X,5=533=93=9.Ooo9v>$<<<-y-&XXvvBBB>,,,,h+++7$++8*7x;vo %s4jS4:ZKZZ4w5OOOoowt@oO2%MMMMuuCA%m7=VVN3tV1uzuCzuCDVtb5---$*adjjzd:d4dqSCMDL1C*Hatt#%1q4srr4gsddqdjm<&y-&88y,39,,==hh5++hAO=7$+5,5b5=bh5+@woc w:q4qGGJKd2rko@@ wmpggX&66oop%##1=@mCu%c0o 0o@ Mmwo=&y,9o8Oq4qzjd2:Jdsre6y<<$x;",
"N&vl&BiB5,XX,553O3939=>3O@=v9$<8<8-8y>XXB>>B>>3=5bn+,<*,+n7-7xFBw%:f4jS4#ZZjd2 m@N@@OM@0@0#mAaauuaA%M75uut=tuuuzu1zCCDuAb5--n$*m4d4jd#:qZqjuaaD1#*HmMtmwm2:2gpd gdjZzS%<yy&-888n=5XX53hh5XHbhO5<$&vX=bb=b5yo@.@c@%21q4SJZ:fr @c ppM 2%lv0oO w#%#1u5o%mu#w00kooocmww0>&v,9o<.qq4qq4#qJdfs0>&77$x;",
"Ovl&&i>=35XX5=539O999,=33t,vO$88<-8<y>,XB9>B>>>9,5++,7$,++<-<7x;,M2:s4PSd4ZZSd#1%wNt@t%@O@oMMMCCMttaw*5CMAO CCCuuzSuVDCAb5-nn$*Mzd4jG4:qZ4SuCCD1%*HMttmw%#fsgpp pqzZzS%<&y8-8<<8,3X+5=b=5,HbhOX7x&>X,h=55+3O3.OOw#2#4PGK4::p0@w%%Mc2sv=O cO@ %m#%u,w%ou1%@okko0@cww@>vXX9o<.qd44q::qPq:2e9y77$$F",
"N>l&8>>=335,5=3=93=3=,=5O@,vO$<&<&-<y39BB99i30003h=,b-$5,,<--8<$;=w#4gqSzqdSGGjjq1mAa@w#@@toctCaAtAmt$HatN3caC1V1uV1VVCAbH---**ajZ4zGq4qZZJaaaDum<HCttMw%#fg r s#ZZZdSm<8&<-888<+=,&,==5,55bhO,-$&9,+++++=OOOOO@%1zzLjGK4:%00%2#c :%,hmw%%oMm%%ama52rMj12 k koo@ %m0>yvX9@<.qzq4q:q4jq4f .v<*$$F",
"O9l&&6>33=5=3333OO=33==3OOXXo$8&8&y8+O.Bi99,.o@oOMb+h-$=558-n--8xx3w1j%qGjdSGPPLSzu#@1@#%@@@@wwtAatmt*5aMh3tmaCuaCuCuVab5H---$*MjjqdG4q4qKJMaCDua<HCMtttcr2sr o24dZdqK%<<8<yy&8-n5X8+5=,B,,=h3=-x8XX+nn+533OOoo OaaVLzGK:go@%%#w 22B,muM%mOma%1#MC5#rtD1%wokko@ o#%@9Xvv3k<.qzqdd:j4d:2se.v7*$$;",
"39l&&>>9O3O39O3OOO33=333O3+,N$8y8y+&XO.>>3.i.ok Nt=X=-*==,&-++++8$x9puj#SGSjJJPPGjjd1M#w1%o@ @wohaAt@$=CCAOwmmaVu1juCCab,++n-$*tVSdqZ2q:qKPMaaDzm<5Cmttt rssrk 2qjZddK%<<88+Xy8y-,+8n+=,,>Xbh3,-F8yvv++5O=O@oOO=,@%@aPPqfrr2#4cr1:lX%1Vaw%@ww@%%ta+4#Nu1p kk ocw %%09,,9o 80:q4jGqGq:2s2o.v77$$F",
"=Ol&8B>9OOoO3OONoO3==O953=+,O$<y-+y&X3.>>99>.e pwt=53-*==X+y,,++n8xx9#1j1SSjZPJJGPjzS1m%m#%0O@wcoNh@Ox5CatOwaMau1MuuCaab+H+--$*t1Szqj4:#dKjtaazVM<bamAtt@rgs  @gdZjdZK%88<8+,X&y-,-<yn=5,=XbhO3+F<&yy++=3369oo3OOo1qzZKq2g%11c 2#>l>czVu %wto.r%tun14Nu2 % ek0@ www0O,X9o <O:q4SGZJS:gr 09v<*$$F",
"=ol&8i93ONN33ONOoN3,5==935+>O$8&&++&X9..9.99.e p%CN=h-*55X&855+++8*$x@u1d:jjZzPJIGPSzS4m%#1poO@@%t=3=$=aatop#wau#t1uDtt=++---**auSzqj:4#4JzAMauCt<+MtNNNo kgr  r:SGZdZ%78<<X5,yy8,X8-n5,,5X=hN=-F8&8y+55OOOo@3@ww2djq:qd#p## c2:il.6Ouuu %wMoOw#au8mqtu% 2 0o0o wccoO9,9or<9fqdSSSIS# oe6>y<*$$F",
"5oB&8B>3NtO3=ooN@N=,==9=99X9Ox7&y++y5Oo09..9.ekp%Co=N-*=5,y<55+++-8*$xtu1z#2qZjJPIjPSdSj###%mOO@c%@=9$5aatN%%wau#wjVuAh5++-<<x*M1Sj1qq42fGztMauCm-+mt3NOOkekkooo#zGdqZ#78<<>9,X+n,+8-n+XXX,=hN=-F8&-+,530 @o.Nw#4zZ4jdq:22s  2f66c@OOtVzpcmmo@w#Mu7p:oa%  0Oooo.cwc@39=3@r<9:4dZZSIL2 ek6Xy<*$$F",
"5NB&&B>3ot939Oo@ 35,995,33X93F*8-y&+5Oo@.OO6.eer%#@9=y7h=Xy+=,,,5877<$FMa1z#24zGPPJPJjjjj#11%w@cwpm@3x5MMt@%wtw#%tVDMbb3++--<x*w%dzud4:4:KutMM1Ca++wN3OO0ook k o#:jqdZ%*<7<B>,X+X5y<&-+XX,5bhA58F<7X,=3opcooww11djqSSz:gdd# 24oO#1utOwVz#cawtc@1au<w2o#m@c..0o@.@@@03,53. 89:q4dZSIL#coo>Xv<*$$F",
"5OB&&BB5@wONOoN cO5,3O>,=5X>9x*8-+++,O@ o00..ekr%1@3,y7@3XyX5,===-----$xc%uj:s1dGPPJjj4jd:#11mc@c%w%c$haattmmwww%@VDC=h=++-7<$$t1dz44:::4K1ttM1Ct<+tthOOOookk r %:jZdZ%787<BB59XX,&-8-+XXX9bhA5-F<-X960 p @%w#1zjzG4:224dzp2fOwa1uz#%t###w%wtcr1#u7 %o%@0 .6.00OooOO9=3O. yOfdqZqzIL#w00>Bv8*$$;",
"3=i&&i,=ooONo@o@ O5,33>,5,X>3x*<8X++X3o o@o..e  %V%O3+<wo,X==3=b,-n+n+y*x %4q1:4zSPjPjS4jq#1%1cp0c%c2=,taMtmwcwcMoVC#=5+nn<<<$$M4Vj44d4#:K#tmMu1M-,MthNOOok  rr  24dZKp*<7<B,,5+++&--nnyvX55ht=<x+,..kg%  wc2#u4zj::2:zqd 226NC1uum###11pwaa%p%%m1*opo%OOwO6OO.O@o3.>9OOOo8OgdZZ:dIS#p0.9By<*$$F",
"h,B&&>,5OoNoo@oc@355O3>,55,>9x$8&y&+X30    .60er#V2 o,<c@>>OO3=3,Xyn+++n$$w#d4dSdzjGPGjZqKq:#w%wwO2p #Nhtta#@@cwctzV#3=,--<<-$$m4qj1:d#2fq#tma1aM-,athNO0@  @rfr@24ZdS%*77<>>X5+,5&8--yyX,=5bA,$75O0 22 wm##d411jq44:qjqggriOVu1ua0wo%u1pcaM##2%m17@co1@..66O039 O>3>993O0<OgqdqfjIz2c0.>,y<*$$F",
"=XB&7i=,O@ON@@@2@95=O3==39,,,F*&vy&yX3O@r  0.00w4z:ro=7@ .3@tN335X-++X++-$$m#4:djdq4GJGjZdGd%%w#%@0%w@2tatMw@c@@@tzzuAh,-n<<<xxM4zV1dd##:dumt11m@<+a@hOOO    pfggsfZqKp*77<>=+5+,5&8--&&Xv95b=<7,..kspoww1#u42#SjSq:qq42pgB=MzVuu#9.o@1%g@%w###c%C$Opt1w.9999O95@OB>>>,OOO80rq442jIdpo0.>By<*$$F",
"5,i&*B>,3Ooo @w#@=5339=5ON=XXF*&yvy+59o rpre0kecujq%@37@@06wm@93Xy-+XX+,n<x$c%12dSd#2jPj4dGj#%%w%%0@#@@4CAM%@o@@@oV11Ah+-n--<xxMuzz#:d24#4#mt1zmt-+mohh39   %gsg%2fd:qp77*<B,+,++,--yyy&XX>9bn8>... r@wc##u1%4GSPdq:1#4  &3a1DVVuaOO9@a%2 at%%2w#a*9 oM@9>>9>95=O3vvB3,Oo080r4z42jJzgo06iB&7*$$F",
"=>i&7B>,3oo@ c%# 5,=O5X5OO=XvF*&yv&+5.0@rppo.ko0%V#prc-c@@.wmw 0X&--X,,,+-7F*@2124dd42qJG#fZZ#m#cw%Ocp  #tc% 0@@@@V11hh+-n<<<x$M1zj%24%114#MtCDaw<-Mt3330   pgs2 #fZffr7**8>,+XX,,-<yy&yXyB,y&9...0oc%M11uu%zGdjzz41p2povxtuuDVzu1N3O%#%2wM@22g%#M*OoO@3BBi993,9O5y+v,,9OO<0r1j:#dGqgoo6>X&7*$$F",
"XXB&*vB5O@ocwp2#w5,33,+X3=,vvF*&X,vyX9Oo rr@o 0o%S2%pcyw@r0wa##w=XyyX,55,+-*;$312#qddqs#Pzf2#4@#1%mtOcpc #c@06oo@@VV1hbnn-7*<$$M#Vj%#q2%2d%amaz##<X%@==OOk  @gsrr2fq4f 77*8,=yXXX+<7yy-yX+X&&3O.0o@@p%1uCV%jjdqqddd#2p0&&*t1VDDjuuO3%#%#%%%o%#41#M*OcNtNBBi69,,99,yvyXX5O.<0rsd:4jjqp@066B&<7$$F",
"5y&8*vX5OoOwp%21p353O,+X=35XXF*&X5XX,>.0  rko kwmzss2oyw@%@w##1#w5,X,,5==,n<x;x>##4zdj4% q4:gp#3u11awo@@op#@.. o0O%u1hh+n-<**xxMauj%212%#1amtm1a1-Xw@O3@o@o o rkrgfqff <7*<X3+BX+y<<ny-yXy8v6.O.@oow%1uCu1q2#:4z:#122o&85*A1VDDjzV@@%wa1#2p@2:#1%a*OcNtN>9i9>==O=,y&&XX,3O-kk24::jj4r00.6l&<*$$F",
"3X&87&v=Ooocp2##p9=3O5X,335,XF*&yXXX>>6O @ keek pu22:oXpo @w11u11@@3,553b5+-7x;FB#p:zdj4p0uqq4p%Oam#1@@o0@w4 0 OOOw#1AA5n-<**x$aCuj%#4wwmm%wMM1117y o33@c      rf2:qffc77*<v,XXXX+--+&yvy8v60e0@ @wa#uCzu4#2::dz:#%%0&8=@*t1zDLjDVa@2c112%p@2:s1%C*Ow@aNBii>>>=O35y<<yXX3O-oes4:1zS4r.009v&<7$$F",
"=X&87yX9ooocp%##%9533=,5=9=BXF7&&BBB>6..0@ e0kkr%z4%#o+ r  w11q:u#%%3=5=h=,n-*;;FB2r:dqq# 01S4##%@wMu#@p0O@%:@..O@m1ahb++-<**x$Cuuz#21%mcwMwaaz1u<8co=3O  ek ggrr::f22 77*7v,,+XX+8nX&yv8y6ook  c%%#aCDua%%:4z441g#m8&>9@$tuzjDjDVD ##11%gc@%#24%C*OttM3>i9>i>>O3>+77yXX3O8.eg42#jds@.O.9X&7**$F",
"3v&&*yX9o@ gs2##%3=33955=9,,X;7&&B>B>6.00ok0.kkg#z# :p&wr  p#1:4Vu11Nh=3h=5n-7;;;x9% #qqd# Ocj1q1#uO#uwt#00c%1@@@@%11O,+n-<*$x$uVuV111#mtmMmuaz##7<mtOo3.@.3O rrrff:2fo777<yXX++y++n+y&<&.oo p  2%%auD1%mp:q4442  @v8>.9OxtuzjDPzVD%4#1u1sp@p::4#C*9@OA33>9>B>,3>>X77-++>.80gsfg2j:ro.O69X&<**xF",
"=v&&7yX=0@ %#41:%O53O3O33=,BXF<&&B6i66oooo  eek2#1# :%+ppkp211::uVd1ath3h55+n<;xx;F9w #dZd#2 oj42wa1344w##o0@%#c@@%M#o,n-<*$$FxaVVD#11@o@wM@aCz1#*8wo3NooO39>   r2ffff07777yXXXy8+y8+&<&.   g  %p%CVz#MM%4z4::2k@ v&i0@@o$N1zjVLzzz#q1CV4%1M#dq4#a$5ooao.Bi9B>>3>5+7$8v&X>*Ofs2 p:%r@..69X-<*$xF",
"OX&v8XX3o@@w24:4#o=NOOoO==,,BF7&&B96.6k@O0krkees:4# 4%Xwroo2z44quSq#uCthh55++<F$$x;x3c :Zd44#%@jS4%14t41@1#@0@%#@O%M1o5+--<$*F$C1VD##1oc@tm@mau1#7<wNNOO0 O>=  rsf:fff0<<*7&5b5+-+nnX<yoo rg  %w#a1q#ww%qZ4::4g cv&9.0  O*t#jLuLjzVqdq1z4%uM1dq1#t$3ooat9>>>X>=OO3X8*<X&yX*Ofs2@ % c 0..3X-8*$x;",
"=lvX&vX3@c g::44#cONOOoO==,vXF*&&,>..6k .0k kke 212 f2&@ oopzqqzVSd#uVVwN35++7F77$x;xOwpqd:44#%%zK2r24w##t11oMN%1N%mDCA5n-<*$FFa1zD1#1wwAM#MCaVu#*7MNN3.@ 39=0 rsff222.<<**-,=5++XX+8&0 kgg g%w11141c 2dd:::42r 3B> @0 @o$t1zLVLjDV:qduzz1uM%Z4##M$=mO@N.iB>B99OOO,-*7XXyX*0fsf@@%c c0.09X&-*$xF",
"=X&&&vXO@c p24:4:%oN3O@oO3=+Bx7&&Xi...k .0ekok rs2rpf#yorp rzzqjzd22zuV#whbX,7F-<$$x;xOwrqd4:44%2qSrc%#41#auam%O%##@zaa5--<*$FFaVzDu11@ttm%%MMDu#*7wwN3wpo>>=3oksf2sf2O<7**-+5b,,n-yy0@og2 gsp1Cjq1 r#zZ::::gpp@MwOww@  @$MuVSzDjDVs#zuDzq1M%d4#%@xXt@wto>BB>>93OO=y77&vXX$0:f: or @c0O0=v88*$$F",
"=v&7&v+O@  c#:2:4#to=O@@o3,yXx*88vB...eo..ekekrg:2 p:1Xoo  pzjqjzd:4SDVd1NhX,7x-8$$$$FxO r444:4422#j%g2wumwCu##wo1#@VAb+--<*$FFauzDu1uwwtw#wtaDu1**%%N3c @>9=9oesfssf2O<7**<n+,+n-$Xoees#  s %azd#  #dd##f:gpp3aLuoO@o@c@$tujSjjzDz:2juDzz1m%4q%wa*XOMmm@>XX>>>=39>+<78++X$0:2frOo   ..0=y<<*$$F",
"OX&7y&yO ccc212::%c@3N@@NO,yX$*88v,6i600..600e r4#op:1Xoe0e%SS4jjdq:LPSjzw@35<$--7**7*;x.@r#:d:::21%d#p2o1p%uu%1%cq%w=b+n-<*$FFCuzDV1u@Mt@1%aCD1%**%mN3wp >3O,6kff2gsg.<<$7-++H+$<y  0s: rgr #Vz4grg:q222:srpOOLIVwO @rp0$MujSjDDDVd#DuDVdu%2:4mta7XNtwwo>BB>>5,3>B+<<8+++$0:gf .o@o OO0,y<<*$xF",
"OX&7yvv3c%rw2#2::% tN@c@o3y8X$*&8&Xi660O.0..0e  :#  #1X 0.e2LPzjSz:pDDzSj4mNh-$-8<77--*;F3o g:f2::21ms#w4O1wmu1#4pwj%,=n--<*$F;ACDzu1VtwA@#%tuDup*<mtN@c% >9O36k2:2fs2O<<*7-n+++$&@c0%:og2g#:4qq2rg:4s2::sr i@zIID%@@w1%@xAzjzjLPPSjpSVDzSu%z:1%mC*,@@woO>BB>>5,O>By88<&&y$6f2fr.00.e0.OB&<7*$xF",
"NB77vXX3rspp%#244gc@otwwo=8&yx7y&&yB>B6.0o6..o  1#gr41X@0.e2DLSjS#::DLjSSq#NO-$n8<7<-+-*F;=Orgf2f:s21% 2w1c%1#4#44w2G1+<--<$$F;N11zuuVmMtt1%MaDu27<w@Nt@  O9N3. f:sfs2O77**-++<*&ow0k: rg111#:::gs#q2#::sroB>VLIUD1c@@%##*tzSjVLDDjz%DzDzjuaVu12#a$5A@ oN9BB>95+>Xv-888&&&$.fffroo.6...O,&77*$xF",
"O>7<yvX9csp%%2%242w@otcp 57yX$7&&yyvBX6.O0.6.o  41p2daX@@eo#SSSjj2:4jVzjSd1ton*n8<7<-+n-<;F=Org4s22s##pc2pum%4m#1d4c4J#7--<$$F;=CCVuVu%Mt@1%CCDV2*<mw@cppc.9O90rfqf:f29*777y+-$8. oo#2#2:g4:422gsfq4#::sp@BO#jPIUj1%coowm*tVSjzLDD14mLjDzju%4u1g#M*=AmO@o9>>>iXy,Xv-88<yyy$6:ffp  0i>..O,&77*$xF",
"O>7<vyX3 ppcpp p:2w Ntwwc=<y5**yyyyvBX3O6..6.o  41%#dMy@ o #zjSjj%4:jVSjSZ4%pX$y<8<8n+n--*;F,O r:s2s2##m%2#q#%1Vqqd:rqJM*7<$$;;3mzu4uu%mMA4%aMVqr$8%%c24sg39OX.rfqfq::9$**7&-$86eee::2#4#dq4#rsfff:f:#gr >O%4zIIILu#M@o@p<MzzjSDDj%q%DjDjSz#u1#g2w*=Aa@@N9B>>>X&,X+88-88yy$.:f2p@ eBB633X&77*$xF",
"O>87yyX3  coccoc2%wwoo w X7y9*7&&y&&>v9.>.0660  111sLCy ocp1jSGSSp:qVqGSSjd#23$n8888n+nn-7$;FB.k 2##gs:%w%###1%%jd:d2pzJt$*$$;;5%Dzqu1%%wA4wmuud%$7%mw2:#sO99B. f:fq#4>$*77*$86.0 24#24#ddqfs2:ff:fff2g 9O:2jDIIPIj4p@tcp<MDujLzjzg4%zjDjjL#uz1g#a*5Amc9O>XXBBvy>Xy---88+yx.ffs o oii999X&7*$xxF",
",9&7vvv9o@oOOOO 2w@coN@ @=7+O77&-y&v>X>.>.O.6.  #14pj#X ocg1DjPdS##4d:jzZZd::O*,8y--n+n+n-*x;xX.ek:#2rs#ww#1%%spcG44qspjJ@$xx;;=aDjju112mtqMmCz4%$<%%wg:2g0.3X.k2:sq2q3$*<*x&6.0 ::r::fdqffffqdfq:f2gg@XAu22zLIPIILVwoOOo7MDjzLVSzs#tVqLz#D#uz4sgM$,MMc93BvXBX&y,yy-&&yy++$6:fp@o 0>>9>>X&**$xxF",
",6&7vyv900O33O9op@oNOoc@@3<+O7<8-y&&Bv>.>.6...o 1uV22Mv@@rp#VVGqS#2dd4jzdZqffN<3-y&-n+n+n-<$x;xX.e :#2g22paaa%p%2pS4#4sgSJAxF;;9#DjdVa::umdpmCjqp$7cmm2::2oO3,0og#sq#q3$*$x&000 s4pff:q:ffsfqffq:fsrg0X=a4g4jLLPIIIL%tOO.*tzzjPzjZ2wtV:G4au#qq4:rt*5atoNO>vXvv&yX&88y-&++X$6f2coO .9>9>,+8*$$xxF",
">.&7y&X5OO35=O53@@O33N@c@3+X37<&&&&&ByX>66..i0o@#1q14@v0 pc#zjS4j#2:d:#4dq::fN<O+X++++n++n-*$F;xv3og#:fs2s%Mtm%p2%1:2:4p2SJh;;;31Djdza:4V1z%CuDjg$7cwwp::g0353o0ssr42q3$*$<0oow w%:gqdfsqssdfrfffg goB3uu%:djPIIILIP1MtM@<AVzzDj1S2@wz#j4Cu2:qj:rw-battNOXv,v&&yX+-&+yyyXX$6fg@o.o.9>>>,y<*$$xxF",
"X>y*yyX,3O55,=53@oO==ON@o3=53$<8-y88Byyiii.6B.oc1u#%uNX@rrc%V4j#j2p%q%4::42:#O-3X=3=5H55,+-<*$;;$X9 r2ffg#2hh@m1##s2qdd1r#SP5;;,mDjqDm#duCz21uVqs$*w%ps:4g.3990Osr :#Z3x$<9.@2pow2rdS:rfff:frf::r@pol=Cut%4dSjPIIjSj1wtc nAVVzDj%:pcMu#Z1C1m%#z1rw<5aAMto>y,v&&y,+-&yy+yXX$>s oN9O99>B55y8*$$xx;",
",iv*yyy,93,,,X,=3O3=3OhNN395O*<88&-8Xy&X>>O6..0tau#MaN,trp w1%z%qc c1cq4:121:N<=,,,55H5H5+-<<*x;;$y9@rs#sp#p5ow:q%4s#dZ4%%qjj8;,#LD1zM#z1aj%CVjdg$<w%%2:dgO3393ogg 2#S3F-39o#% %q24G# 2sqq:s4qqg rOX5MVuA#:SJVjDD1qz:tNN0<AuuuDV1w%t@apj#CuMw2u:sp*+tNMtoOvXv&&+=+--yyXv,,$>g@OO3O>>=X,X&8*$xFF;",
"9>v*yyyX53XXX+X=33333O3ON5=X3*<88&8<yv&v>>O.06>MMCmtMhh%1pot##u@2otc2%%#2#%24o<=X+++,H+H+n<*<*$F;;$&,orgsgr @M#mdpcZ:4qd42%qq4$X1DS1zM1quMd2Czjzg$7p%s2qqs 3,330rs 22S37339#%@%q4:qV+o f:f:ZZqgo OyXMuuuM%:GPzCVzM%#%hh3=*buuCuuuat@3@O1%Caac%111w$5thANN,XXX&&-,+8&yy+v,,$v@N333=,,,X++-8*$xFF;",
"oOyx8y-+,5+++++,==,5,5XX3X++5*<888<<&+yyi>.>i>=ONtNbA5=@1N3@au1oo>3Otwowm%Mw%O<,++++,++n--**$$xF;;;x*&>30c0X,h3htO&3#%pc@p>9w%+y#DS1zM441M#:1uVz2$8%w::jZro3,,.os2 1:Z3+XXt@=@c@No@,&O#gg #%wo..B<nAaaMut@gjSzM1utNN@==3X*bCuaaCCtO3=9vomMVaNma%%ox+hbhh=vXvX&<<+n7+&-yyXX$8O5,55XX++&y&<7$xF;;;",
"tO&&X55=3NhttttMtMttttNtaMAhh5=3393NooO>Oo@Ootwtwww@w@N@MttttaMo@oNNNNottwtt@O3OhO@ttwttttNOO3,53=,53933OONhh@At@Nto@a##%%wt@t,yazj#4mzq#a22CuVzgx8ppd4Z:gO3OX@osgr#q:>hhNtANNwo33O3O w@ocwoOo99=X3ANAN@NNowcw@@N@ONNANo9XAMMttttNOOOo9NtAmM@MMtoN53NN@toNN@OO33h=,5,5==335htN@t@NN3NNNO=3=+,,+-",
"oO@22#%2q4jVuuuu14zuu1#uLLVuVq12:ss%w @@pmwwM%#14q::s##%%2#%%%%p @@@@ @@ wwm%%oOw#%##%%%%%#:1#gpppp%g2###2#444q414z41:111u1VzVw,#zj#4mz4%a%fa1zq F< %4:d4gOO@,w@spp#Vs> pwwwpgs2:dqfq:##::2s22sfg  oOooo0o@@  r  rs#%%co pp@crppppc@oc rw%sgsgr eeeeee@ wwmc@@@o@@@@ w%2##1q1#11%%1pm#4###221%mM",
"OXO@@owcp%%%ww%%p%##%ccp%%%%m%cowc@  O0000OO3O=>B>B>>>9>>9..O@O9,5,,,=359=,3=XyyX5,==933.90 p%2p2gw##pp%pcwp%%#421:pp%%%%####1@>1uz#qmu:%a%:#uLj F82#q4qq%tN@9%%srg2upX.  @@@   cpp#:s#4# o   ko0o@ @0..ooo00.6.>B5>5=,XyXX,=,==39>9OOO00o@o @o03i>>>>9.Oo@oO39=5,5ONoo@c    @o  oc%wcpo0 o %m%%",
"3+@m%c@0  @c21#%#q4%#1pcw%2%%%mmmM%#Mwwmc@O=35,,vyX>>B>9=,BB>939>9=9===,X+++X++XX+yXX,3.O@00w%2s2###sr%2%%%ppp%#11#%#11#1uu1%2 51uV24%4#MCc:#1zzpFn11Z:4d1t@o>%psg#2uc>  @p2gpss#s###ss:sggg     c@wpc gp%p@0@o9>,X+vv,,&&++XX9==99O @@0o@ ooo0.>B>,,=5X,=Ooc@oco3N@cpM%#%2  r2##2#%%%%wccwp%c%%",
"3X%1#2%r%%s%pww%%%#w %pcwcopp%p%w@tt@w@woOO==X33,XXXXX5995,>9OoOO95=N@=,,5X&yy-yy-<8&yv,X=Oo wo r wwc@cpw%pp%2222%##%%1u1#1:2:%54zV:2#4g@u@:u111@;,1#q1dq4oNo9@psrs%1@Xoc %%%g%2#wwm%2#4%2gp %p  w@0Oo..0@006iBy-<88--y&8&yy+,>OOOOO@..O3..3OO@o9>,93=3=5=3OO3@tootto@w%w  e rpps%p%2%cw2pgpspg#",
"3,#:%p2%22:###p%#m%@0O..3..O@w @@t%maMoO33=,,+++XXXX,X393399.0OO999939>>3>939,X+++&&-&&XXv9.0oe@w p2%222%%mwm%#::14:1::zq:22:2w51zV4:#4g@V@suuu# ;5:24#zq1oNowp #2%a1@3 e@ 2%%2#1###11#1#2#%pm##pppr ooeee..6iXy<<&&&y++X,>9>9.oo@@@c@O3933.6i>>B,9o355,935335OtwmMwtowtoO9.6..0occ %%%2#%%p s#2",
"5yo@ srcp%wccwtwwpwo....0OO.O@@@wMCawtNOO3,,=Xy&8&,=XvX,,X3o@@OO3>>O@0.Ooo oOoO3OOO3>BB>9.o.O0O0c p%%%2#222#2#ffqdq::44::q2r k@,#Vz::1:rouNr4Vu1cF342q:z44tN@m%rsg%aC@9k srgs22:#:#f4::f2r2ss%%wwp @@00OOO0o.66ii>>B>>>BB6o r @   @OOowwc@O0o>BiXX>03,>>669.O0@@@twMw@O0oO>iiii>i90@%%##%c ocs2r",
"=+@w @ @o c   @wMm oO..O.3OOO cM%tMtNO95Bv&8&&&<7<,9XB>>>B>>occ@oOOooooo0o@o0o@@@oo@@ooo0okeO0oo@  ww%%####%ps2g2#%@r%:#sssg   >2qu4#12r0uOgzV1d%F3# :4u#uwo@w%psg%aC@3 k gs2:sgg2ggfssspps%%mmprccp o0ONO3OO...o  ooooO...0@   %ctcO@%4#% @r@o.6Bi6B&yXi9>>60 oON@ttwt@OON39O3OO@212%2%pprccwpr",
"5,w% @@o00o@c @wpmtoO>9oot@oowmmw@N3XvXyXXy8&yyv&&XXB>99>>>>9OOm ow@cp @@@ s:gg%%p pp     r  c%%%%212%#41######22#%1#w%%%#%%11p91q1:#1%s0VhrVu1z#x5% 44u#umoNta%2%CC1tX@o  c  rw cp%1#%#####%%###%%#%pw%g  r wo@oo0@cw%%%pmwM%wtmm@o0@ c@939Otw w3>X5=99..O3>=95=O@@t@@wt@oNOOOOOc%%c% wcc%ww22p",
",,w%mmwttmppp %m2%cw@oooNoNNNo@@@o@3,v,X&y&y,vvBX,XX>9.39OO>>9Oo..o@@c%    rpkeoe0.0....rrsss22222%pppp%%%2#1::4:djzq##%wcmco00.z41q:11gou=gzu1z#F+pc:1uwmAhO@mM##CaCcB0ooo@op:djd41::#22##s2%ww%pp%pmpp@ rk..O9iBBlB>>>Oowpp%c@@c@O.90@oO3,5@NowO9=3O30oOOON9=,=,53O33NN@@tto@ocwm%cpp% oppw%%2",
",X@pwc O9>XB>. cc %%cttOo@oOONOOO,=,,,Xv&888&yyyXXyv>39i>99.Ooo0oo@p@oe.666iiiiillliiiii6.....iBiiiBB6..e@     o.opw @OO39O06.k.Lz1%p%C%wa,r11#Z#F,p%p35Hb5n++M@1CCaM &B....ee.k g2   kkekeee.6iBBXv&XBB>iBllll&88&&&&&&l&&llBi.0@%c w1c@c@O=O393=,39993939.033..39>==>3NNotccwm%%%wwpcoO.OoO00c",
"=y>.9llli6>B6693.OOOOONo@ooOOoO3O=BBXXvvv&&&&v,,=5,,99>..O@pwpc@oO3oo6Blliiilliilii6iii6.66.iilllliiii6.....66..66.00e.666.Oi6kOVj1coONAAuX ##pZ1x-pw+<<-HHb=+n,aatMmc&B66..ee6i...6i..66.6i..66iiillllllll&lll&&&&&l&&lliliilli3OO93OoO@MwoNO9>>9>,>O0ooO3O69.6lB>B>BB9N3>9OOoO.ow OoO99>>9>939",
"9&i66..e   o.9i33>9>93339=5,,,XB>BvBBBBXBXvXvXB3>B>>....3O@@o@ o@@0 o0ii.ee66.ee6iiililiili&888&llllllii6.6ii66..eoee0....66>6@o4zu#p9*bua3k##r4:x<@-*-*$nHhAh=NAAAM%w&iiBi66.eee  eeke.6.66iil&vvv&&&887778&&&&&l&llillili6.6ii>6O>i.>.O@oOON.>9939>O@ koo @co..600e.6O99966.0O33OO966.660.0o o",
"=yi.606iii6.oo0 ppc   o..O..6>iB>.9O.....>B,XXXBBB9O.99.>B>.i>oOO3>O6>60 ekeeee.6iliiiililil&llBBBi9BBiiiiii>9>>69>6.O00.O00.OoOqd41#,$Hth5ew%p:4x-+$$*xxnH=hhbhhbAMm@v.0..oe    e  kk  eee..66BBBiBBBl&l&l&l&&&ll&l&llBi>B6o.BiBi..9.966339O3>B>>3..99.O00O0o>.k.O@o0.O9.O0..0eo0...66kke kkkeo",
"3XO ..666ii60o0OO39.9996...66>i>iB>>9>60o0O.39B&yX5,i.>BvXlBi600o ook..e0........6iii6.iiiiii66.6...666..6ii66.....O0o.0o@@066.944#1:3xn+y=ec c44x7<F$$;F+5bb=<5tAaam@&.0..okokk  kr  gr   ee>93000.0e.iiiillll&llvvB>iiBBliiii.00oo@c@.ii>BXXXBB99=>BB3ooO0ooo0.>>9>96Oo...6..0.o rr  er    k  ",
"O+>@c06iii66iii66iB>BlBi>>ii>>XlvvvvXBB>>>O.O99XvBBlB>.Oo 0e...e.... e.kke.eko0o.66i6iii6.66........O.66>iii>BBBiiBiBBBB,9O o.@,:4#22w*$73ho oo21x$*;FF;;<n+++$y+nMCmt&9OO>iBBi>99>9>9.6B>.iBi>O0o0.666ekee..6il&&&&vB>.66......k kk00O.66.@o0O3BB>>6>Bi0   00000.o OO=>i>.ek eeekkkkkrrrgrrsgs2",
"O=7vi..6i66i66i6..66.e..ee.9>BBBBvXXB>>99ii60>BlXBBB6eoOOO0ee.iiii6ii6..eeeer o ooe  k  r o00O9>>>>96699B66iBllBi>9O00o.3.996. =14:#wmMO %N0  0r#Fx<$;;;F;$,+++<x,Cuwt&i>.k rr  kk o6>>>>BB>>>9.6....66..0eo 066..0.ii96>6.66.6i6ii666oeee...o@@0.6669>Bi0o..o00.B&&&&lB6eee....eeekeekkkkk k %%",
"O5<&lllllBii6ii.66666...e.6.e..eo.06600@@o  ...i60..e  eekeek66ekee6..eekkk r  pp gsr   O..6i9999966999i>66>>ii>>96.0..OO0oeo r,1V1# Ma#%M@6 ro @;F7<$;;;;$--n-$-AhCt@y>66.okkeeeook00 ko0.0O66...6..660........o00o..eO..066i.6.6..eekeeekkek eeeeeeek   %@.kko oBl6....6...eeekeee eeekeeeeeo@",
"9=yBilllBllBi6.0..e.6ii...e...i666..0.Oo3.oo0o06.e..e00.00.6..ee.6..eeeekkek  kk eee00.6BBiiBii9..6.O3.669666969>.0..00keepoeggX#j:%@%M%sto.rr0@o;x777F;;;;F;*<+=bhuM@X6.0o0..00o.996.e kk0.0.666.6...0..kke..ee    oo@..eee.e..e.eee ke..ee.eeekk  e rg @ k.00.@ eii6i6e.eee k.erkekeeeee..0ooc",
"=X&53O>3OO9666>6..okeoo0.eeeeeekkkee.>i.O0e..6>..6i6e66666ii6e.e.66....66ii66.6..iliBi6ii6oe0o.996i>69O.69663.6O..0oo@ o0o ..gfX#z1  1wm#m@6r .oO;x<7*$xF;F*$**-AhaDMoy6.O0@000.o0...6..6..6..63666..0e.. ke. ke e00e0ko rgrk e..6.kekkk eeeeek k r ekoe.60 @.6i6..666.6.    .i.6.6..eee..eoo@cM",
",X<vX=39>39>9.666>6o0o e.eeekee0 r rkoook re.6i>6iilllllliii..6...iii66iillillli66ii66.6i66>9.9i>>>>i...0.ek0..ok   kek  r eerrX#j%@ aM%#m .cc>95;x87<7$xF$<-,3tj%uzmN&.6.....O...>6..000opkee..00eo0e kkrr e.eekkeee..ii6.e.eeeeek ee.....e..ee..e..e.06.@cc@0Oo0..>6i.6>>6>Bl>93oo00e@0..0ot@N",
"X+;;;F$$$$$xxxxx$$$**7887****77787*7**********$$**$$$$$*$*$$$$$$$$$$$x$$$$x$$$$$$*****7****$$$$$$$$$$$$$$$$$****$*****$***$$***B%z10@%#22Mc0pc5Xy;x8<-<*$$$$853o4#zu%Ox$$$*$$$*777$$*77<7**$$$$x$$$$$*****77888787&&&&&87****77********$$*****7778788888777&&&88&8*$$$*<77777*$***<8<***$$$$$$$x",
"+y;;;;;;;F;;F;F;F;;F;x;F;F;F;;;F;F;F;;;;;;;;;F;;F;F;;;;F;;F;;;;;;;;F;;F;F;F;;;;;;;;;;;;;;;;;;;;;;;;;;;;;;;xxx$FFF;;x$x$$x$;;;;;=%qu@caa%%t@.@w,+-;x--ny+y$$$&XX9%1DV#3F$,n&vXyX,33v9,-X5y&y&77&7;;;;;;;;;;;;;;;;;;;;;;;;;;;;x;;F;F;;F;;;;;;;F;FF;;;;F;F;F;;;;;;;;;;;;F;F;;;;F;F;F;F;;;;;;;;;;;;;",
"yy;;;;Fxx$$$$x$$***$******$$*;$$$$$$x$$xxxxxFx$$$$$$$;;x$x$$$x$$$$$$$$$**$$$$;;FFFxxx;xxxFxxFxxFx;;;;;***<8<++&<**78-yy&&y&8&*F3wz1@t3NhNhh=hA,+<;x&n+++8*<n5=,5ACDzuN$,tVV#4%0OOw .wcO3c.6oOBBcX;;;;;F$x$$xxxxxFxF;FxFFF;x$*$$$$xxx$xxxFx$x$$$$$F;$*$*$$$$x$$$x$$x$$$$$*$x$$$$$$$x$x$xxxxx;;;;;",
"XXF;Fx$$**77<**7&8<*78&<&&<77x*7777*$*7$$$$$$$*<887*7xx**$*7*$*7777*77<8-888<F;$$$$$$x$$xx$$x$*$$FF;x778vv8hm=,lvvyy++XXXXX,X$;X@VaAt=b=bbbbhh5n<;$y&+n--HbbbbbbAaVzuN;xhCDuuSqppo@w02:cOco0 p..#3xFxx$****$$$*$$$$x$$$$$;$8-7<<7***7$*$$***7**77*F*&8y<**$$**7****777*787$<87*7<7*7***$$$$xxFF;",
",,$;x$7*<8&&&<<8++y88+XyXXy&8x<88&&87<87*7*8*<8-y-88<$x8<788<78-8-&<<8+++++&8FF77$$7$$<*$$<7$7<**F;$&vli0Oo%@BBilB=9>>993909yx;Xtum=bhbb5HH5hh=8<;$&--nnHH5HHHHbbAau1NF;xouIDjLJ#dc2zw1z2 qg0:dkrdNxF$***<<<**77*7$$*7***;*n+-nnn8<7878<77<7888&8<F<++X&877*<<77<788888&&&*-y&8&y88-<77*7**$$xF;",
"X,7F$$<<8&yyy-8yXXXyyX,+5Xy&&x8&y+&87<-<<77878&n++y&8$x&&<y&&<8y-y&8y++,5++n-$x77$$<7*877*y<*7<<$;*Xii.ekrr0i9>BlBB>>.Oo 0.i<;;XoCh$-bb55HHH5Hbn8;$&----n++HHHnHH-hCaOx;;xOzIIuLP1z%4j2#d:gdZ:2qrsjM$x**7<887*777<7*77***F<+5n+++y8---<--<8<-y8&&8x8XX=++&8<8888888yy8&y&y75XX+y+--n-88<<<7$$$x;",
"X,<F$*<<8&+yyy++X,X++,=55X+yyx&&y+yy<<-8-8<-<--+++X&&*$yy-+n&8y+y+yy+,,,=,++n$F*7$$<7*<77*n-<<-$x7B66ekksge6ii>BBB>.0.ocoo6&;;;XOh-nHbH+H5=5HHb5-;*&8-*-n+HHHH+Hbb=tc3x;;;xOjII4SLuj:4G44SjpKG4:K:4Pa$*77---87<<777*7<*7*xnH5,++H+yy&88--8&<yn-&&&$yX+3X+yy-y---&---<8yvyv<,,XXX+--+y&8<887*$$F;",
"5,-F$788&yXvX+++X,XX+53b=5XXvx&y+++y8<--<88-8-&+XX,yy7$++n,+-8+++y++++bbb55,+$x**$$<<77777n-7--$<i>.ek 22k.6iXi>>Bi9>o oo6&F;;;X3+nHH+nnHb5555HH-;$&-*<nnnnHbh5H5=h3t9$;;;;x9VJIjLL4j:qJKfGGdZZ4dJZZP#**<-nn-<<<7777<<*7*xnHb5+H+++ny<7-88&<n+n&y-xy,+h,,n+-y---y--878XXy,7,=,X5Xn++yy-88<<**$x;",
"=,yF*788&y++++++X5,XX5=b=5,XX$+X+X++<7888---88-+X5X+y7$+,,5+y8+X+++y+,=bb55++$x**$*<7*7777+-*<*7i.e  rs#e66iBlB>>99>.@@e6lx;;;;+,+-nn$$n5AtA5HHby;$&<**n*$<,hatH+AAOc>$;F;;;$iuPJuLSqqqGG4fdKK:KZjJZSJ1<7-nn-88<7777<<*7*F-Hb5H+,+nny<*8<88<n++n+-xX55h==nn-y-8-yy-88-X,v,<55=X5,+++y&-888-7*$x;",
"3=vF*788&yXX++++,5,X,bbbbh,XXxXX+,++8<8<-8-888-n,5+y+7$+5==+--XX++++XH=bb=5++$x*$**<777**7+n**89.ksr2#2re.666>i>99>.0@0il$;F;F;+=+-<*F;*5Aat=5<5y;*--<$<xF*+btt+<5h,@>$;xFF;;$91jJ4PSzS4GGq:G4:qGZSKdJJ1<<+n88<77777777<*xn5bH+5=n-+n<7<<<8<n,,nnyx+,+h5,----y-y&yyy++5=,B*=h35,,++X+y-888&7*$x;",
"OOXx7<-&&y,X+++H+55,=Ahbhh=5XxXX+X558888--<<8-n+,=Xyy7x+=5bn--X5++H++5=b==,++$F****<<7<**7n-*&.kksgs22 kee6>>i>..6Ooo06l*;;xFF;+,-n<$;;xn=hh,,H,-;*8-<$$;;*--=bn+HX= >$;xFFF;;$9VLJ#SSSPdGGdqZddZdqKq4GJ1-+n87<877777<7<*x-5b55=5n-+y<<8<8-<n55nn-$+X+h,+8yy-ynnyyXX55=9XB7bhhh+,,,,+n-y-&&<*$x;",
"3o3$<8&8&yXX++X++,5==hAhhhh55$X,X5bhy-----<<8-n,,=5+y<x+===+8y,5,+,++5=bb5,,,$F*$*7-<7<**7-7-0eegsfsskrke.66>66.6.eo.6i$;xFxFFF-y****;;;*nn++,,n$;x<--$x;;$**<<nH5X9r9*;$xxxx;;*.1jP#11SPdGGS4ZS4qZKKZ:KJ#+--<<877<7<<77$F-5b5=5=+-+n<7<<<-<-,=++-$+X+h5+yy-8-yn++Xhb=3=vB<hAhhX,555,+-&yy&<*$x;",
"3@O*87&&&+,X++,+,55=bhhAhAh39$X5X5hh+&y----8-8+=,5,+y<xn=b58<-,=,5,n+5bAb=,5+*F***7y87***77&.eerffffskk .66666...60o6l$;Fxx$xFFyy***$;;;;$7*n,5+$;F78<$F;;;FFF7+H5n3o.7F$xxx$x;;*.1jIz%pSG4GJS4ZSdZZKGZ:JJ1y<<7877<<<777$xnHb5,5=+-+n<*<77-8-5=5+n$y++h=5+y--yy+++3Ab3O3v>7bAhb,X+5,,+y+,Xy<*$x;",
"=co*-78&-+,X++,+X,5=bAAAhAA=3$v953h,++--<--888+5,,,yy<xn=b,8<y,5+,,n+=bh==5=+7F***7y8<7*$*&.ekrfffqfgkre.e...0...o@.i$;Fx$$$xFF-+<$*$F;;;;;$nn++<;x88*$$;;;;;;-nn-8ke08F$x$x$$x;;7.%SJP#sSSqGJSdKKKZZZKKqGJ18**8<7<<<7<*$$nHb5,==+---<*7<<88+5=5+-$&XXh55n&&yy+XX+3th=OOX>*htAb5,X,5=++>.iv8**x;",
",w@<+<8&-X=,XXX,X,5==hAhbbh=9$v9555Xy--<<-n88-,=555&y8xn==,8<-++H++-n5==5,,5+<F*$*<+-<7**8.eogfffqqsrfrke..oo0.e  667$$$$$x$xF;&+-$x$x;;;;;-H---7;x8<*$Fx;;;;$+n*86rkk&F$$$$$$$x;;7i@#JId4SSdSJPSdSGddZKZfdJu7*<777<7*7*$xnH5,H,+n88-7*77<&8+5b5+-$&++h5=+&-&&+5,,=N39OOB9*hMtb5,H,==+=0k6v8**x;",
"Xtc8X88&y,OO,,5O3=33=hhAhhh=.7&>93=,v&&-y++y&y+533=+y&$+=hh-7&X,,55n+,35555=+-F**7+,Xy87&.00rfffqq:sfkke66koeee  .i7$7**$$$$xF;yy&*Fxx$xx$$nn-n-7;x87*$FxxxFF*H-y@fgk Xx$******$xF;76k:ddjqGGqjGSSZZKqdKKdfqJ1778<8<<<7*$$+=,555+8<&&-<8<<v&+bhb,n$X=XAhh,vX+y,3=9.O.0@o>.*hMMh3,,,=59@ r.v<7*$;",
"+o%&X&vXBOcc.Oo  @oN3AMmAth9.<&iOO39ivvXX=>Xvl,3N@OXXl$=htO+<X99.O3,3ONoNOOO5+$88-59BB8&eeer2ffqffffrkke.koeee k6i7$<y<***$$$F;n-+7$$xx$$***<+y-7;$-7**$xx$*$$*+@:fsk29$******7***F;8k #jGd1PPZjjSPZZGddKZ:sqJ#&yyyy&-877$+N33NN=X&+v,Xvy&BX5NatN+$9o3w@@39..>9OOo  @rgt0 7NMMth=,=3O 2fg0X<7*$;",
"yopX>lli> g2p  pp ccot1CMtNO0<B6OO399BBBB>>BXB0Oo @3Xv$3ttOB8>>=.O3X=@  @3owO57yy&=9>v&6..kg2gfqffgg keeke0eek.6i**vX,8*<<$*$F;-&X8**F$**7<8vB&-7;$y87*7****7-,O#:ffgf.$*7<**7<7<8$;;&rr2jPd#SGdZZSJKKGZZKKqfKU#lB,X&-y--*,@OOo@O3vvB>=>vvil9oamt,*O0@2pco0oo.00cc p s:%wf8waawO3==3w2:fsoB8<*$;",
"nNcv>lB66 2fgpp2p wwwtV1moook8>0009.9BB>i66lBX0ok coXX7o%m >8>.Oo.953w2c% %:@O<X&&59Bli6er ggf:s:sfgg .eeeek ee67*93>,8<<-**$F;<-+-7<*<&+BBXB>&-7;xy-<78yXvX9k:2q4fqss.$7-<<<-88--7x;;& p#zJj:GPSSZKKGKGGKZKKqJU2iBlXyX+y75@@ ooO3Xv>...B6.i0 #mm3<O6@f% ee eO oop 2rg#%2:&a1#ao3=5324qfge>y<7$;",
"+O X>li66 ::#2g#% gw%muu%O.kk83e.oOO39i9>66iiB00k r B98@s#s><ioo0eO=t%#%#@#q o-5yy5,v6..egfgs:ffsgffg.eekee ke68*.MtO5---<*$$x;<&+X88&i03oBB>>&88;$+--8+9 k sfZ4jqfqfs6$-n----88nn<$$x;ycr:SJjsGPKKq4GJKGJddKKqJJ2lB>vXXy$=M@  o0O3X6eoO.i.iep1a#h8oO fp eeo0. 0o  s rsr#4&1u##@=53o2qdfge9+<*$;",
"y9 lili..k:q::g4# #2%MCV#O6k <3 @ooo.0i>>666>>00@kr B0-p#q268. 0o6O=w1444gf4 on9X+XX6.eerfskf:ffgsf2ekrkek ee.&7>#4aO5nn--*$*$F<+5,&B> gO@BXBB8<-;xnn-y5@f2sf:KZSKqff:@7n,+---nnnn<$$$F;yw%qzPZsGjSGKqSJKGKZGKZ4JJ2>BBXX+73@. k po9i.e...66ie41auh7@o@s% o0@.0eo@ pg ss %4-Vz41@>3@o#qqfge3+<*$;",
"+.pBii.k.k4q:#244g#:2wa44c..k<o2wc@@9.>66.O.>i0o  grBon%:q29v0 0o.93wjSdffs4pwnO,-l..ekegrksf2gsffg.kfre ge.k&*.#zju@5n+-n***$;7X35XoO2#O@Xyvy<8y;xn+XX.2qq:qqJKjGKqfZ%-+=5+n+nnn+8$**$;;Xp24jJj2GKGGG4SJqGGGG4qjKJ4>BBBX7=@o ors >B.k.>966ik4uauh* @@g%0oOo.keo ppgprspr:&dS44c6>@@:dd:se9+87$;",
"+Orl.i.k6k4dq::qd4dd#t@#qwOer<t4oo@099.....6iB00  g 60-2#4s>X. g e3=%zSdff2Z%M+3XX..eeekeegfgs f4r.kfgers..rl*i2jLPj%O++++<***;<XOO>oos:Nty-&8*<y;xnX=9 fKZq:qGZSGJdfds++Ah5++++++-**7*x;;lg24jPKsZZJJGqZKZJJGG4qSZJ:9>B+7O@ c 2s 6i0e.i>66io1V1Vb*ooc%mO3o0.o 0o   22sg#4<qS4q1.Boc#4d:2o9y87x;",
"+O l0i.e6k#dd4dqjZdd#@o#dp.ks8tdco@o.6O>.k.6>i..o s 0o&1#4r>B. 2r 0=1zSKqf4z#a+Xv660kerrkg2kg2f4fesfrkg2e.kl$lk4LIUL#o,+nH-**$;8,o >e@ 2AAy---7<+;x,3.. fKKdfqZZPJJqfZsX,tth5+++++y<7<7$x;;vp#qdSGfKZJJGKdGKGGGG4VSqJq9,X-@wcp s2p okk0>>iiic#VVVh*oOM%w9>c@. r.0 p %qss418qSjzzOBo@2:d:so9y8*x;",
"&. >06okik:dddZqZGjd4O3%j26 :-Nq o@@O0 3.ke.O66.og:k0oy:4j2666rfrs0.qZSJK4dz1#<B6.okergk24g:f:42 ffk gge.k&*vo%zLUUJ4o55++-*<$;-9 p>o  sAN--8-88,;xhNo0 fZGZqqZdPGK44Zs>5MCth=X+5+-888<$$$F;v #zdZZfd4GGJKZKKGKKJ1VjfK:9X-A#pgrp#2s 0ek.ii6.2uuVuA$ O#pp.O2g. gkepgg#z:2:18uLjjSO>p s:q4se>y87$;",
"83 >o6k 6r:ZSKZqZGjqdo,wd%.kdy3:@0w@@r okk 0..660rs.0oy:4j# o.ff 2roZdSJGdZj1O&i.k errrg .1::4ref:kkr 6.el*90 2SLUUIZ h=nHn<<*;-Op%>@ k2hh-<8-<85;$N@@  fKGdqqZ:JGK4qd29hC1mN35=b,y8--<**$$F;Xk2q4q:dKqKGJKKZGGSKJszjgZ#7-M1#s g##:r e .666 1uuzut$ O#%sok2g. s e#ssuj42:u7uLuqG iprs4qqse,y87x;",
"-O >k6kk.g4SGKKdZGSqzc+c1@. Zn=:@Ow@rro0   o.e.>O go00y#4q1s p#fg:g dZGGGjZzoyB.k kr gsee rff k2frrkeii.&$i%  #SLUUISpNb+Hn<<$;+0%p9ooepb587-&<-3;*to@rrqKKqqfdqJJG4qZ:@tuuCtO3@t=Xnn--*77*$F;ve#4d4q4dqjGGZKZjSKKG:Sds:@,a111 2#1:s# r0.0k 1CaVuA7w@wc ok2g. 2  %2fuz:f:a-zDqqG%9#gs4qq2o,+-*x;",
"+@@ie6 r.g4ZSZKzGPGqdwXo40.fG+X:toMorr00   o0 06o g e +1dSSZ##:4fjf:jZGPPjZclB.e e rr2  gg:2kr22rfre66.&$&Oq2g4GLUUUGsoh55+<<*;X %w>oee@b+87-878OF7M@@r fKZqffqdPSG4qdf@tVV1MNOcaA=+nn-<7887*;;vk#:Z:ZfKzSPSqKZZKGKZ:P4s:2M11mps#j##2 g.o@  1CmVVA<% mpc0 22. s c##f1z4ffa,jPzzS#Oq244q:r0,+87x;",
"+c >.ikr.g4qjKZdSGj44mXOq@04G,X#Now@rgoekr o0 o30 g kr+4jLLG4:#44d24ZdPPPSwlB.erkkksfrgsk44rgsfrg kii.&*yO j1gdGLUUUPsNhb5n--$;X@wc> 0eo5+<7&&<&@x<w@@  fZddf:f:PjK4qZgtNuuCMNo2umo,+nn88-877x;;>rfqq:KfKjSJKdZZZSJG44P:fq4##%g%pjd41p20o r%Vu1zDt<2 wcco :2. r p1#:1D4ffwAPPzjj1@d##:qf O5n87x;",
"XM >.ie .%qZZKddZJj41w+3#cc:d,3mOOt og oo2 oo k.0 g  rX4qLPG4#:4Zq24d4PPLwlB.kr rgf2rrgf::ggfZsrr .6.&xyOw%S#pZGLUUUGgOhb5+--*;X@ww>0o09n+<7+y8&@x<w@@oe:ZddqfffGSd:4K%ttVu1%@ 4za%o=+5<88n8-$x;;Os22qfdfKjjGGdKKSSJS44Jdfdd%pr2m4LV4%%cow%2zzVzVt*mw@@oo@2#.k rg42:jD:sfohJLdZjdmq42s4f .,+<7x;",
"+O >.iek.sdKKZqdZGSqqMy3%O fq,5@3Nw @r oo2 o0  oo r  r+14PJS:24dZj4zq#PSc&B6errrsf2sggsffggfZfrsre..B;*9w2%S1#jSLUUUGsOb=,+--$;Xo%w>.ee>n+87vv8v x7wt @eqqqZfffdZjq::q NaDd2sok4juq%N5,8--n--7$;;;0srg4:qfKZKJKdKGKKJG::Jdfqqg %mzLVV41cp2%#zDuzua$cpwc00o%20orpg:s:DDzsfOAJjjZdjj4q4s:f O,+-7x;",
"+9r..6k o#zSKZZdZjj:4mX5c@c4qXX35N%c@   ogr o rc  kk pX1dJJG1%4ZZGdZd#j &l6kkkkffffgsfffssffrkkre..i$;8o%2gj%#jSPUUUGfN5++H--$;B@%p>>0e,n+87vl&& $7w@@ edqqZqffZZZZq4q O#z42poo:jVz4#h=y-++--<$F;;;0sssq:d:KddSKKGKZKGGf:JqsK4w%MzLjzSu%##%#DzVzVM$ wc@o0Owpokgrs#sVLDz2f0hPjjS4djzq4sf2 O,+-7x;",
"+O ..eek :jSZZdZjSZ4mo+,oOO24,5,5O#co g  gr 0 gp ekk %+qPJJP1p:ZZdqdd: &i6  ee2ssfsff:fffffkgr .i.l$*F+M#:gSc2ZjIUUUGf@h5=H-<$;=  wB>.6+-+8<vl&vc$7c@ keqqqdqqfqdSd#:qcO#z44goeqjudd4th+nX+y+-*$;;;;Os22q:ZqK4SSKKKGZKJGqqZffKqt%VPDDLV211##VzzDzM*wwtOOO>w%o rr2#2qPLDZfo5I4ZSq4qqZq:#2 3X+-<x;",
"X@rB0 e r:ZKdKZZZSjdwcXv9=O#:X=+Xha%  groorp0rsp 0 erp+1JJPP#cqZZ4:d#.li. rees2fssffq:ffsfrske.i.i$$8x51dq2SosZjIUIIPgoh==5n<$;3 c B,>B+ny&<vl&l x7@o@oedqqZddfz#Pd2fd Oazq42s 4Su4qqMAX+X5++-<$;;;;;.sf2:qdZK4ZGKZKGdKGGq:fffGz1jLPLDz1:4#4DzzDza<%wMo33>ope  s::21PLDGf0XI44Zdq44qzL4g@3X+n7x;",
"XtgB. ekg#4KqKjqdZZqpo,&5X=2#+X+Xham kr  kkprggp .kegc+1JJLG: jjZ4:Z li.e ee2ffqfffq:ffsgrggk.6ei$$*&$bDLq#4o#4dUUJPJf0h5bbn-$;5@ @BBBXn+-&8ll&l@x7@o@0e::dKdqfG::4g2d Nazj:%2k:j#s24m@XyX9XX&-*;FF;;;62f2:qfKZZ4PZZKKKGKKdqfsfJdjjPDjSVq411zzuDzA7#mmwO3>opo  g::#pPLDPf0XI42#4dSjz444po9X+-7x;",
",orX6rers:4dqdZqddd4%o3&XX5 2++y+NCwcko@k    rrr .  s +dJIPj2p4q4q4glle.ekk2ffffffq:fqfffgg eeei***8v$bDPSd4c4:4JUJJPfO,+=5--*;=tN@>BBl-,+v&llllox7@@oe.qqdKdqfPZs:rgq @uuqg#:kgV%2spNNXXX9,5++-;xxF;;;.:4::qqKdK4JKqZGKGKKdZfsfGPzJLLP4qzqVzDuDDh<#%aMN39o okor22zjILDPq@XIq#g24SdS4O:p >+n-7x;",
"XOrv>rer2:dZqZqqqZdq:O5&&y9@2+XyX=M#p@o@  rr rrr e rg +VPIJ4cw::#4gBl..e eg:fsfgfdqf:ff:sggkke6$*88&v$bDPGz4r4::IIPIjgO3,,Hn-$;3tOo>BBv-5yvvllll@x7@@ok.:fqZffrj4#:gg: MDu1%44g2j1:sp9NXyX3=h,+-;$xxF;;;.ffffq4KdddGZqKGZGKKZqfffJLJSJJ14jqqVLVDDA-1%amO553@oro %g4IIIPS: +Iz#r#%wqGdo:s@=+n-*x;",
"+O &irkg:2dZ4d4:4Zjq4N=&&89@%-=X+=tap 0 c prrgrr k rs +4JIIzw%:##pBl0ee eg:ffsgfZqqfsffkrskk6.*$8&&&l$hDPGj:sq#4IJPIjgo3555+-$;5@oO,v&&-=&XXBllBox$@@@0.ssqdffgSq2ff2: MVjd21:s#Du:2s.N,v>OOO5,-;$$xF;;;;6sffsf:KdZdKZqZKqKGZZZ:sgGPzSJ1qjjVuDVDDA-4#CMN553o %@o%2qJIUIZfp-IS#p1#.qJ: :g@=+n8*x;",
"y>0&B ks:2dd:qq:4dSj4t3&8<=@%-XXXhtm%po cppgrpgrrk  rwXuIJJS%wssc>&00e esfgffgqZdfffff g2ke6.**8&&&&B$3DPjj2g#qjIJjJZro3,5Hn-$;5@o3,v<8n3vBBilii.F$o@ ..sffdfg z4f2:sdpmzVz##4%#Lu#srOM=B>9O3==n;**xxF;F;;6sfZff2ZqKKZdZZK:ZGKqd:ggGSjJ:uzzuqjzDLA+d#CM@==3@c#ooppjPIUIS:s&IL1%4qcjJz2#go,+n<$F;",
"8X.&l  s:24qfqd::qjj1@Ov88Oow-v,5tMm%gro 2rrgpgpr k gcX1JIPj#@ oXl0.e  sfrfsk:dqqfgsfgrree6.7*&l&l&&l$5DPjP: s4LIJjJZ 35,H+-<$;=.9>X&<7+OXBBBl6i.x$o@@.6gfffrroj4:::2Z%aj1q##:%aD11#20C3>9,93==y;**$xFFF;;;.sfKf:fZ:ZKdZZddqZGdfd:srGJL##zVVuVjDLh,zaCM@=OOO@#.@roSPPIIGfs-JJ#24z1jPj:2r0,+n8$F;",
"8X.&v kr#g2:4dZ4#:zd1oOB8&Ooo8X,-+a%%22oc%pr#ppggpkrgp54JILu% 0liO60 rsgkssfqqfffggsr re.i6**8l&ll&vv$=DGjIGgqjSIJSISrO==5H<<*F>3>>yy&8+OB>i6l.60F*o @66rf:fsroj4#24fdpmz4j42:VCLu144Otwo39Oo3OX;**$xxxxxF;;o:2Kff:dfZKqqqff:ZG4fdqfgGP2%zuuu1DLPh,j11MA=O3O %o pOLUUIPdfr7PJ22qz2jPj:#r.5+-8$;;",
"8l.&v  r2sg:qqd4:4zd1McB&y3tO<5,**C##2:p@%p :gpgss rp%3VJIj%@6ll0.eeks egggfffffsgfg re.i68*&&llvlv&l*NLj4PIdjLLPLLUG2ohbbH<-*FX>>BvlllXOiii.B.6.F*o @.6rffqgroV42g2fqptudj4:qSuID1VqO>#mt,Owoohx*7$xxx$$xF;Fo#sZfffqfdKqd:fffdG4:dSfsKq#V#u1uDLPh+zuCmN=O9@mMoowOzPIIu1qp8PI42zj%jGj::g.5+--$;;",
"<v.&&ok222s:4f4:#4qq1M#i8yO@O<==-*+52#1p p%r22srsg  r%bSJPuw.ll..ekrsgrgksff:ffsgfgk o6i.**&lliBll&&v*hjdthMPjjLPLjUS#ohbb+<-*;vB,>XiliX.>B6.9oe0x*o@oo9kf::groV:spsfqmtazj1#Kj1LzauVt9>ht+,NoOA$<7*xx$x$$xF;F02s:ffsffqdqZqfffZGq::G4:KZ4%u#1jLDb+SVCMO=39@mm@o@>1LaAhudsyDJV4jjpzPj##p.,+--$;;",
"-Xi&&O@##gsfdf:#s4qq1##>&&@%o<=3+5<-m42ppp#g2s2gs  kr%=DPL1Oii..ekkrkrsrsffffffssgek.iB.8x8BBlillllvl7MSc>N@#s1JJLSUj2NhbbH<<$FXi,OB666,olB..6o0.F*Oo0O9ks:frkoz:# g:d%maqj1qKj4PzM1VmO=Xn++hO3a$87*$xx$$$$xx;;@sffgfgfsfqfKqf4ZKKqs2G:fKS#111zDD=bIu1m3,39ocwoo0>@z+-b14syPj1zSG#qPj::p6,X--$;;",
"8vi&&9NC#r2:d:#pr44:##wl8y@#o<OO3t,-=%%p %1ppw2wg  kc#=jLVoBi6.eekr rgkgfsf:ffgsree6ili7$8Biililllv&l*MJ1g0.pdVzjPPIjgthbbH-<$xiB9o>e66,@il.e.@eOF*Oo099kgffrkou## :44MM#Sj:4ZZzLD#1u#,3O,5AaM9t$&&7$xx$$$*$$F;;osfgssgssqffZq4dqKGqp2S#4GS%%1zDD5bIV1M3=39O@@OO3>XA<<A1fs&IjOwjPqjSd2#g6,Xn-$;;",
"<yl&&vhMmp#:q#2ww14111@X*8t#c8O0OO,yytpc@%#%r%2@g g  #=jL@l>...ekkssgksfsfqffsgkee6Bli*$&&66llllvll&X$APLSj#zJjqjLLLdpwAbb+--$F>=ow90..+@iBe 6o00F*3OO>9rs2frk@12:24:fmt#jS1:4Sqjz11zM,3mAhaNwON$ll&*xx$$$$**$x;Fo2frfgfffqffdqfq:SJ4k2G#qKZ %zjV,APuCN=3==9@@Oo9vy$$<3 rr&ILc@VJdzGz:2p6X+-8$;;",
"<yl&&&+5@%::4:# 1zVq110v*ytwM<30O9By8O pow2grr20srr @#5V@i6...ekkggrkssffqfffrk...ili7$8iB.6B&llllllB$tLDLIJPIPSSLDLz#tA=bH-<*;>=op3k.evc6i.k6o.0F*.O0>>rs2qsec1g#:::fMmujS%:KGqVzuzD@,c1CAhttO3$Bll&$x$$$**7$$x;xc2fsfgqqdqfq4qfdfKS:k4J#qGj#1juXtDV#N,33=,@o3O9&+8*-XOkr+IL2 1GqqGz4#p6XXn<$;;",
"+yl&&l*+04:::::Otujj##0X*yO@My9.O9=y8N@c@c2spp#o2rsO01,oli666krkrgrkks:ffqqffrk.illi7$7l.6.iBllilllll$tDLjPLJIJPLLPDz4MN=bH<<$F>9 %Or.ev .6e 6o.0F7@oO3> s24sew1g2:44:mw1VzsfKSzVDzDjt3o%aaaM@ O$Biil7$$$$**7*$$F;$wg:fssqZqffqfqfd4qgrkqGf:JL#u1,tVV1t,3O3v.0OO98&+7+X.k -ILwp#jjSSdq# 6XX-<$;;",
",&ll&Bn+62d:g4:cO1jj2p.X*X30 n99>338*=ok@Oppppswfr o.1&l6i6.egrrkkk sffsfdqfskeiill*$7&l6i.llBBlliilB*MPIIJIJIJPPPILz1ahhh+<7$x..w% 26 X 6i p.k00;*@O339kff4skc1ss:44:m@uVd2qKjjzDzDu@6OmCCCMm%@$iiii&7$$$$*7**$$x;$cgdfffqdf:ffg4:Z:d42rfZ2dUIu%5tuz1w9=5Oy.00O3&&8<+X.r +UJ%%#qjGjdq2 6XX-<$;;",
",vB&&lAX0cq4g:4%w1z4%o>yy53@%-3.>9@X*,oeoo%gcs2@fre.>ov66i.er rrrkegfsgfZdfre.6iil*x7&&liB.BXilllBBll*aIUUUUIUUPIIIDjVCAhb+-*xx.Ow: 2. X 66kr0o.O;7oOO.>ksfq2e%12fq444%Nuzq qZjDzLDDuw63MuuMaD%c$66.il&7$$**<7*7*$F;* sq2ffqqf:ffr4f::4gessdZJUP1Xtmj1M3,,Ny60o.9Xy7<y+9rk+UJ4##:qSzz4% >X+-<$;;",
",X>&vli6  4424d2#qzq%3,8+==o%nOO>B397, 6.o%s gp fr0>vBi66eerkekreegfgksdGdgo0oiil*$*&&llBl>llBllBBBBB$ALUUIJIUUPUIILLjaAhb+-*xxO0c:op3@lw66 reoe0;*O3O.6krs:ge%1sfd:4#%Ouu1 qKjLzIDz1c.>AVuuzLw@$i6.6il&**$*<***7$xF;$osfsfgf:fqfgkfs24q k4fZPIUI3Atj%%35=O+l60.>=X7<+X,r 8II#p#4dSjVq% >X,-7$;;",
"XXi&&likrc:444d#:qdd29X8XX,o yN0>B>B83oi3N%s spsfg0XBi66k gk6..i.sfrkgjGdgeoo6ll*$*7&&&llvBllvlBllBBB$tLIIJJIUUJUUIDPzahhb+<*xx9@ :@w3@vc6ikrek0.;$oOO00 rsdse g2sd:4##O1VwsqKLDuLLVaw.>,hMuzzmO$lie.iil&<**7***7$$$x;$kffrggfffq2kk:gs4ZsrqfGPIULN3Vww=,53,v>O33OB87X,Xkr+UI4%11qjzqz% i++-7$;;",
",vB&vierrr#::44#4zz:c9X-&y,@c-OOB>9.Ooe6>3%g ggffs.B..6eegr6.6B 2skk2SJd2kooiil*$778vvv&&vll&&ll&lliXxhIIPJIIJIIUUILPz1Ahb+8*FFB c:rc5ov .6 sk o.;*oo.O0 rg:re 2fsd:42#N1zcfqSJPuLIV1%.>=5NMVz1N*Bi.66ill&8***$*7*$$$x;$k:frgs:ssfskkgr2ZZfrK4SGJUS@moc,,599XB.9OO>v8X3N@r8IIz%#p#djud2 B++n<$;;",
">&l&l.kk g:::d4:qjjqc>X88-,  yO0.9O   6l>3%r rr2g.B..6kee eoiiergrkgjGz%@ o>il7$&X&&vlXv&&&&&l&lllBBXxhIIJJIJJIUUIIDPDaMAb+<*xx>o@4%p5@Xw.6k2  0.;7ooo0.rrrfseksff4::#mNa4p2dSJIVDIzwpO,33haVzC@*i....6illv77***7*$$$xx;$kffkk242sfseerggZK:gKdKjJUJwOoX=999Xl.9O>9>&v3ocp-IJj21rp1jqq# i++-7$;;",
",&l&le k s4::d::jjzq >+778X@@&Oo@OOw  .l3@%  pggoi666e. r.@.>Okgkkrqjd2o@oi66*x8vB&&vvv&88&v&l&lllBBvF=DDJIIIIIUUUIDPDCMAb+<7$x> c:gwX Xm..kg@o.O;7OO0..  r:2e gff:#:fp=t:cgKGJPzDID@MO=3NAMDaN@$i......iiB<7$$77*$**$$;;* #ferqd4g::g 22gKZfgdKSqJUGo9,=999Bv>>O993X,9Ow <PJS24 o2jdz# By+y7$;;",
"X&l&l6   s:::q:#djz4 9&**7X@c-.0@O@pc@.Bt%pc pc0i.66.og 6>99Oksgk 4q4: .0.i68;7BB9lvlvv&<7&&&v&llvBlvFbDDPPJLPPIUIIPID1Mhb+7*FxXo :g@B@vp..k%@o03;<oo0..ekrf2err2f##:fw5t1 rZdSLzDIDtmOO9NAazA3A$i6...6e666&8*$*7$$****xx;*@1#kfqZfkf:2gdprq:2fZGSjJJj.,=99>Bv>>.93o=>3o  7PIj44%0rzzd# By+y7x;;",
"&&l&l6 rrg:##4:1djd1c38***X@ <9OOOwwpr0o%pcpgo.6.6.6. e>vO>6o2s2::d:: .6ii.8$7+0>=BXlBv8778&v&vvl&vvvF=PILLIPJJIIIPPUDCahbn7*Fx>oofr@B Xp..e @@@O;8toOe.ekrfs.rrsf:#:gp3@#psKKjPDDLDwwhN3Otzza@N$6..i6.e...yy8777$*****$$;;*o:#kfqZfrrg2r4prqff:ZSGSGJj959>>BvB>O9owO,.   7DJjj42k 4zq# Byny7x;;",
"8vl&l6o rg::#4#1qjz2 >*$**X@@8OOO0@@rsk0 c@ r.6.666. e6v9o.eg:4qdz42 06iii7$&vXeX>XvXB&8788&l&&&&&&&Xx3PIJLUIIJIJPIIIzaMhbn<7FF9ro2g0y@3%e.0o o0O;8wo0o.ek kr.krsf:::r 5t%cpKJGPPDDDatOO33AVVCth$666i6.e..0By&88<$***$7$*;F;*0:sefGJqrkffsdsg:2:4qdGGGJz339>BvB3O.o@@O0cs *DJdd:4  #dq# Byny7x;;",
"<vl&l6k  s4::q#:djd%c=7*$*=@@<..Oc@rgs .  o0.6...6.oo6Be.9. :dzjjj# e.ili8*l6X5 i=XvBXv8788&&&&&lvvv,FbILSjJIUJJJPIIIDCMhb+<7FF.go2g.&OO%e.ee  oN;-co  .0krk 0rrgf22#s@=w%rpdJGJPzPzM@O59NtuzCtt$>66iiee...Bvy&88*7****$7;$$;*.s2kfGG:rr::sqfsss4SqdGKKGdo99ilB33.0wmto%rr*DJq444  2dq2 B++n7x;;",
"7&l&l6 rr#44:q#:zj4#%3<*$*3@o7.0.  %gs 6rk..66.6..O.>>o9.ekf4zjSj4 ..iil7*&. >Xr.9>BBl&7788&ll&&l&vv,xhIJPGJILSLJPIIIz1AAh+-<xF.gk2r6&3O%.ekO r.o;-wo  .. rkk. rff#ssro9w%@rfGSJJzLucNO,9OtVDCtM$i66i6ke..6Xvvv8<7<**77*7;*7x;*0%2r4PJfkk44sdqssrZPSKGKKGd.>ilB66..@m%@%kg$zJd:d1o@#qd2ki++n7F;;",
"<&l&&ik  2:q:q24zS41#8nn*8OtO76o9c@ssg 6 0>>.e6..6.l>c>>ekg:zjGG4 e.iil*$l.e O, @3>>Bl&778yvXl&&&&vvXxbPIPGJJSjJJLJIIVCAhh+-<$x.rosk.83O 0e00pr.OF-MNw 0.erke6kkf:44   9w%c@2SSJJzDuwON,=3ouV1%t$B66i6ke..6Xv&B&8-877<7*7;78*x;7O#%rZPJ4ksZ4r4d2ggdSZdSKKKZOllB696.@c%opkr*DJd4Zq@o2qq2 i+n-7F;;",
"78i&&ie  s:q4q#1dLq#w7H5*-NcO*6oO@opg o>0>..k.6ii0>6p66ers24dSG:o..iil*$l6errO,@o3>>BXv87<yvv&&&l&&vX$hDLSjJPLGPGPIIJDuAhb+-<xx.  s .89.@0.e@r .OF-MNc  e rk.ik f44fk  3cpp 2SPIJzDuwO@==3ouVCmM$Bi6liee...iX&X&&yy877*7*;7-7$x;*Op.kSJJqf44: 4ZggfSSdzKKKGZ6lB99.Ocwp@rr 7DLqqjd  244s i+y-7F;;",
"&&>&l6k  #q44d11dPq2O7bb<-O@O7.@oo0cr e>>.0e.6i.c>>@.egkg::qqj: ..iil*$&.eegsO+coo99iBv&*78&&v&&&&&v5$+DSSGJLPLPPSPJPzaAAh,-*xx.  g 6v53k.ee % 0oxnwNw0 r ke.ikgfdj: g Oppc@gjPJJVD#woN99NNuDCoN$l66l6e...6>X&vvyy+y<8*7*;7y8**$F*O#>#LJGqZS4f qS2s4GJjZKKKGd.B6i60ww%%rgr7DLq:Zj @#dq%ki++n7F;;",
"&&l&l. k s444Z:4qPSrB$HHn-No3<6e@@ossk0i6.e6iie2>9.ikrgs:44qj1 .66il7$lie  22O-@ o9>iiv&*<8&&&&&&&vl5$3PSGGPLSSSGjPJPzmhh=,-*xx9    .vX3@.o0 % 6ox-%tmo sgre..rffdj4 gw9cpc0pdGPJzu1mtOOOo@uzawN$B66B6e..e6il&XX&&XXy+&&7;7&8<<7*F*@p>1PJGZSJ4: :Sff4JPZKKKKKd06i6 mc%#rgr*DP44jS% :zd2 6++n7F;;",
"&&l&lekks2:qqj:qqP4g.x<n8&NO976oooops o>6..66 2>.kikgr:Zqqzj#r iiil7*&.ok  ffO70co66>Bv<*88&&8&&v&&B5$NPSSjSLSzjSjJLjzChhb,n*xx0   rev,.o.ok@w.Box-1w%crggskeekffqZ: sc>@ o6 2zjSV#4woN3OOw1VC%@$i66B6ke..6iv&XXy&X,+5,y7;7y&88<<*x$O.i4IJGSKS:gr4K:fqJGKSZKKKdo>. cwpprrr7DL4qSG2o1dd# .X+-*F;;",
"&&l8leek2::4dZqqzPq4 $F<8yoO9<>ooo@2c.66..i.g2>0 .k2k#Z4qzj2ee66il*$&i.oor2ff@7. c.3>Bv<7&7&v&&&&&&iB$OPLSdjSSdzjjIPzuahh=+n<x$Ok r ev,O o00oc0i@x-#M#%gffsrrkrfZSzdg2c=rc.BkgdSSja1w@@O3omuDawm$B.6Bie..ee6B&Xv+yX,X3OX&;<+y&&8<<*;$lB>uPPGSGS2sgdGq:KJSGjdZKGS09Om%pprgr$DLd4ZZ: #zj# 6X+-7x;;",
"&&l7lee s##:qjjqjPj4c$F-8y@N=7>o@ owOBie.6e2 iog . c:Sq:dj%ee6iil*$v.0.@0 sffO8 pc .6>X<78&&&&&&v&&ii$NPLZZjzjdjdzJPV1mhh55-*F$.@ re6v=O oe.0po.w$n#m2:2:d:rg sfKPzZsfp>r@.io%qzzVMa@OoONo@uzMMN$Be.l6k.eke.ivvvv+,,XhoO,;8X&&&888<$;$X>>dPPGGSd#srdGKdGSZKZ4ZKGj0.cp%p rk*PLdqqZqg#jd2r.v+-7x;;",
"&ll7ieers:4qdZzzjGj4O$F77&NN9*9oo 0>ii..6osk6e sk@oqGd4qj#o0iill*$&>0o00orrs237@wc 0.>v87<8&&&l&&ll69x=IPZGLSj4d4zGSz#mhA5+n*x$90rge.X3.%oe.0g 9c$na%%:2:KZgf2ffZjzZ2fm>r@.i.%dVu1@mo9NOoo@#ut#N$Xe.i6ee.eo.>vvvv&,>X3NO=Fy,y8&8<&-*$F$X.OjLLSSjq2scdJKKKdSGZ4ZKJSkocwckrk7IPq4dZd#:jdsr6X+y7x;;",
"&&l7ik gs#qdjjdjSGj4,x;*<y@o3*3@00>>6.0. 2k r2: r2zd4Zqdp cl&ii*$8>o00@o0 gsg37OMwo0.B&&787&&8l&&ll.6$OIPSGSSjqjddSz4#mAA++n*x$>Ogg .v3Opoo6egpO@$+am1q:4ZKff4:fKjjd#fm5c 0i6rjjV%oaN3O3ottaVt1Nx>e.l6ee..066Xvvv&X,5=@@OxX>X&&8<&-<7*F$l6OVSPjjSq2s :GKqZKKJK:ZGGK o   kk<IP4:Zj4:#jd# 6++-*x;;",
"8&l7Bkkgs:qZZGjzPPG4X$F*<+NO37. 0>>9.o. ggsrp: r#4:4SZ:  %6lli7$8i9@kok  r rr3<taw@06B&7*8<v&8l&&ll6.$3PLSGjjzqj4dZz11aAh+,n*xxB0gsk.X3O%r@60s%O@x,am1d4:dG:224fKjj4g2m5@k0i6 jLj%@tO335oww1ut1M$>.ii6ee.e00eBvv&8v,5=N@@$53,&&&&&&888$F$v>0qjjdSSq:2o:KZddKGJZfZKJG k  k -IL4#jd#:#zq: 6Xn-*x;;",
"8&i7lkksr2qZZSjjLPz1X*x*<+OON<Or99O6.erg2:42:  s4:gd44rkr6iii7x8XO.0ko corrrr9*@aw@k6By**<7v&8&v&iii.$OjLzSjq:qj:4jj4#%Ah+,+*xx90rg09XO.p% .0gp3@x=1##q42ZJqfsdfKSd4rf%=O0ei90zJV%t@3=33NtmuVaut$li6ieeeeeoee6vyy<vB,=Oot$539Xy&&&&-ny<$x$&>@qzjjSj44s0:Kdf:ZGJZ:ZKJGrkkk -IG1#jq#4qzq:r6X+y7x;;",
"l8i8lkkr #4jSjjSLLq#,<x*+XOON<9>>.i.k2sfff2#rg#444j:#%c 6ii.&$7>.o0006kk0 og =*@mm  OX&7$*7l&&l&llii.*@SLqSjq:44#dGSd#mAh+H+*x$>0rro,5 3w o0Op 3ox=#a#112dK::sfqKGd:g:%=0.o66.4JVtw@O93333ujz11hxBiiieee.....6vyy<vB,3@@@$,Oo9X&88--++8<$;xl.cqSGjSZ4z20#JfsqdGGZZKGJG k r+Ij##dq444q4:g.X+-7x;;",
"l&68& k r:4SGjdSjLz:=7x*+,NOO*v>.B6ks24ff:2 s:dqqj1#@o 66ii&$8lO@oo0o.o0erk k=<mMM@e0X&7*<7v&&&lllii0*OLL:jSd4dd:4LSj#MAh+,+<x$B0re0,903c 0OO@ OOF=am11#:ddf:::fKGj1g:%=o.0i6.1j#t@33==NO>auzCah$iii.eeo...066v&87vXX3@.o$Xo 0>By&--+y--<$Fxlok4zzjSZ:d2 zJ:f::GKZKKKGJrer+Jj##4q4:q144p.X+8*x;;",
"ll.88   r2#zjzjjjSq43<$7+5N3=7,6i.kss4Z:f2 2::4dj#1ro@.i6i&$8i>6oooe.e e.oor =-M%%@00B&7787&&88&lv660* jS4qjd24S44Ljj%thh+5n<$$BO 0OX9>Ow@0..r oO;baa11%:Z:gf4qfGSG4gfm=o.0X>.1u%@OX3,5NNOw1z%MAxlli6.ee..o.6>Xy87XBX=O>@7,@ o66iv&8+y-y-7$;Fl p4qzdjq:d: 4Pfgs:JKKZqKJJrc,Pd#:444#d244go,+-*x;;",
"ll0&7ek g#2:ZZGjSLdqO-<-,5hXy>6i.krs:dd##r:q#4zj#2p@..6iil$86.6.o@eee.e..00 r,-Caw0o0B8*78<&&&&vlv66e7pSL44Sd21L4#Djj%Ahh,5n<$$B0 @.X9B.c0000 @ooFbam1#w#:4gfqqqGSGj2fm3o.oB>.#1c@O>==>ONtm1D#mMxlll6.ee..6.6>Xy87B5X=N>N*,o k...Xy&Xy+y-87$;Fl rq4ddd4:d:k:Jqfg:JKKdqZJJ%,S114:44:j214so,+8*x;;",
"li.&70  r#s:ZdSjSLjq@8-+,,,-B6i6.krfqz:sg4q4qzz4pr%.iiil8$8i@o6.0ooek.e6eeo s5<uu#@o0B&*78<&&88vBli6e<wPPddSz2DS4#jjj%hhh+5-*$$90k@.v3B9 OOOo00ooF=Mw##w2d:fsZdfGGSG:#m=O.0B>OC1 @O,=O>3otw1z1aax&lliek....066Xy&*X>,O@3c7Xokk..0>XX,+y+ny87$;Flo 2:4:qq:d4ksPKfs:GGKqdZJJaz1#d:2:4j2#:%oB+-*$;;",
"l>6l80k  gp:Z4SjSPjSMyy+Xn&Bii..erfs:::s4j:qj:#2 s.ilil7$860 O6.0.e...e.o.. g5-a11%06X&77<*8888&lvl6e&@PPzjLd%DS:1zVzMhhbH5-<$$>O k>+3i6o..0k0.oO;5mtm%w%d2srZdfKKjSd4a3@00v9.1#p@O=,o==o@aVzuCM$&&liee...0e66v&&*B9=N@3w7Xkk .0o.>53Xyyyy8<7*;Fl. #2:qqq#ZjkrGZssJJKKdfZGP:#%Sd22:z11q2@,+-*$;;",
"l66l&.k  %%4d4jjLPjG%+n++8lii6erf2k:4::q444dq42 riliil&$8.o@o660o0oe0..6..6kg=<M#1#@9v&877788&8&lvl6e&OLPjjL4pPj%VVjzMOh=55n-$$>0 e6&B66.9.0 @.09;,mtwwc :f2sqdfdKSqu4%=@o.yOou%%co>yO5>3c%uj1uMx&&li......6>>v&&*>O9N@9t*,koo..e.6Oc3y--n-<8<$FFlO@:dZ:2d:dzrgPq:PUJPKqfKKj%@Zz:1qz4:z# ,+-7$;;",
"l.>l&.k  g%1q4zazDjGM+8+yXii6esfgr2d#24:#dj#::rr6liil&x7ip co6>0e0okk0.>...ks3<%uz#o9Bv8<7<&888&&ll6e8oPIzGS:pDz%zujzcOh=55+-x$B.ek.&B66.9O0 @..9;+mmMt or2ff4qdZKG1@#%3o0.y0c1#%cc9&O393t#1V#1hF8lli.666>>iB>X&&7B99Nw.w7,ko0..e.6oscX&-y-8-87$;xlO@4GZf#q:qzpqz:4JIJJZdqqKGw#44:2jdqd#c>y8*$F;",
"l>6l&.e rs%4ddj4zLSPM-<+Xli.e sgr2q#2:::zj4g2sr6i.iil$;X0spp .66.6e ee0>.00os3-m#u#O>iv<<778&&88&ll6 -NUUzSL4rzz1LuuzMNb=HH+-x$B6o kX>>....o k0.9;+M@Mt@0 rfsfqZZGSz%:mhO0o&Orum2wooB93OOw1#VzaMx8ll6..69.>>,BX&y7B93O@9c7,oe06.06>o2sO+-+y8n-8<$;F>O.4JS:4Z4442Pj:qJGGJKq:ZdSg244pzjqq4p=+8*$F;",
"iB6l&6  rp%4qzSjzDLPt<8Bii.ekrr s4##gr2d4  rg ii66il7&x3c2pg 06...k 0e.66..0s3-M#1p39BX&<*<87&&8&&&. <NUUPJP4pSj#Su4z%t=b=5+-x$>6ok X&Bek..e e0o9;,M@@oo.k grfdZKGZdr21h30O&.cu%#%@OX,O36mz%ujCa$8&li6.93399>BXyy7X3OOo>M89koe6..6Bo24M=y+--n+--7x;$.@.2JSs4q42pdIq4ZJjGGKddqZKs#4#zz44#w=+-**F;",
"BB6l&>c ccm1:qjuVVLPN7X>i.ekkrkp1#1  g:: .rgriliiil*B@$Nps2sr0.ooe  k0.e600@s3-wm1%.3Bv88*<&77888l&.g8cIIJPG4%JSgjuudw@bbHH+<xxB0k  v7le 0.0 e6oO;,awt3O.o pggZKGGKZs21OO90&9c1ssmtO,9oO.w1mujaax&lli66>9=5>9,By&<B.OO@3M<9 k06..iB fdCOX+y-yn--<$;;$.00jUjg:q4rrjJzdzJjGJKqff:S:q:jzq:2 9y8**x;",
"li.&&6cppc%#4zjuzjLj5B660ekok.k%ht..p4:  s4siliiil**o@$oss2spO9.o0o  .>000.og=*tm1w>9Xv8&*<778&8&v&is&wIIIJj:pSz2z#4d%NhbHHn<xx=o  k&<le ..ogo603;5awmONO0rgsrZKKJZqg#%O@.oy= #gspO0BXtO. 1%VLta$8lli.6>>9559BXXy<B33ON3%-9oe06.eil fuzm,y&ynny--*;;;$6e.uIP2:22rgPG2p#PDSGKfffqKd4dq4:%@3+-7*x;",
"li6&&.w p@p4uddVjSjM=96ee.  0i9,,90p#q2 2#%9llill**B Nx@ss2p@@00k..o 9i00Ooos3*Na1wX9Xy&y7<878&88v&lr&wLIJIdg#L4:z#zjw3hbHH-<xx>o kk&<lkr0. so.0OF+MAaN@O. gs2qKKGKqg%%3o. X9c:24s9o9&@O. umVJoa$&llli6>>O5X35Xvy<X.O33=M-3eo0..eil :4Vp>y-yynn-n7;xF;*.oe1IJ#:2fg:P#.NCa#4KKqfffKZ#:442@3+-7*x;",
"&i6&&>oc @c#11:zSL%5>i.ek k.669Xy.2444sg229v&ill*$&o O$@2s#co00oo6.0o>>..0oop3$@Mum==Xyyv<<8<88<8v&l &MLJLIS24Ld:d1zSm3b=HH-*xx>kgek&&i so0 p 0oO;+aNmoNO3ksrrdKGGZqsru3o9@B,p4#4#..0XNO.@uwuD@tx&llB66B5,,X9=Xvy<X>93N3m89ko000.il 41: 95y&-ynn-*;$x;;*. cqPLd4sro#Izo55 s4GKZ:44G42:4%tO+-<*x;",
"lB6l&>Oc@@oo#4zjSai>>i. r .e rOXXOs:2kr:p6XvXBl**&i% =xO:sgcOO0 o9>o0>>6.0o0r=$ACCN5,y&&&*&8<&87&v&lr&%LPzIj:jGj4:%qjmhhb5+-*Fx>kg e8&Brg@o g ek.;+1tmNNO9r2rgqKGJSZr%13oO >Bo:#:s..ovN..@u%uLoMx&llB>33,++535XXy<BB>9O3M8>koO.0.il g2#o.3,y&yy-8*;$$xF;$. c4PPz4#2 uJ@vBpjddGGGZqqS#2#%@O+-<*$;",
"li6&&. w@cto%1VVaBi>.egg eergp@33 # e@%c6ivllB8*l6>r 3$.gss%O@O k>B0eii66O@o X$NVu@Xy+&&8*y8<&878&&lr&%LIzIjfSjjq##qj@hhb5+-*Fx>kr .8vB2so0   kk3;+uAwNNO>osrsfdGJKKggw3NOr0B.ss4f.. vN96Oz#1LOAx&lll>OO,XX33=vyv8>B>>33m8>k0...6ilo cp069,Xy+y8--;$$$$F;$6oc4GPjq:gk1400#jGdqKJKKZZG4%pO=+-<*$;",
"l668&.@co@@@#uja>i6.k2: eekrg  3>@0oowwBlllB&77l6.>ko5$=p%2%@cO k.>0o.>600oor=$Nuuw5XX&&<7&<<y&<8&&& &1PILID4GSdZq4zjthAb5+-<Fx9krei<v>fge. k k o;,VAtoNO3@rrs:dJGZq:2wOoO  3o rqf0>oB9O66V%%V3hxlllB>o@O3X39=X&v8>>3=O3M7> oO.0.iloo k0O.=Xy++-n-F*$$$$F;*i0rzJJjq:res%OpqKGZqKGZZKSG2 O5n<**$;",
"l0i&&>@c3NNO%uMBB6eks:rkekggse.>BiO0 wBlliiv*7>o00.ke5*3 %2%moO  .v.e0>>0@Ooc9$tuu%O,+-8<7&<<&&7<8&&e&#JILISdJj4jd1qjw3hA5nn<Fx9o .l*X>s e.  kk o;+utoNNO.@  gddJJqdqsw3@o oO @r:se6olOO.6V%%uOhxlllB>otN3+5O9,yvyB>O3O3M7= e0..e6l.oo@0O.33XXXnn<F7**$$xF;7io#SLLzd:e6w@o:qdGdKKGZKZJJpO,n<**$;",
"l i7v9wt93OO@Nv>60 s2g eksp:: >>> @cm>&l>iv$76r  oOk =<ow%#p @ g 0X>..iBO@Oo =$MDj#oXy-88<v8<&y87<&l &#JJJISdGjjGd1zS2OAh5+n<xF>okel*y9r e0rrk  o;H1ttN339o rgddGJdZfrw3@@r @s2 42o.evO..6#atV3h$Blll>oM@O,,3=Xyy&v>93NOm*>rk0O..6l.0@r0O39NN3=,n*F*<***$$$;7io#jGPj:r6BO@2fqZJZZKGSGZKP +-**$x;",
"vo>7v9Mo35=9,X... ##g   2rfqf mO3%m%6vvBil*76 #r o.e 3-@m%%#p@   .,B6.9l>OO0r3$tzj1@5+8-8<y<&X&<77&lk+#JJJULjGdSPq1SG:@Ah5+-<xx>0 kB$y>r e0   ek0;5uMM@3>>0 rsZKGJdK:r@5o@p @ss fg06kv.O..11au93xiBlB6wMtN3=35,+y8vB,ONN%*>r @O..il.0oo6OO9ow@oA,<F7<7<**78$;7io1jjPqgoOcs:dZZSJddjGGGqKK37*$$x;",
"v.9*&,to=X,Bv9.. ::2rek#rfZ4s2ro %#.&BBil78Ossffrk0ko3<t2%c p@o rkX&.O9,9OOo 3$@DD4 3X-8-8+y&v&<<<vl yuIIIULjKdLJz#zj%OtA5H-<Fx>0kel$v9 k.e   @oO;51tt@95>.  gdKKGqZ42@5@@propp f .iev>669VDVV.=xXBiBOtmto33O3Xyy&,>>OON%*Br k00il&B.0o6.O@o%amCt+$8<<<7<8+8$;860pqGP:s.gdZddZjZJqqSPPK:ZSX$*$F;",
"v69*&,o@5,Xv6.6 2sffke2rsZ4ffrep%#@l9>.978O#d:f:re6e.5<m1:pwc  gg vy66>,9OOo.>$tLDSc3X-78<yy8&y&8<vl +DUUJIPGGzIJPuzjp9tAbHn7Fx>0eeB$X>  6 rr   .;+1M@N3BBO kkqZZGZZqs@5@ pro@rr2o.6.B>.66uDVV9=xvl>>.oMMoNNO3XX+y>9.NONa*>kko.0ii&l6.o.6@a@#uaVCt$88<778-+n7x;86ipj:z:kesdZdqZSqJqqGPGG4dqn$$F;",
"vBi*8,Nh,-y.@0p1grs .%%pd#:#rec @c>9..>88Otqj#ffre.0o=<a112pwc r o>B0O6B>.O@O,$tDjj%oB&<&7yy<&&&8<&l +PUUPIjjJjPPPVVSw3tAb5n<FF>6.el$&9@ .  k @ o;HutN@3=B9  kqddJqdf t,Oopr0@  r.066>&.>i1DVV6,$BBi,@@tM@wtO=Xy+X9>O3O@m*Bke00oii&ii.0>OOwm1uCDua$&&&7*-n+n-<x;&6i241q4:efZZd4jSdJqqGGGK:q4<x;;",
"vll$7y=,-nOcop4% kke%cc42qdperwO.6>>.6&7OmmzGqqfs@9.r=<uu%w%cc@  O9i66.BB>>O0X*tVjd:r9&<-&yy<&&&8<&Bs+IUUIIjZGjPLIzzSwOtAb5n-xFB..6v$<NO..  ec@ O;5VMO@3=B>r efqqK:qf c=oopro@p k.e.6>v66i1DVV3,xBiBXttaaMMto9X++XO9Oo3@M*>ke0.e6ill...i99cm#11uCa$&B&<<++5+n+7x;&i62224q#rqKKZ:ZGzJdqSZKZ:f:*;;",
"vBl$*y+8+Oco2q#co..#c@pp:d1ks%0c.>B..&$,aV#VGdZ4gkO6@=<Duco@@ Ook9B>i>.>,>9OOX*MVSzq2oy8-&&&<8&&&8&lg+IUUUG:4jdDLUzjjwtMtb+n-xxB66l&$hM99. goo@ .;5ua@@3,B9  kgffKfqf2c,.O r@ p ei..6.l6iBaDDuO,FXlBBtaCCMNot3=,X90.oo3Nc*>kk00oii&li6.liO@MMwMtNAxvBv8&X+5,n5-7x;8lopr#1q#2ZKSj:dJjPddS4Z4fd%$;",
"lB&x$<<y9oo%4%r ok2c@@ks:1grg00.6B.0&x*Auj#VG:q: o0. 5*Dzaoco@O00.>>B>.>XB>OO+7AzDjq:%X--&,+<8&&&8vBgXIUUUJqjPPJLUSL4catAbHn-xF,9il&*h@O.6er eee6;=V1wcO,B. r rfdKfq2:w,33@ @@ e6i66iilillMDDa.=xXlB>tuuMtAMwO9==.O.@@OOw7Bek00e6ili6.0>Bow1McMttA$lBXyy5X,++5-n7F;8B0@2124::ZZSS:dIzJSZZqdfffO;",
"lB&;F*&,o0pq2wpc@4c0ops22pgs0.6>>..&$7vCDj1VGdZ4roo.p5*VLz1mc@.OO>,999.9BX>OOX*3DDzj:%5-&+5=y8&&&&vlr,UUUUUGJUIULULL:catAh5n-xF5>il&$XOO.66  oe09;bzzmmO,>er kgf:j4fss@,O3   o .6>66iiB6llMDDM3,xXB>9tuVaMA#1N3=O.Oo0@Ooc*B0e0.e.i&i..oo>o%%cwCCaA$B6BXXO=,,+=+5-*F;*v9 ###444KKjjf4IVJGZZzS4fs5",
"&l8;F&,3.%:%#%p@1 0c%s2srrs069>>.0y$7l.uPd4uGKKZro.0@X*VLDuC%ONOo,v>..00>B=OOX*NDjjj:p5y++53v8&8yvvB25UUUUUzJUUULIJj2%wtth,n-xF,Bi&&*3OO...skko.>;bDza%o=>.srkrg2qqfggt5O3 rk0 e.6666il.BiaDza.XFXl>3@auCata1tOO@0.  @OO@7B....e.6ii..o@9OctaCVuabxB9B>9035b=b5=-<*F;*&B g#::4dKZZS4:IVJPzZSj:fg",
"&i*;&X>0 ###w o#@0%2##% cpo6>>v6e&$8>.cDIzuaPjZ4p060o,*VIDVCmOOOoO,9o0..9,,=O+$NuzSjq29ynyXy&&&8&XBi%+IUUUULUUIULIJSr#otAh+n-xF>Bi&&$=O....ge e.>;=Vua#o3>6 gkkrf3%sgsw5O9krkk 0...i..l6lltDzmO,FXl93@aVCCaMatOOOOO  O@o@7B..>oeee66.6oo.0tCuCVVahx>.B3. @hb5b5b+-<$;;*7l g:22q:KZjJdqI1JJdjjd::",
"&>$8X,O %1%w@.c@0 2#4% c@oO>ivi0&x8B0@%LIjVwGdZq .9.0=*VIDCmmh=3O3,>@0O.>,X=O+$mCzSdd#Oy-y+88<8&&BBBp,UUUUIPIPJILIJP#4@tAb+n-xF,ll&&$83.e.6reee.9;Huu#1o3>6k2kkks@.sgst5O.kgke  .66>.6i9v&@Dzm3yFXii3NauCaM5mtOON3@ c  Oo<X..>ekee.6.60O6OcCaCCCCA$>.>Oog#t==bbh+n87$;;*7lopgr#4:ddjJz4P#JPZZZd4",
"lB7vB3 %1% 060@OOo%#prcoo.iBvlB&x7l.  %DIjjtjdZd@.>.eO<uIDCtt=,=O0>3o.6.BX+=3+*MmVZSd%oX-y&7<88&&XB>%,IUUUIPGJIIIJLJq:wMAbn+nxF,&l&&8$>6.eire ke.;HVu%#tO96k#kkgggkgff@,OOkso.e e.6>..>9B&oz m.XFB6>.taCaMAhmwONtNwp  p0o8B6.ieeek0....0>@@aaCCCCbx9O90 g#aMh=bh+n<<*$;;*&>O   2:4dSSPddG2PJGZZq",
"ll8v>c%1# @..000ow#p @0O9>lvll7x*v>wss2LIjDMzPSqo>B6oO*aDLVaA3=,99X>00..BX+,3X*mM#jSd#N,yX&*8&+X&vl9p+IUUUUJGIIIIPLJZ1mwA=++n$;vvl8&7<66eeir  0o.;+DV41O3>.ks  sfgksq:M,3.ero.ee0669..6XB&ou.ao5F>...OaCaAthMm@ow@%pppr0O<B666eeeke0..6.>@tCCCCCC5x>3=@@suDat5hb5+887*$;;7vB.c  2:dZjGGjjG:GPjqd",
"ll7lom%%  .O@ @ @%poco.>BXl9B7$7&90p#g#PIj#tVJSq 9BO@t<aDI1%m3O=9.i>.ek0lX+X>+<taqZGj4NX+Xy<8y+XXvl.%nPUUUUJJJILSPPJS%@wh=+Hn$F8vl8&88iiee. k ok.;HDzqdo=>.erpg:ffrrrrM,=..k0eeee.6B..6lilo#oM=+xi.69OaCthahmatocOppgrg o<B6>6..kke..e.9>owCuCCCabx==,o@2zLawNhbb+---7$x;x8&8>%%g2#fKGjSjGSfGJj4",
"lv8Opm%p% .@ @pw @  0.>,Xlll8F<vB.@22s:PIzo@VIj#o3O>OO7aLUVtwo9>B.96O@o0i,X,9X*Mt1qjj1@X+v&<+y+XX&&O2-LUUUUJIPJSjPSKGso@hbnH+$F&v&8l78li.ee    @.;+Duzz%3.oeoggqffge02m,B.eree.e.e6i.66lBlOV1@,7Fi6>i>oat3CNmaMtwc2prgrc@<B6>6e6eke..0..6OttaCCCabF=5,o #zDamwaA5+++-7**$;F&l83%%2:4:jzjqSPZsGG#",
"ll9wMpp o0@co #pwo006i>v>iB8**&>o. #221LILoO1IjsO.oB0o*CIUD1%o99i>i>0@00>XX,>+<tt1zjdmo5+,&*<y-yv&&@#8DUUUUIIdJd4jdZGprO5hn+nxF&&&&l<&lie.. kkoo.;nDzzS4o9 k0p2qffge5w%XB.e eeie.eiB6i.>Bi3LIc.yFB6B>i9##haAM#%@@cp % r@37i>l6k.ek..6...>O@MaaCuabF99,@%1DDamaCah++-n7*7*x;F&l8>w22:dfqGj4ZSq:Gj",
"iB3cwp k@@pcc1%%% o>>9X>i>8$ByB.o r:q21LIP%NmJj#06oBot*1IUL%#33>i>B>.@@o6XXB>+<mA1:jzmo,yvv**+-&y&yO#8DUUUUIJdPd:1dZGoroXA+H+$;8&&&l*yli.e.kekkoO;nDDLGdo>o e 2:qfkg3NcX>..60el...llBB..i.OPI 65$iBB6>OuC=ataat@@cp@%@cwo<Xilieek o.66.693tmaaCCMbF9=BOc4zDCwCVCa,+-n<*--*;;xlBv=css:q:SSdZPS44Z",
"BvOw rk p%2@%wp% @0O9X6i0&x8o,390prsdsVIIPuN@zd#@.@>0O*uIUD#u90BvBB.0@%@.,,Biy*mh1:jV%@X8&8$-=&88yy>pyLUUUUPP4Zq4%dqZO 0+h++H$F&vvll$yli.6. k00o0;-VDSjq09.e0 :fqke wNwX>e.B..iek0B&lB6.liOLImiX$Bll>,tCAnAtNtt@@Ow%www O$X6ii..e  e.66O39@MatuaMbFO53@w1CVa%1DDC5X--<7n-<;$xFlB&3g4:4dqPSjGJz#4",
">vopg  2%#pc w#coo09,66 yx*l ,Opcr  2sVPPPu@@u1#  po0,*uIUjdVOo6Xi>.o po9,,i>X*th#:dd#@,&y&*8>y<8y&Xw8zUUUUGPdq41 qqdo oyh+-+$FyBlll*&&l666kk..o0;-uVzjq030.> qfqk.O=NwX> i>eiie 06llli.B>OLU#iyFlii>B9N,-33o@wc@O %wcc@O$B9>B.6e  .i..693@MMMCatbF3,@w%#1ua#1DDVh,y&7<-n-;<*FFlB,O#Zq:ZZJPjPJj1",
">X.gk@41# w c# 0w09B..e&;$8B ,o%%%@rg2zDuz#Mc4c%wc@oo97#PIz##@.6lB30@ wpO3,>3X*Ahm1Vq%c,&&&&8,v<<8&X <VUUUUGGZq#s0::f0r.-h++n$FX3lli$v&l..iek..ee;-zVjS4 00.>pdqqp@OX3 +9rly6iiekoiBllliii9LIwB&;&i>9>,=8753Otwo@Ocp%wwc@*X6iB.6ekk6Bo.>9ONtMAMaM5F=9ocm#aV1uuCuDM=,y8<-n-F-<*;;i.B.#jZ4GPJSGJLu",
">l0oo1u1mwpp%w wo>B.0k8$$&v>cX@%w%c22:zjuV##w1O%m 000O8VLIu#1036Bv9 @@c O3X>9+$tAM#jz%t,&8<8*Xy888vB@<VUUUGSqZqf2.ffse .yh+n-xxB9lil$X&l6.. ee00e;-VCVSd%ooc@p4::4w ,O@y0rl&6Bieeeil&&liilvzL@i&F&BBi95X<7O=OwtO@@p%%tcc3*X>il66ekk.iO099ONtMhaat5F=ONtm#%u#uuVuVCo9v&&nn-F--7$F;90>c1GZdPGJSJJj",
">B0o1zV%%#%1mw#@9B66e&Fv&vB> +cs wor:dujjz#%w#>w%%w@0O8zPI4Vz%@6Bv>@O0c O9X>>+xbhMaSjwO,&&7&<Xy-&v>>0<uUUUSS::::p6sfgcp.nb+-<xFBilil*Blliiiekk60o;<CCVSz%c @c%:4:q#2.O@y6kl&>li.e6il&l&ii&vCuo6&;&iBioo=-*O=9@@3oo%1#oOcX$X>ii6i6ke.6Oo6>=htaAaaM+F=ONt#%p1mCuuuuCm@B&y++-F--<*$FF6.014SjSPGJSJP",
"9X3#Vzu#1m1umm@3X..e&F*>vvB> +c:cworgj:VVV1%m1>o %cwc37jIPdVz o.BX9@OO  OO>>>XxbtM#Sj%@=+&8yXy--vl6=O71UUUIGgsgf .2sk>@i8,n-<xx>>i.l*>iiiei.oe6.o;<CVDSdp r@w14:q41#o @y>kl<,Bi6.6il&l&BiB&uu0>&;&Bl>octX73O>O9OOOp:%O0@5$vBii6i6ee6>Oo.==htaMaCA5;=hNw#%w#waC1uCaac.Xy++-F-n-7*$;Fl6@14SGPGGJSL",
">X@1Vu1u1#u%#M>l>9.vx7&OvvB>@+ 4pc rpd:q1V#%1q,3w% mp=<VPjduD%@.BB.@oOo@33,==&xAttajzwo=X&-y3+n-yi.5N8CIUUJKrprre0sggBO68+n-<x$>Bie&<illi...6e.6o;-VzzLj# % mud:d:1:ko@&Xel89Biilil&&l8liB&C16l&;&llON3t=<=O>O.NNop#mo.oA$vBBi6>6ek6i.0.==AtMaaCtb;3NNt#%catC1u1C1%cO>,,+-F---8<7*FF&6@14SSGjPLS",
"BXauu11u4q#%%>l6i6v$<yXwiiBB@+ :sr0@sq11#z%%ud39pw@m%X<VIjzVz#pOB60oo0@0O=XB9+xtANwSqc3=+y&vO+88Xi9O@8mIUIJ4  rr66rrrB>.8+--<x$>Xi6&89llle.i60..o;-uu1Ldgr:cNzzqq44:g9.&v.l79Billil&8l&&il8aM6l8;&Bl3OOOX<,.XO3ONoppwo9oAxyi>6.B>0e.i.e6==NtMtaMAH;3AtMawc1tC11C1ua ..3,++x<---8<<*xx&e%uzGPPjPj",
"l,#uu1uzz41%.i6.i8$vBXBwi9>>@+@#gooop111#u%m41N>w ow2y*DPudP1##9B.0koO0O3=,X,+xaNOcGdcO,yy&,9+-yX>3Nt8MLUUP:g  kB6 rrB=.8----$x>B66&79B&&>BB66l.@;nC1DLqs%1pNzVz4q::fi9yvil79vli&ll&&ll&ll&m@>B8;vB9>,33y&>iv39N=3@%mt>3,$vi>6ii>00.60.>>=htMtaMbH;=NAtawm1Ma#1%m#%@6.3,XnF<<nn----*Fxlc#VzGLSjL",
"vX1juuzzu4m3.o6i8$v0@9> i>==@+@2c..kg#uuuumM44c=wwOt%&7zLz1PV120.60 o.03O=,X,+xttNwjdp=O,Xv,3--X,>ON%yNLUUIjgorel0srgvBO-<<--xxO36i87Xv&vBBB9>iB0;nC1DI42%1majVPd4:#f>>&vll<>yiilil&&lllll&Mt>B&;vX33,=N+&oBv3=t3O0%a@B3hF&XiiBB>006.o06>=h@tAAaAb;=AAmac%%ww%1mwM%ce.5X,-F<<-n-8<--*;xip1qjPLju",
"vy#11jju4mOrkil*$v@@@9B@B5=9@y 2 @o g11C11mt%4w=@@oow-nVDDaPu:s@00o @OOO3,Xv,X;bAhh11@9O+8X>38-55O.Owy9SUIVd 6 0v0dcg&v>y-<--$F3>il*7X&X&B>BBB@B.;nC1DI#21:%aDVPzq4#26B&&lv<XvBll.l8&l&ll&&Nh>B-;&B335,5y8OXy35t=3OaCt=,b;&X>>iB>.6i.e0>>5hwtAbMb=;=Attmtw@c@m1Mw%%%k035,nx<<8-88<-n-$Fxi##qdSLV",
"v&NaVju1%ow .6*$&3@o@9BoB>=3O8ogc@c w#aaCamMw%M=OoNNw-HDuuML112o.30 @O.3N9XXX+;bh5N1#o>3+<8,,-n5,O9N@-=dILu1o6 9&,:3ol&&88<--x;>9ll77X&v&vXvX>Oi6;+uuDL#%2q%1LVLjVu#s.l&&l87&XB8&6X78&&ll88hhXv8FyX9=,XX88,883,h,X>CatB+b;yXB>BB>0.O3OO3=Xbt@Abh==;=AAA@w@O@@CCww%m#w@O5Xyx87<8--<---*$;x.#1ddzj",
"X3c1dq4#c2 i><$vOtMtt=X0B>>9O<o%cOcc@MaaaMMtOwmO3NoO@8-DCCMDm%mOO3O@t33NO3,XXn;b35A1a9,5+7*XX-+,X=3ot<5#LLV#9>eB<&1ooX&7<87<<xFX9Bi&8,&&&&vyvB9.>;HVDDLu%sq:uLLPPzV1reB8&l8*<vi7vBv88&8&&87hh+X7F&&XX,y,y8y7-5,hy&BtaNX&b;&yX,X,BoNNANNO=+bhAh5bb5;=AAN@@t3NtMttwmwwcwOX+-x8<7---8----<$;x>#zj:1",
"ywp2##%p#rX&x;-,hNthhX&3yy+X=73NN5==3AAbtAhb5h@3=5h,37$CAAhuhAN333hhh55,,+5++n;n++5AN+,n7*F8<*n-ny,,N*+5ACatXX9-$$%OX<<$**$$$F;v3BB&-=X&&vv&vv>66;5VzDj1ws::4SJJJSu1r 5*<87x$<&*&v8**<$77$$-n<8*;<7*-+<<8**$*-7+*75hh5&*n;*<yX+5,3hhhhbb5n5bhbH5+-;+=b3=3N,=,=bh=A3=ONX-<*F***-<<**<<<*$;;F8%jq#",
"*+5,33XN=8*$x$*<--nyy-<-7*7-n-y++nn+++n-nn-yy+XXX+XX5,+3===h5,,X,XX,,,,X+n+yy-<n,XX5XXX+&---------yn+8+++X,++X,X+X3=,XXy&&87$;;X6liv7=Bl8&v&vvii6;5VVzV1w2Z:zLJLPPVus XyXXX+nynynyy-8y--8888-88<<nn8-------<----n-+++Xy&+yvvXXX,>>>,,XvX++XXXX++n-8+XXX++++yy+++++----<<<<**********$$$xF;;x<ttt",
"-nn+nnn++n+HH++++XXXXXXXX,5333.O0o@@@@oeekokkeee..ekekeekkrg     eekko0o0oo.3Oooo@ @@o0oo@@oo00OO..O..0oeeo00oo@ @oo@ pp#4:# &xX0B.e$,6v&&l&&lli6;bzLDjuwsKzjJIPLPDV:O5pwww@OONO3ONNNO339.99OO3.OOO333333O.OO.OO9OO3Oo0o@    kkkkkekee.eeeee.6>93....669>,>>3...39>=5=3333hb=33===3=555HHH++nnHn",
"HHHHHHH+HHH5H+HH+++Hn+H++5++,,5=NNOO0ee e pp%rp   kkeo rrrgk  rrgrgr  @ @  O@r@o@ r rrg2gsgo@@0orro@@@    k ke0ooOo@@cccw%Mw%t<XoX e$56&&vl&&Xli0FbV1zj1@ff4zLPIIIDz#3XoOOO3OooooooooooOO..39339>96Oooo0.O0.3..O.000o@o @ k  k eke.oo..6..6OO..O@ooO.6.0999>.eo@.9>>5,+n+HH5H55+++Hb5H+HH5H+nH55",
"+nnnn+H+HHHHH5H5bHHH+nHHHH+H+H,+5=5533.oo@    @ok  @o0oookk0oo.OOo@@@o  oo @ rcc%22%%%pp  p crssppr@00o   @@  @@@OOO9.@oOo@ON@-X0ik.$3.l&lllvlli.;=1wjSuO24djzzIUIDj#3,OOOoO939,,,X,>9>>o.OOOO0O.0   @@o@@@ook @ p  r     o@@ @o0OO9993O..3.O.3Ooo@00eoeO0oo00.O.3BX8<++HH+HH5H+H+HHH==HH+55HH++",
"H5HH+H+HHHHHHHHb5HHHH+H++H5HHHHnnnH,yvvliB>>>9>i6666e  c o3oO3>9996...99.Oo00OOocccccwMc@0ooo @0o@@0eeee0.6.0.>BB>33>>.9>>OOo@8BO0 9*@.l&ll&vlll6;h4 zd13r4dSzLIIPDj#3X95,>9>=5,>>>>>>B>3.9>999.6....0o0o0O000@oo r@ @@0  o0@ oo0@o0O9>>BB>93.OO6BiBBBBBBBlXBXB>93,7$<+H555==HHH55++5bH+H++H+H5H",
"5b+HH+HHHHHH5HHHHHHHHHHHn+n+HH5HH+H5+<8&vXXB>>BiiiB9BB9>>>>39>>=>XXvyvvXvXXX,33==53NNh3=====>...OO3>666>>3OO9>=,>BBBBBBBB=35. &>00 &*M6lBBv&&lli.Fh4@#q%=o::ZjSIIIjzq3X33,XB,5,5XyXX>>B>>B>>BBB=>>>9.0.3..3OOo@@ooOO@ @oOO99O>BBB>>>>B>>B>BBi>33B6O3.O3,XBv&vvvvv&77<+5bb5bb5+5HHHHHHHH55H+nnHH+",
"b5HH+HH++HHb5HH5HHHHHHHHHHH555H5=5H+X5v8yvvB96>>ii>>>B3999>B5==5,BBBBXvvvv&&77<-+3bhAhb3=5,,,,,B3Oo.>i99>>>>3>993>9>i9BB>B>=>i*90.0<$M.liilv&lli0Fh#0c4#Or:qZSjPIIjjjXXO9>XXXvvX,39X,XB9>B>>B>>>9>i>>>9ONO,53bhhAtMANNh535X,X&X=9...O0O699>99iBXyvBBBBB+vl&&yXBlv<--nH5H55H5HHHHHH+HHHHHbH+-<+H+",
"HHb55HHHHHHHHHHHH+HHH5HHHHHHHH5HH55HH,5y<vvv&vyXBvBi>93>vvXvXB5,XBBBX&&y&&&8*7&+y8<<-<<&+XXXX5O9>BBXvB>>i>6.99999i66..OO3933O>*i66>&Fo.Blill&&&6oF3%ow4#or4ZSGjSDDzjjXyO>933>=5X,=>.O9,=993>BBBvv&yXXvXB,>9=>v+y&y+++,X+,y&XBBB,BXBBvB6B9393.>B939339iB,>>Bvvvvv<n++HH5H5bHbb5HHH5HHHHbHHH+--H55",
"HHHbHHHH+HHHHHHHHHHHHb++H+HHHH55H5=5Hn+=&&v&&&&&yyBBvX&888&yX,5X8<7<**7&yyy8**<&vlvlB6.6Oo@oOO939>>9BB>>BBBXXBB>BB>69B>99Occr0<i..Bv$N.Bi6l&l&&..Fh%o@#c g44KPSSjLuuz5+oOo39>9>,,=9.9>BBBi>>BBB>.9>BlXBBBB>6BBiillll&8*7&8B9lB>39>.3,59Xv,939>B,5,,,BX&&&&&<<&vv<-HHb=b5H5b55HHHHHH5HHH5HH+n-+HH",
"5H55HH++HHHHHb5HHHHHHnHH+n+5b5HH5=5H+nn<-XBv&v&&&&&877<88877-+y&&&&<78<<<88&y&&+XBXBBi>>>>=>i>933=XBvyXvvXXXvvvXBXB>>>33=3OO @&90>6B$N.B6.iv&&veeF3po@% crq4dPjSLP14V,XoOO9>9>>XvBi>>>>>BXBiBBvXBBBXvB3oooO666>iBBll&v888*$**77<<-,+XXX8&&X,XX,935XvvvvvyvXv&vvy8$<<n=b55bbHbHb5H+HH+HHbHbH--n5H",
"5H5bHH5HHHHbH5H55HHHHH+nHH+HH5HHbb5-nH-7-&&&&vvvvvvXXXvvXllBllll&&&vvXXv&vXBXX>39>9>>>6>>.9>99.99>BB5>9,vvXXXXvXXXvB9>>93NOO@O86r6.k$3.i6e6lvll.ex3r @oc rddZGjSLLu1V=XO999=9,,BBBXvXXXvXvvXBBB>3999>99>>99..69666>Blll&&&&vv&&88-++8888<7<7<<*<&&&&&88888&&&&&8<$-n$-bb55b5H5bH555H555HHb5n-+H5",
"=555H+HH55+HHHHHHHH++nn+n+HHHHbHH5n$+5+nXBB.6>iBi>..>>BB>i>6iBBllBllli>Bv&lXBi9>>i966e0OO9>BBXBX>,BB>=95XvXvyvXXyvXB>>>99.o k0<>r.ek$=eiieoBBl&6.x3p@oO% gqKKjSSDLV1q5XO33.09>BBiBvv&&y&&vvXXBXXB,X,3=5=>9>>B>66>iillllBl&vv&8&&&XB>lllvvXiB,X&&vvvvXvliiiiiiiBl<$<+-$-=bbbbb=55=b5HH5=5,HHHnn5H",
"$$*$x$*****7******7<----n-++----n<<<-n+53okkoo0....669i>66..996.66>ii33>9>>BXB>39.>6.0O.OoO6o o.9>,,XvXBB,,XXXvyXXB>>>O0.0kkk.<9 .reF3kiikeBBB&6eFhpo9,pk2fjSd:4SDu11=B.9.9.9>i>999>BBBXvvvvX>.3>>>>9>99>Ooco@o 06i6BllBv8&&&8&XvvB>>>>B96699>>BBXB>999i96Biii..v*-nn7$<<---n---<-<<*<*****$$*$x",
"787$x8+y+++yy+X++X5=ONO33OoO3OO3==335H,hNo  oo.66.3>>B9OO9>i>>39>99>>99>>=BBB>39>>>33>>3OOO..oOO3.333=BvvvvXXX,=>33>>9.00@ oko89 .r.F3.l.kkBiB&.eFO%OX&o@g2qtdfpuzu1:=X6>993.>>99>>BBX&&BBX>BB>>BBXBBBOoOowpo0 0.66.9BBBX&vXXvv>>99.ooOOO093O00.6999>B>i>...0okk>**+=555XX+++yy++yy+y-8<777$$$FF",
"&l&<$yBX,,>>99993OoO3.3>OooO3ooOON@AhbhNO9. o0.ee0O..00o@.666O0.69.O.O.9>>>>99>3399OO.9.OO@0oo0OooO>>==>BXX5,,B>B>>>>933ooo.O383 k .x3.6krkB66leeF3#O++X3 pq=:: #u1123Xi>9999>9393>>>Bv&&v>9>>999=>99>.oO@cpc@@O...66>BiB&3.>396OOOooo0..0.6O.0.96.69>96i6ii..6iv**n++XXX++XXvX>>BBBXvXvy&&877*$",
"lil&*X,,,BB>>>>3OOO3>3.9oooOOOO339933hAOOO..ooeo0.O.6..6....6666>>66.006>>....6.39>33>>9=93.o0ooOOOOO3335BB55,,,B>399999OO3399&. ek3$@e6eg i66lkkF=#cy,XXo d44:c%u#425y3OOO999>99=B===BBBBXB>=,>=OO3Oooo0.60O..6>99iBBiBlB>>B>B>O.6..0@O.966.66>>>>BBBBBi66660e.6yn,,,X,XXXXXXXB>BB,XXX+y&&&&y-8",
"iiB&$8888<88<8&&&yy&y&&8&&y&&yvvyy+XXXXvXXXX53=5,vXy&vv&vXXXvyyXy&&878yy&&&&&y&&&y&&&--&&&&vXX,5,X+yy-yy--yy8yy&y+Xy&&yyyyy+-7$B ee3$pei.gei69lkkF,#sXXO90rqfrspwua#%,*-+y&&88<887***7**<<<<<<777<&&+XXXXXXXXXXXyyyy&&&<77<&y&&8888888&&&&&&&yyy+y&&&&&+,XXXXXvv&8-+yn-<88-y&&yyyyy+yy&&-888<8-n"
};
