/* XPM */
static char *result[] = {
/* columns rows colors chars-per-pixel */
"144 288 73 1 ",
"  c #765540",
". c #2D1F17",
"X c #1F130D",
"o c #7C6B5D",
"O c #947D68",
"+ c #968575",
"@ c #A78F78",
"# c #9B8068",
"$ c #A9896D",
"% c #A1856B",
"& c #8C7968",
"* c #887462",
"= c #856853",
"- c #503C2E",
"; c #786657",
": c #78614F",
"> c #6C5949",
", c #725E4F",
"< c #866D5A",
"1 c #95755B",
"2 c #907259",
"3 c #7B5D47",
"4 c #8E6D54",
"5 c #85654E",
"6 c #A68364",
"7 c #9F7D60",
"8 c #B09479",
"9 c #AC9A87",
"0 c #9F8B79",
"q c #99795E",
"w c #8F694C",
"e c #1A0F0A",
"r c #7D624D",
"t c #755B48",
"y c #694C37",
"u c #7C5B42",
"i c #846249",
"p c #6D5340",
"a c #4D372A",
"s c #745944",
"d c #644E3F",
"f c #745139",
"g c #6B4F3C",
"h c #815F46",
"j c #261911",
"k c #61412E",
"l c #342219",
"z c #45352B",
"x c #534940",
"c c #63554A",
"v c #5C4D42",
"b c #634A38",
"n c #5D4536",
"m c #110703",
"M c #3C281D",
"N c #3A2C24",
"B c #3E322A",
"V c #433023",
"C c #554234",
"Z c #504034",
"A c #5D4232",
"S c #4A3223",
"D c #654632",
"F c #593F2D",
"G c #6E4C35",
"H c #5B3B28",
"J c #442C1F",
"K c #443D35",
"L c #35261D",
"P c #513322",
"I c #543929",
"U c #BCAC99",
"Y c white",
/* pixels */
" .XoO++@O#@$#%%+#&&*&=-;oo;;;:;o:>,:o:,;:,,,:::;;=:====<==<==<<122*>-<;31==<<<2144<5=4=4=<2<<4==16$766889@+@@0090++++09@+@99@00@@#qw11477qqq115q",
" .e;&0@90000%#%+&<<<<4-,;ooooo;;o;;o;;;,o,;,;o;o<<=rr=rr=**2<<<==<<tyr=554<<<2=5u3i54=r<<<1<=qO221#12#%%@@@++OO&+0+++0090++##**o==1wqqq2q#771q45",
"p.e;*0000@O%%%%OO**<=2a;oooooo;o;;,;;:::;;::oo;:;<*;=;;:=***<**OO#2 psr<=2*25<4=553r=r<<;r*&&O&O+++%@0@@+09@000+0@&pd:***&=ufgs&r hw4ww4wi41q6$7",
"gje;+0000@O%0%%O#&**21a*++***ooo**o**<<<<oo;;;o<****o:o*&&***&&*O+*o<o*#O&##O<O#++#&+@++&&&O+&O++++&O++0+99O*&&<&++99990*<3 kt>;>ttr5r54<11<q45r",
" je;+000++OO%O#&&*<<42lzxxxc,,>vcccc>ccccvvc,,,c>;o;o;;*O++09+++++&*ooo*&;>>O++0@+90+@+0++O&+++++0@0++&**&&o;;,>>>dbd>p:>:,sb:*;*oo<<OO+>pn-p3i2",
" jm;+9000+#1%###&*<544MNBzBBBBBNNjXj..lNzVz---CvvzZ-zzVzZ>c;**<<,>vvvZzncnzzvvxCz-c>dd>:>,<;<**<<**oo;oooo**o***oo&OOO*+&&;;;vvCZ-bdddnp,=*<2444",
"sjm>O990@@+2#%qOO*==24Nb sgbbbAACSSaaVabgbggnbbggNaa-cCaC>vvo,:dn>dcpnb>>>dzx*;-Znc>>>>>o;o:>>c;:>>>gppnyDbnbbp trr<=r3 ggbsrpbnbgFAFFADDAby t g",
" jm>+9900++1#%q1&O=24=NprsnngbnbZ>b-ZCAddd:,d>:>dxxC;>tgnp,>:;o:+O*<oo;;,>d>><*:o<&*<*o;tgnbbvZbnaCC-ZnnbDyypfs==33r=:pvndvvvcdnbnnnCnbbnnbbyGDH",
":jmc+9900O##00O2&O*152JnbbbbdbnnBZx-CnAdbbbccco&***;;;**:;*<*+O;;;=O00++O&******ooo::::55i3rrr3 3r3rr<**=5r r5tt:rrtgZxvcvvccccvvvxvvvc>vcvvvvvc",
"3jmcO0090#O#00O1O&<qwqBbnbbnnCZZNKznADDDDbbpt,;oo*;:o&*&*o&&<&*,dgbgbpgpdbd,oo&<r:33p3 t rrhhi=5i=rr;;;<rr=tsppyggDk-BccccxZxvvcvvxxvxxxvcccccvc",
"3jmcO000+&OO00#4#&r15*zgpppbbnCnZaCnbdpgypp>pr<o;<<,:**=o=*<**,ts p5=<2<rpttr,;:tru u5huuih3u   u 3 :r:,,:;,tgpyppd-Bzxcxvccccvvccvvcxxccccc>cxv",
"3jmvO9000O+O+%#<O+=q5&Zbgddbbbddvvc>>p,,>t,,tr:::=<55=24=5=h33p  stssgp pyg pttssr   pyggyyp  pp   pp>,,;;o<o,stpgcCNKvcvxcccxxxx>cxcccvvccc>cvv",
"r.mn*0+0+&+O+#O5<+214*v>:;:>>c>,,ooooo<;ooo;;<o:;o=;<*<=25=454=rr=<r<<5=<r5r3p up pttt t:r:ttr::rrrr==<o<oo*o:>dazvxzKvc>ccvcvcvvccccccccccvxxvx",
"=LmvoO+OOo*&O#135+22=*Z>=<=rrr::::::;o;:;::=<<*<oooo<*2212<<<=<5<5rttrrr5r55ru u uh5=rss:,t>tttr:;===tss,,r:>pgyzNKZvvccccvxvcvcvcccvc>ccccccxvv",
"*Nevo&+&&<<<42= <#24h2-p;=rrr=5rrrrrr:t:r==o&<<&****<<<5=1q4==53ri555==5=i3hh=h rr3     uts ss ppgApr :rtt,tpDDDM.KLBxcc>vv,cccvccvcccc>>>>cccvv",
"<Leco*&*<*2==55f3O==h<a,rr:,tttsst3r:,==t==r**;<*<**==<=5w4444445rr=5h3u 333r 3 gypgyy gp g spssss i3yyykkyyDDDDS.ZKjLvccc>cccccvvcxxcvccvccccvc",
"<.ec;*&*o=<=25if O<<=<-pp>>>>>t:;r :tt<&<<<<<=;<<<2221<=<==<4=h5553tr:3t    tspp pttpg>tts ttsu3rr  gybyyyyDDkkkSNKZz.Zvvvcvcc>cc>cccccvxxvccc>c",
"<jX;oo*<<<rr=iiGf12<5<Jgg 3srt p::t:sr=:tt,t;=<2=2$87@#4=r424=5h5=2421r3r ggpppstp3  s    3 pp pp gGgpygpgyygDkkSBzxxzNBxvvxxxxxxxv;cvvcxvvxvxxx",
",mXc*<*or<=rr iDy31q<<jjlMJlMll.MJJJJaaJJVSMaPIIPIHFPHFFHIFFFHPJPPSSSSJJJMlllMMJMlJJJSSJJJJMMMJJMMMMJSSaSJJJMllljjjjNzKBBzBNNNLLN..LjjjXXXeXjXXj",
",mj,O&oos<r=r hD  1%q7JmmmmmmmmmmmmmmmmmmmmmmmmmmmmmmmmmmmmmmmmmmmmmmmmmmmmmmmmmmmmmmmmmmmmmmmmmmmmmmmmmmmmmmmmmmmmmmmmmmmmmmmmmmmmmmmeemejXXXem",
"tmj;&Oo;t<t=3p3y  qq1$nmmmmmmmmmmmmmmmmmmmmmmmmmmmmmmmmmmmmmmmmmmmmmmmmmmmmmmmmmmmmemmmmeeXemmmmmmmmmmemmmmmmmmmmmmmmmmmmmmmmmmmmmellMJMJ-FIPaaM",
">mj:*&:=,=:2ryp i41q78nmmeXXXjXXjjjXXjXjj.jjXjemmjjjjjjjjj.jXejXjj.jXjXXmmX.jjjjjl.L.jjj....jjjjjXmej..jjXeXXXXeeemmmmeeeemejjXemL--CbnCguuhupgp",
",ejo<<ptt=,<rp r526768cejjjjj..jlLl..l...Lll..jme.ll.llL..LL.....LNL.LN.XmjLLlllLzVzLlMlNNNMLllLL.XjNBBNl.jjjjjjjjmXXXjjjjXj..jjzdng,tp34411=:5r",
"peeo<=>ts:trgyuh52%qq8>e......l.LLNlLLLLLMMNlL.eXlMMLLLNNLNNN.NLNBBNLBBNXm.NNNLlN-BzzNVNVzzVMJNJVMjlzZZKBL.jj.....Xmjjj...jlL..Zpgt53 51q171425O",
">XXo<<3:>:rugbg  =#qq@>Xl...lLNNNNNLMBNNMNNNLNLXXLNzBNNzzzBBB.BNNBzBNBzNjmLBBBBMV-zz-JzNB-zVMJzaaNjLzZKKKBN......LXmj...L.jLNLabb=4  5O#1112146%",
">Xeo=45rt=3 bb   h#OO$>jlll.lNNBNBBNMBBNMNMNNNLXjJBzBBBzKzBKBLzBNBzBBzKVjmLzzz-za-azZzaBBZCzVVaa-z.NZxZxZzNl...LL.je..L.L.j.MZnb<2gg=%#112q77$#q",
"pXe;==5=35irpbr f #Oq6>Xlll.LNNNLBzNMNBNNVNNMLLXjVzzzNNzKKKBKLzBNNBBNzKVjeNzKzzzZvCZZzazzZCzzzzaZalzxvvvxKLlllLLL.jX.LLLLL.lCDD42fy4@Oq42q768%1q",
"gXX,1454ri14pg 3  1rt%>j.lLlLNNLLNzBNBzBNVzJNNNXjVBzzNNzzKzzBLzBNNNzNBKVjeBKK-C-CxnvCaazCZCzzaaZCalzv>v>xKNlllNLLN.LNNNNL..Zgy44GG48#72417$$q771",
"gXX>q2hr5h=1sb35u44DZOcjllLlNNNNLNBNLBzBNNBNMNNXjzBNNNBBKKKzBLKzBNNzBBKB.ezKKCC-CnZCZaaz-ZCzzZZvn-lzv>vc>ZNLLLNNNBNNBNNNL.Cdg2<Gfw$O2444166q67q6",
">Xj,O2i i4i=spshh442tO>jl.LLNNNNLNzBLBzBLNNVMNNXjzzBBNBBKKzBBNzzNNBNNKKzlXzZZx-ndbnbCZZaaZna-ndgcbLC,;;;;xBNNNNNzKBBBNNL.C>g:=yGuqq74ww1771776$#",
"pjjt14i5=2iu  g5477$77>jllLLNBBNNNBBNNzBMNBVNLNXjSzzzBBzKZKzBBBBNNBNNzzzLjZvcvxp:tp>pbbCbdpAg3r=rtNco*&&*vzzzzKZZKzKzBNLntrg gD 2$14ww4q11q766q2",
"t.js4=h444hii gh4@$8%6,jNMNLNzKzNBzzBzz-VJzzzBzjlFCCCZZCxcxxZzKKBaaazaa-Vjx,;o;<<=i33spgpu3ghi=#*rV;+000&;bCCvzBzKKKKBLCrrsGffhu45w5w1111q7661=2",
"sjjt55i42q524ig51@%8$6r.zzzVNzCKBKZzznnCazZCC-Z.lybddvv>;;>cvCZZ-zV-a-nDV.>**&O#144u 3r  u3g5h=%O<V;+09+&oppgpzCxZvxCzA53pDD hhhiiu5111q7777qr==",
"tjXg54h=21244<As#8%86$=.aZazBzZ--ZCCndgd-ZnbnCC..ybdc>>;oo;;cxxxCMMVCvgszL;oo&00<iw5ii3 fu g554%&<J;+0990&ttt:ad>>o;xg=syDk r==uwhuw47q1q171 rrn",
"=.Xbi<u5114441g5#8687$rlCbn---vCnZzvdgp>CAdgnbC.lDbd>;;,o&o;>xc>Nlz-Cb>=zNo;;O@+<i5ih4i fhgf541%&<N,*O99@Or3t=n>;*0>p=rfpy 3<qh5h5w4q14ww44p33bm",
"rNjg5=ii144hh4r46868q8<LAbAZ-ZvdZzBvbggtAbgpdnn.lbgg>oo;o&&o;xv>MMz-Zx><zNo*;+90<5w552=uuuuf5520O<M><&9@%1r=r<,n:O;gtr 3  3r1s5ih5w11qw5w5ttrCmm",
"tlXgr=55244u45r2$8@8q8*lCyCaaZvvdz-d>tppnggpdCnL.yg>;<;o&&*o;cvcNNz-zx><aZo&*+901455224uhhh =510O<L>=*990*rr=11<*,Agt rpp=3u 5=4242w44wi3psrnemm",
"r.egt44=4==i2r=47888%8<lFgnZ-Zvvvand>rppbp>>gbbl.yd,<*;;&*;;ovZvNMazzv;<aZo+*&@#2=55=25 u=i =4#0O<lp<<990*2=542rndtt 3bkr3  5www1254244:pgibjmmm",
"<.ep =4422542<2O#8$8$8<LZbAZnnvnvZvbg>pdnpt>pbbL.yd>;**o*&o;ocxZNMMzC>o;ZK*+*&0&24=45q2h 45u44#%O<Mg*&U9@<25i=rnn,tpsDk hp hhwi42i42w=tpy3yjeXem",
"1NXtt=2=47244=<%786888*N-Dn--nvvbndb>pgbnp>pdnbljgdc:**;**oo&;>zNaz-C,o;nK++&+@0224i<1<ss43321#%O<Vp++U99*2<rrbb:sgtDDs3phw54522i413s pg3gM.jjem",
"Oljt:=44412ww=2#286888*V-DbZ-CvnnZvbtggbngggbnd.jgbp,o&oo**;ooczzBBVa>*;vx++&+@0142=4q=fu5ui11##O*z:+099+<=<tnp33gtbFpr  =24h443ihppsdfigJVN.jXm",
"OLj:;r<4q7254O*#288$88<zCnnZZCdbbnCnpdgbCdgbdbd..db>,;*o;o;;;,ZN--zz-p*=dx&++0@#&4241#O=r4s511##O&zp&099O<<=nptppsgkp53i412i4= u3p ppb3pSaaN.jXm",
"1ljo:t<4761i4#2#5%$666*zFFF-vnndnnnbgbbnCbdbbbpljgp>,;**;;o>;>ZlNzVVab<<cx&++00+1q22##12==r=22####zgO009*;>bgppp>gbt=351q4325g3u h gbrpSICnz..jm",
"qNj*;:2416O<wq2q=7$$6$*zCFFaZZndnnvnbACFbnbbdbg.jgpp>;o&o;o;,cCNVJJaZgr,vx&++00#2122##24233544#1&0Z>O009&;Cppps>bb:=si11=32igu3y33gyrtSAAbvz..jm",
"1Nj*=t44162qw1=226$$$$1VCFF-aZnbvCvbgn-Cnbgndgd.jdpg>;o&o;&*;vvCz-Znngspax&++00+4==2qq411r5==4qq1@-g&009,v>pp pdgrr r11i 45 hhgu5 y:raAybbnB..je",
"#.j**:41172q445216$$66*VnFF-a-ndvCvdgnZ-CddZZggNjb>c>>,;;;&o;vcda-bbndt:vZ+&09@Oq1q1O24q2=i4=2122+zb*000;ttttpgg::ys47iGihuiifu5hgt:PbtggdCVL.je",
"2.X**,421744411116$$77<znAFA-Znbvvndgn-ZnbbbZndNjg>d>>>,,c,,>CddIIC-ngr5cK+&+9@O21q4q241q=<54qO2*+-no0+;thr=tp 3 pr44hGhiuiip3hif rSb:=tpgnBL.jX",
"2lj**:=226www17q688866*zA-FCZ-CCvvnvdn--ZnbbCZvB.>>dvdd>d>>ppbbb-F--ndtrbz+&+9+&5=254=r=q=2ri27<&+-C>+,:h3<=ts3 pr22uGhiuhi u35Gf Sbr<<r>dvzNL.X",
"q..&Or=116w11q#7#@8$66OaC-F-Z-ZbvvCvdbCnZnbgn-vz.>;,vvvcc>tppbnb-CAnbbg=bz&&09+*=5=s=r5=#&2r544<*+-bp;trh==r3r  i243g55uihh u5DguPgr===,pdCBN..X",
"2..*Or=246qq12#77@$676&zAAAZZCZnnvnvbdInCnbbACcB.p>:cvvvcp>>pbnnC-CnnAbrZz&&+90*1<= 5rr4#O&:5w541Ozbnnsh==r3u s=14ugh4 hiuf 5DyuPp*:sr:ttdnzL..X",
"4..<&:=24q1wwwq7788$66ON-FA--ZZnnnCndb-ZZCnnAZvN.p>>cvCvdppppcbdnCAnCAbtzz&&&00*1=5uirr4###,i5h52&zaCbph5=hs 3=22ifh2uihifg5yg Pb*&:t==;,dn-NL.X",
"=..2&:52=1w4wh1$18986%OMCFA-a-aCnvnvcn-a--bdbZvB.dbvvvvvxnbp,dbdCCbbnCbt-K+&+++<<<rh<354O&#:hhi34=JIngg355ut3=42i i2r5=rpg5p GPA;**==<5;:cC-BL.j",
"<.L**rr4w1q71iq$188866#N-nACCZ-ZvxnndnZZazdgdv>BjCCvvnxxZCg,rdnnzabACFFpzK+&+0+&<=sr*t44OOO=5i5hr-SFbg hhu3r5==hu5q==24pg= fDJFs<*<=<=r;:>x-BL.j",
"<..;=<<2411715#%788866&VZAAA-nC-nvvnbnCCZzdgvvcBXAndvCCxZC>r,dbbz-CC-FSbzK&*++&O<,33&th4q#O===4rnaDDb     sr5r3u=q2541ug<pGkMAs:**2<2=r<o>vZzN.j",
"=.jr=r=4wwqww5q#88@86$<Vnn-I-CnZxxvnbbnCZzbdZvvNXnbnvZ--Cbpttdnb-CbbCCSAVZ&o&&&O:ts <tu41##55i<baFDbp     3hhh3414522rstA DJSpt,<*<<4=r;:>CZzN.j",
"r..;rr=4w1q14=4$$98@6$*V-FCZCnbCnCnvbbnZ-zvdncvLXFnvCC-Zxdp>gvbn-nbCZZabNvo;&+&o,> i=r=42#0<43bIZADggpff u  r5=2wi1q5p#>gbjMn ,t=2<544=;:cZzKL.j",
"r..:sr=455www:<$#98$$$*N-FCACnnCvCCvnnCCnandvncNXICnn-ZCx>>pdvcnnnbCZZanNx&o&0&:ptpsr =22%0*=baFAngggDy rrtr4245iq<<3 bpylmVptr354==45r=,dZzBL.X",
"r..,>==huhhwwd=$#988$8<J-AAZZvnCnxvdbCCvvznccv>LXaCCn-Zxx>>>dvvZbnnCC-abNv&o&0*:>;bgrgi2=%0;CVaADybygg rr5=4q2i52:=rsygDM.eVs355i45=4i rtcZBBL.X",
"p..>:=<3ui5wwbr#8U88%$<JaFnZZbnn-CvcbCCnn-xvcv>NX-FCb-Zvvc>,vxvZCnnnnC-nM>&o++<,prbprs3<r&O-JSaAbpbp s3uh=1q4i=1s==3ggAl.JjJ 3r5i45=4= r,>ZNNLje",
">.L>><*t hw4hp>&8U@$%$<V-C--CnZC-Cnbnnvvb-xxxvv.e-ACbCZvvdd>vZnCZnvdn---N>;o+&=:pgbb3rt=<rnJS-CAAp=rsrthi44wi22gh5iGGDljJa.-sh5rh45<45 r>paMNLje",
"r.L:><&u  wqw b=@U8$$$=VaCC-CbA--xvnbbnvv-Cxv>n.maFAbvcvnnndvxvnndvdC--CN>;&+&r,tbbdgu ==-JSannAFbrtrr5w44wh44f  h Gk.jLSnlZuhhur14<45r3t>aNN.je",
":jL;,=*h  44w3dr$88%6$<VSC---bn-zxvnnbnvvZxvv,vNeaAnvCvcvnnnvv>vvvnvnZaCN;o*&*,>>pdpgst>ISa-dbAbFA uuii414i=5g 55fGDljLJIbL-3h3rr1=5555r:>aNN.jm",
"rjL;>,*tb wwq2p<78%676<zaCaaannZzCvnnnvcv-vvvcvNe-CbbZnvvbdbcc;dvvvvvZ-AN;oo**,ppgbgygZzS-ZgpptsADrhui5=4=4igu==hfk.jLlJAgl-5iui5=u 3h33tdzMN.jm",
":.N;>c<rt3wwq$pO78@qq6*V-Zaa-nnZzCdnnbvvdCxcc,dLXaCnb-Cndcgbvco,ncddbZaAz;oooo,p>dbbbzMSaZgp3r53pg5hh442=45gr4ih D.XjLNVng.I5i3h5ifg353s nVLLjXm",
":jL=cc;:rh4wq8;0890qq7*JaazaaCn--CdnbnvbcxZvc>bleaCnbZCnvcbdCx,>bbnbvCZnz;ooo;,>;>pgdla-absrr<t5h5hr4i24553i35 Gk.mj.lVVZblk5hr3ri  h=h pCJLL.Xm",
",jL;>>:rt 5w58o9@@$117*NzazzaZCC-zvnnb>cvxCxv>bNXaFvvvnvvdcvCx>>>pbbdCZnVv;o;;,>,>>n-z--bpr5=r5iihh4i4=i5hi3h fklXjX.MVz-bMyw333i5isi5h3sFVML.Xm",
">j.:>vp:3 u5ir;U9##227<NzazVz-C--VZnnn>cvxxcc>nNXIFc>vvxnvcvxx,;:ddnvZaCMZ;o;;:>>:bNz-abs35=55=5h42343p33iu3 uklj.lj.LVzCgMGwush554u3i5r -JLL.Xm",
"tj.;:dptrh5wi-x99@$21%oNVzzzz-ZaZBCCnn>dvnxc,>CNeIIvcvnZCvbvxv>,;pggdZaZMZ;o,;rp:>zz-Cbgr<45245w=4 =3p pu33uh .jMLMjjLlzApMGwu3h55it3h5hpaJLL.Xm",
",..:octr5=w5uB.09@#117oMNzVzznZaaBCnCZccnvZvc,ZBjaanvvnCZnvdvv,:rg>pdC-ZMZ;;c;rdcaz-nppt5q145445whr:pp5533 hrMjlVMNjXj.zCgMGwuih553psiii aVLL.Xm",
">..;o,p:=44whDl090%#q1;MNzzzzC-aaJ-nZ-c>vvZxcc-LjISCndbnbnnvvc;;rg>bvvZABZ;;co<-Nz-bpgs=4qq5=1whw=rts33uhhipJjLJzML.XjLzngLywhi54=sgu5ih -zLL.Xm",
">jj:;,>tr=4wiun<O0q1#1,LVzzzVCCaaJannZdcvvxx,>ZLj-ncxdvdpnvvc>,o<>>bnZ-nNZ,;co,Vanp tr121744125i2=3 ss r5i l.JSVzMl...Nanplkw5h=15gbuihhgaSlljem",
",jj:o>ppuiw4ihfr&+O1%#,lJzVNVZaaVNzCnZvvndZxccZLX-dvxvdcdnnvcc,::>gbn-aALC,;,c-nbg r5Oq661w4qii==tb::t<=53M.MSSSSJll.lNzCp.k45i41rbb uuuyaSll.em",
">jj,o,tsri5i5huqO##1#q,lNzzNz-aaVMaCbCccccZx>cCNXaZCCZxvnCvvvc>>>tddbnaZNZ>;vandg 5576q6q2214hi=sgttrt =3S.MJaaSaVll.lzZbp.D45=42uybu3u yIall.Xm",
">Xj;:ttp 3ii5u32*O+2#O,LNzzJz-aazLzZn-vccvxxccnNXaaaZzZZnnvc,;;o:rp>bnZ-Lzcc-dgg>=<1q6611qqw554tp:>rrsstSlVVS-AIaVLl..zabplD45=225gk h  gFalL.Xm",
">jjo;,, uihihu=4<&O=1O,lNVVNz-aaaLz-AnvvvvxxvvZNjaSzaaZZ-Cvc;;,;=r>,dnZ-lB-zngg>22O21q116q4w4=5 rrrtp pJ.VaaSIA-FSMM..MzAp.kw5=q14gI hu gAzll.Xm",
",.j;o::t =iih312<*&551,LJzVNzC-azNzaCnvdvvxv>vvNjaVzzZnCZCxx>o;,:>g:bCZ-LlNCbbg=q#1O74w7q24w2hs=:sytppJlJHFIaFAIAaVV.lNang.Fw=4771pSgi3syAal..Xm",
">jj=o,rs =5ui3=2<*#<rq,MNaaNNa--zLzCbnccvCxvccnBjFazCCvCxvxCc;,,:>>,bb-aLlCbng<4Oqq7q14664w2i =rtg3 sJz-PFAHPFAFASVallNaAplIw=4q%#sJk53 bAVl..Xm",
">jjo;>r 345hihr2=<245qtNJaaNNaaaSLzZnCvcvxxvvxZL.CZ--xvvxvxx>;o,;rt,bb-VNADAb=2O##71$q7$64453<=rs5u SlCCkbDFIAFFAVJaLlMVFglHw441#%iIIuuGkAVl..Xm",
">j.o:pt 3==453=11==<54tLzzSMJaa-aNzCnCvvCvxvcna..CZazCvCCvvx>o*or;;tdnVNCAAb=547%O2676614453=<r:1=rSJVddkgynFnFACazIJlMVCpMFw422#%4IPf ykHVl..jm",
"tj.<,b3s355w53<*<=<=r4tLzazNVzZFaNzCd-nvZCxccnZNX-aVVaxvvccvc,&*;:tgbaM-Angr=427qq$77612whu==rr1#sL.AacpbpbAADnbA-ZCJLMVFpNFw=417$qDHGgbkIJl..jm",
"tj.o:bt t=5iwu3<=<2454>LzaaNVaZAINzng-CvZzZvca-NX-ZaazCxvvvvc>*o,>>b-J-nbp:52q4w1866q42wuh<rt3=73JeMgA;:ptbDbbnbA--nJLMVApNAw=4217qugGyDFIVl.jXe",
",j.<:drtt==iwh3===445=sLzazNV--A-NznpbnvvZZc>zVNmSC-azZCnnvxv,**;>>nzngpgrr4q241q6674wh h553r473lalVsb;,tsbDybnDCnbAVLLVApVAww1q124whggDHIJl.jXm",
":jN&oc,t3=255rrr==r=54pMa-VJV-ZbCNzCnnnnZZZccZaNXaZzzzZ-CxxCv;o;>bCadg g3r2q1q$66874ugy 33i5=#<JldN-:b;;rtbDbybdCC>pSlMVFgVAww2qq4iw5GgykIJ..jXm",
">jz&;d,t3=4=533r=ti=32>NaaVVzaabnMzCbCZZCCxxv-aNjaaza-C-ZCxx,o;>gnCndpysrq77768$$64 AApsuh45O2SSI:NZrboo:pbDDybbbbgpaLJSFpVDwi2114ui5fGDDFJ..jXm",
"tjz&;dt:t<q15  =<54=52tMVzzVaaanCJzZbZZnnxxxcn-N.aa---ZCCZvvvo;,nCggpb rO%6$6$$711 H--n334q#<SPgD;Bbrg;o:pDDDyggdd>>-JJaApzbw52122hi= GDkFVlljXm",
";.B<odtr:1qq43rhi5ii=1tJzzzzaa-vnzaZnCCvvvxvcnZNXa---ZKZCCcvx,;vag3tbg52q$$$886q1 F-aNZp5q#<JJbhg<zd<s;;tpkkDDbpgdtpCJV-AgVD1521<qih4 GDkFVlljXm",
";jzo:v;=rq124i5suihh51,JaazNaaaxva--CCvbnCZvcn-BXSa-a-Z-CCcvv;xzp=5p 2q##%8$$6q23kkFCCAt125JSDsrs&z>=g**tpbDDnbpg>,tCJV-AgJD1442<2ii4 GDDFJlljXm",
"*.z;;d;<:qO4=r5 uii54O:JaazNVzzCv-aZZCvvzZxx>bFzX---a-xCCxvvcvag<r =221%$8$$6743yDpsgd,=45JJDpr3rOa r>*;,gybDDbgd:,,CJV-AgJDq24422i=OiffyAJLljXm",
"<.z;>d;;r1qi5r4fi4441%tMVVVNNVzZnCaa-Zvda-Zxvbaz.CZaZZCCZxvvxzg=3 r211%#888$72iggpstt,tr5SMFy3=5=&apr;*o gpgDkbgg=r>-JaFngMDq42O11h=$4fGDkJLljem",
"<.z,>c:==21h5h2hh111q#tMJJNVMNzCCCSaZZvnazZccnaljaCaxCZxxcvZBprpss=q2#88988qwupgpbs:=rrrSJHkDs=5r*Z =:*osg  yDpst;:,CVa-AgMDq21#O1i=@1ufDkJLljem",
"o.K;>>=r<12iuu2hiqq1q#:LJVNJMMV-nA--CCvvZzzvcbCljzZ-ZxZCxvZzptgs t4121$$86q5ufgpp t:3hhaJkkgg3r==<Cp:o*rsyg ygp ,:tgCJV-AgMb121O#q548qiuGkVLLjXm",
"=.K:,>:t:545h3q hq#7O%rLVVJNMMMBCZaaZnvvZaKxvbZLjJSaCxxCxZVgpDpspr5<12%874wu ps 33, 5rPSygb t=r=<*Zgr:*=tyyfgggs:ttyFJS-AgLD112112=18qwiyFJlljXm",
"r.K,>>:tr=wih33 31O7O%rLJVMNMLLM-nazZCxCZ-KxvbalXJFa-vCZZznbnDbbt=5=2@$62443yptrr,s5iSCb sbp r:=r*-trg*<rpgffgypsttpFSaaAgLD1q221441@145GAVlljje",
":LKo>>,tr=wh u i=777q%:LMJLNMMMLzC-J-CCZ-ZZxvb-NjJA-zzzzzCbbbbbpr<OO0#$624ryyr5=s 4r-v:trrg,:rr;:;Z5u,#<5 f fggp r:yFVSaApLD1O121412#12w DSL.jje",
";LKo,>>>su5iu g52q7q16rLLMLVVJMNBZaMzZC-I--CvnCNXMaazBBzZnnbbgg b;;&0O$64hgprr=t 55I-:*,r:b:;r<=,oZ=u>+<rtgffgp g=rpAaSSnfLD1O1qq4#2q45iGDSl.jjm",
":LZo:>>> uiiuf 51#7qq6rLLMMzaVMVN-zMBzC--Faxvn-NeMVSSzzZbCbpgbbC-prp;@@1wuu5=2su<4Par<&;trpttprr>;z2=d*<3 ff gst rryA--Ag My412#$1$145i5gDSlljje",
",Lx;:c>>puhi  phq7#q76rMMLMz-aJVN-NLVBCZ-CaxvbnzeLJVVzzCnnkAggnbbg<1O7615hr<<s 5=FPFsO&* rt>gDur>*B<2d*5 r Gfyp tttyb-aAg Lb412%$78%4hu yASL.jje",
">Lz,>dddg fhu  u4%$7q7rlMLLaZ-VVM-aMNBZ--ZaCvdCNeMJMVzZZbbbgpnptt5q#141q=3== s54HPDkb*** rt,gbt=;*M:1>*r 5 ygyg tssgbA-AguLAw1q%%%9%= gGkFVL.jje",
":Nz:>ndbbfGffggg=O$q17=lMLLFA-azB-zMNBzaaa-CvdCNeMJNz-Zny pgDdt=2O72#q1455i  5wkkspbb>&O3s::gpt=,*l34g;r  ybgggDstspnACnpuLA42q77%905 GfkaVL.jje",
";zztdnbbyggf f g=4#1q7r.LlLIF-azaZVLJNzaa-ZxvcZMeLla-Cng3sggtt<<q#1%%O4hqq= 52gb=<*>bt&O=s;t>sp<;*Lt5g=:psDDygpDpppyn-ZnD MA412q7%90=sggFaSL.jje",
">Lz>>vbbbggff u r4#7q7rlMlLIIZAaa-JNMNzaaaAxvcZNeLNaAky 3 prt=<O#O$24552qO35wbt;<*O=r>===trt>su<=*l rgrpy DkDyybggbbACnbD Vbwq171O90=tyyFISM.jjm",
",N-,>vdbbgf  uu  52q763.LlLI--ZzzzJNNBBVSaZZv>CLXz-DDfhr  ts5=*2O#4454O1q 55kdo<**:===<<3t;;r3rr:<.g3grbbtbkbbDbpgnDFAbbbgMbhq774q9%=3yDAIVL.jje",
",N-;>vdbyp  puwup527q%r.llLFFaZz-ZJMNNVVa-CZxc-jlZby 55 t:==q2<<#12241#1hhuHb&*<*;ytgr*<3s;,==5r:<lpsg<pDDkkbynA bFnFAAnbyLbh1q1w#9O5syDF-VL.jje",
"pLz;pvbbb    3whhiw7163.llLFCzZz-ZJMNNJJaSAZxCLl-DDfi3gtt<=*25=%#%1411253hIC,O&**=ADgp<rhprt===srojb3><tDAAAAbAZpbIFFF-bbbMyu1225#9q3gyDFIVL.jje",
">Nz:gvvnA   rhihr5wq413ll.LI-z-zz-NNVVVJaaFAxBMFDDD upts==*<r2$%@q14<=2  Jn;<+&&*;bbAp;r5 ;>rr5t=;.A g,pAFFAFAZCbnSSIn-bgyMyu2O25#8OhgykHIJl.jje",
"tLN,>nnny   3hi5 =w7wwul..MF-zaa--NLVVJVaVI-VJADDDygsr,<<**rO$q#OO2<353gSX>**+&O*<dnbr=r5t,p55hr=,.bgbpnIIHAAn-AbZVzS--AbbLyu<#4=q$1hggkFaJl.jje",
"=LarpCCbbf  phiuu5w12w ll.M-CVaaazLlVVNVazaJJnbDygpp3r<*o&r##q11qqq=53yJJ.><&++#**bnr=r=rrrgr=2<=,.bsd>dIIHkA--AA-VSVaaZbDLyuiq42##13pykkIJLljje",
"<Natpbnpgpg g ufuhw1ww Ll.LanzIazVLLBVNVaVMSkDbDpggtr<*o*<15=42O4=<55gJMZ.c<&++#O&pprt;<=53p54=<r;.bsd>dFAHAFCCbC-VJJaa-nbNff5244##2uyyDkPJL.jje",
"<lV gnnps      uw541wwsll.LS-aaaazNNzJVSVMSkyGyp pt;=*oO*2=544qO4=rryJMCp.><O+0#+&;p5s<<5r3p54i<ro.btp;dIHHFFFCbnZVLLVaanbNgGi24<O%2uDyyASJLljje",
"*LMsgCnb  Gf hhuu44w55 ll.lS--zaazMBaJVSMVkggf  srr=;o+*;rr42O22<h=:MJFApj>*O#+#+&+ ==<<rhspr=52ro.b>>,nFHAFHFFbnFzllVaanbMDGh25=#qipDbDAaJl..je",
"=lL:>bgnDpDnb uuuww45wglllLVaazzVzzBzVJLJDgg 3  5rr;*+<r:3412225  pSMFDAbX>*O#+@O&+r2=<*<i3p3442=o.ApbcnnFAFIF-nFFallNzzFDMyhiwh5#4ugDbkAaJL..Xe",
"=.MtgndggbnAF   u5wwwwyllllVaaaVMzVMzJLJD   h  r3ro&O=,,r2O2445fp SJHyppgjd<O#&0OOO=1<o&2r<,=q12=;jZgg;gDIHAIFFnFZzljMSJaF.bwi5 34rupDDkAaNL.jXe",
"=lLtddbby bFC  uiw4wwwyLL.lJZxZzNzBBaLVgg uh  rt=;<1=ttr172442h sSJADy  b.>=#0*0#O&1q1<O2r*,<q1<=>jngg;>AFFFaFCbbnaM.LaJVa.bwi5p r s yDDnaNM.jXm",
"=.l,ddnDp nACy uiww555DLL..N-CZzzaazMJy fhh hrt<<<2<s 5qq44425u nIF py pgj><O0&0#+&41q*OO<*,r72==,jC:bpdDHIFIAAbbb-N.laaVa.ywiwpprs syDyAaJN.jXe",
"=.lttdnt3gFFCngfiw5iw5bLl..NzZx--BNVVypgh5 hi3<o#1< u=O74444h33p,tbttp  pj,*&%O+#+&i=O*+O1<,rq2=rpXa>pt>gFIIFFAnbbCVllJSaajy4w4 gu psybyCSMM.jje",
"<..rrdns pFACAgGiwiiw5bLl..LBz-zBNjagGGi=  i r;Oq=  =qq==w4h33n;0*gbpgpspj>*#%##O+O45#*+OO<:r21rt;.ab,::pFaaFFFCnAFzLlMzzajy45wubg   DDyCVLL.jje",
"r..r:dnt3 Fnb-kfww5hihDLLjlNzzKzjLV  yi4 uhu =&O2huh415554iu3bb09&tb pu3yj,*#%#+++&q=+*+&q*r542:>;lad>ttgFIIFFZ-nFIzLLMzzzjy4hw Dgpg bby-VLL.jXe",
"3.L:>dpsr FAbnkf545wi5bLL.lNBzzzjJpsyr4gh5h=42115uh42i544iu HpO99+rppt<rpXcO#O#0@@%#3%&+O%*rO4<r:o.-pptgbFIIFFZ-bFIVMMLJJVjkw5wuDyyDGyDbIJLl.jXe",
"5lLtpd>p  bAdnD w4iwi5bll..NzzL.Jgtyf4 uh<<<=444hi=15=44iugIF&09U+<sppr==.>O%#&0++#Or+O+O#*;&*<5=;jZcp gdAIIFAZzFaSNMMMJJJjDwwwuggDkDDDb-Jll.jXe",
"5.L:tps33sDAbAyuw1w4w5A.lllVzNjMD gg=5=54h24255hiw12=44i3pIb=#@9U#<rsggt:.>&%#O0++<2:0#+O#*r2*<h=,.Cc:bpgAFFFHaV-aSNMMLVVVjk4ww3  yHFDDb-Jll.jXe",
"ujMrrs52ihnAbaDuw1w144Aj..lJNjMkGGG445=2=q12=uiwww4w4=hu Fbr2O9990*=,pgp3L,OO#%++#r1r+#+#%O=*<=h5t.Cc;ppdAIFFFaJ-azMMNMMVVjD4w53p GIIknnaJll.jXe",
"rjlr:t54=ibAAID w4w1=2Fj.ll.jMkDy 52=52=qq1wi54ww4www5h Ab45#+99@9#23p>s3L,+*#0O#Oh2rO#+##0=*O<h=;.Zc:sAbFaaIISVFaVNNNMMzVXDwwi g gHHAAAaJl.jXXe",
"rjLrrth45hyDnaDf54i151nj.L.XJkDy 44u44wq1wwww1qw14w5hhpac*55O09@990&tgbbgl,+#O0&%Oi=>&10O=+=*O2ih,j-,,sAnISaIaJV-VVNJJVVzzjk4w3pg yFFAFFaJ..jXXe",
"3jls::5445gbn-ygh=i1=1nj.jXJyyy i23ww414wwiw1ww14wiuhyaC;2h2#00@9990r>bbD.>OO#@O#75t>&4$2;*=1124u>.Z;>gdbFSaSSJVaJMMVNJzzajkw5sgb DAFAF-zM.jjXXe",
"hjlstt344hynZngyiiu251nj.jLyggt tr4h1qwi1iiqwuwwwh hgIn**r4q#@99909@<,>,pLc&OO+#<%5ptO=#2o*541#4utNx;>>dbaS-SJJVazNJzVVVaajkwhpgDgDAFFF-VL.jjXXe",
"ij.tr3i42hDnAAybiu 4=7nXjLADp53gt5uq%4uwww4wuw44up3gPCo*>r2q%#@99#%#<t>s Bc&&O+#r43s,*=7<o<:r=O<utLZ;c,>gFV-SJJV-zNJVVzVaajFi gdAbAAFIZZVM.jjXXm",
"hjLtrr54qhbnnAnghh 5=%neNnAg=r r152$= 5i114i211h ubaZ,&*c=4%8&#++<1O4>ddyLc***+&<tr>p;3#=o*,t5*4i3.z>d,>gbSaSJJzCzNNVVaS--jFhpbbnbFFCa-aJM.jXeem",
"hjl3ri511i n-nnyui 55%nlnnA=rpr1241&zg w4w4771hg bVa,***,r4$@Oo&O,r=rvvnC.x**o***;>pnpb<ro;;sr<<<tjZ>vcdd-aaaJJN-zMJVVzS--jSpdnnnC---azzNM.jXeem",
"5jMrt44#7ugn--Dgi5 <47nzaa>pCpspdgp-Jb=hh =rtgDDILBc;;,*>ph#%O,<*>ddpCCna.xo*;;oo>bnCASg:,&;d:;rrgXzvxvvCSaSaJLLzBlzJNVVaajMbZ-ZZaazzJVJLljXemmm",
"hXM33q274hbnbapgihu=14Fvvd>cddtgnnbnb tpgstgbgAACancdcdpddgtstppdpbddcdgAac,,>>>>dbbbgAd>c:,p,,>gdZnddp>gddpbbnnvC-Z-ZCCnnZv>dp>pddndddbCnCz--zN",
" eL r24q2hbbp-tpi33=&iF 3ttt3hi54q1w14==445i55iwh  gbgggygpp  u  ui=rrsg 33psu3333spgs utrihihu GGGGGGp tt:spppgpppp tr5==<1<=<<rr<3:=2===55<r:,",
" eM5=1211r>dpArriuh5*3aD  ppp   s33=4i=2= g   fgygp pyDDgggyyDkDFIZFZC-aVaa-C-CCnAFAbbbyygpg pgynHFFFFADbgpgbnACZ-Zbdggps    pg  gsrts3gy g r:rr",
"3eB<<742q<>pgFr3ih=5*sF  p35h3ii=i===ii4ihhh     spt3s h3r3pypgAF-azSS--JJzzaaACCAAb ppygp gggyDFIF--CZa-Cbgspgsgndps3,r=r5  u5==5=rrrrtsst3rsrr",
"pm-<=1<q12gdgAp3iuir<pags rrrhr5=tt:r5=2r5h3 r3  tpybgDDypyykHIVNLMMNNVJMJVVz-FbbbbbpDDbnDDnbbpgAF-AnCnCZCnbbnp>gg>>gptrt  G u33ir3r5rst53h3i3h=",
" mZ452=O1<gdgt3 =5r;<pn Gp 5rr5=<===<<=<=5=r3:==333u ggGGGDDkHaVLLJJJVzza-FAFADggpppspbnAnnDkHFFI-AgnZZ-AnZnnZb>t:,t>gt>gbADkDDygss rrr5=rr3 i=5",
"sen2514O22>dp:ruihr;opAf iuhi554=4=w244w5u5iirrtt3 ppyybbbygDkkHHFFIFFFIIkg u p   pbbgttspbygFIHaaFyn-FFkkADbyppp>t,tpbygbFHHHHFHAyprr==rs gsi5u",
"ren= 42*=*tgptr3ihr;opn f hi54ihh5hhwiii33irr::3uss3 gybdbnbbDDDg  ggggbDDDyp   rs>sbpr2=r pupgDkIHkIJVaHAFFky gbdp>>t>pbbdnAbnbbp5<5r5r33usst3u",
"=XZr 22*=*:gd>;r5roo<>apg  s  ut s3r<=r=====rr===rr=r3trh  u tgpggypstrrr3:t,rt>::pgyp spAnAb>t tnFaZCAADDbnFCAZCbpp>ppt>pgdbbbbbsrrsr tssrtt553",
"=ez3s4<*t:cvbp:,==o;osIygggpg34q#q2<44=55==i5rttr33r3:33p ufDDbAHIIPIFFFbgt33rsppspbDAypgbn-ZpdgtbACnbnygbbbdAC-C-Znbnnddpp>>gpgst:rs33r g33trr5",
"=e-3r3nZKxZBzz,p<oo;, JIDDDDGGDf h5   ffGfGGGDkHIIaSJaIIFHIPPPPJMMJJJJJJPJJPPIHDyprs t<spspbCbnAnC-nAAAnAnADynnDDnAFCCFnddg>sst:rrrtt3sgbDbgbyys",
"<XN3tzLLNKKxCzB-;;>,:sJIkkDDGGkHDDDkHDDkkDkHDDkkHHHPPPPPPPPJPPPJJJJJPJJPPHPHHPPHnbbAnbgbp,tgdbAFFAF-FbyggbnbkADkPIFIFIIAdnFAbbgbDgt bgbAAFFAFAnA",
"4XLpN.N.jBKvcvCdccc,rtJHHIHkkDGGG  GGfGDkDkkHHPJSSSJJJMMlllMJJJJJPJPPHPPHPHkDkHHFkbFHDFDbpgbbdDFAAnAFbp fgg psgDDkyyGDkbAAAkkDybnnbbAkkDkkyDyg g",
"2XNzjj.XXBKCvvxvvxc,:pSDyDDgG    G  ff  GGGDDkkIIIHIIIPJPJPJPJJJPPJPJPPIHFIkgDIHIHDDADAkknnAbnFIFFnDDAADbyybygFDfDbpgyDbADbyDDyGgyDDDkkffG fffGg",
"2XlLejjmezZxxCLZ>c;;:pJDyDDgfgff  fu  hu   GGFAnyyyDyGDHHHHPPPPJPPSSIFHHIIPHHHHDyyggpspDHHFIaaaIIAACFIInggbygggyDFFAFAkbgDDDkDDyDg uu  Gu    f  ",
"<Xj.meemmLBzzzjVzB,o:>JAbbFHIIHFAAFAFADkIFDHIHFbygyDkkkGfGGDDkHPJJJJSIFDkkDDDDDDf ffyybDkkDpgybnIIFFkFIHy   yyyyyDg bbCFHFDGf GGGfffffuuuhuuihi5",
"=eXLjmmmemj-zzzLX-o*t>JHFDf uu  ff gkFFFFIIFFFADkDDDDkkDDyGg ykkDDyDHHAkFkDkkDkHkHHkkkgGGGDDDgppyDkkkAFIHygDDgyyDIJJJJPIkGGGDDDDGGGfGGfffff f rr",
"pmelLjmmmmjNNBNjNcvo>pVFkkDgffGGGggfyy fgyDybkkDDDkDDkkyDDDDDDDDgyygDDGbDDykkHDkDkDDGGfGGGffGf GGGGGGGf   rpDffg gIPkDDDDkDDDGGGfGGG GGGfGGGGGgp",
"gmXlllemmmmem.LzCxv*,pakDygyDDyygDAAkDG ffyDyDkkkDkDDDyDDffGDDGG    ggpDDGGGDGDDGDGGG fGDDGGDGGGff  G uh p fDyyDp GHHkHkGDGGG fDGufGfGGGGGDDyggs",
"bmXLl.jXeme.j..Ncv;+,gVkDbypyyyDgyDDDkDDkDDkDDknkkkDDyGDD fGD fG GyyGyfg uhuf GDDkDfGfff GGGGGf f u GfgGDky pDkHkDDkkkDkD    DHDkDkDDGGGDDGggps,",
"ZmXMlLljXejLN-n>#r*O:dJDkDDDDDbDDDFkDDyyyg3fGGDDyyGgyG ffuu GDGGffGGGDDHHkDGDGGGGGf GGDDDDDGDDGGDDGDDGDykDpsspybgyDDFkHDkFFkFIPFAnggyyGpyDDyg>pd",
"VmXMLNL.jjjjMZng2=O*rbXjjj.jjj.llljj.llLl..jjjjXjjjjj.....llMMMlMlJJJJJMl....ll........jj.....lllMlMMMMMlllJJJMMJM.jjj.Llllll.j...LML...jjjjjjjX",
"NmXNNBVzVjjjJaaAr<+&=nej-BJSaVa-nnSA-NaZVJVJllJlmmmmmmmmmmmmmmmmmmmmmmmmmmmmXmmememmemmmmmmmemeemmmmemememmmmmmmmmmmmememmmmememememmmmmmmmmmmmm",
"LmXJBzzzM.LBZC-Zco+O*dj->&&=2rybbt DtsbnsDkgbIIsammmmmejXjjXXXXXeXemeXeeemXj.jjjjXXXjXXXeXjXjjjjjemj.j.jjjjXjjjXjjXjjjjj.jXjjjjjjjXjXjXXXXXmmmmm",
"LmjVJzBNNKxxxxxxc;&O*dmXvo+**%133gpty54sbsgy 3DD=nXeXXj....jjj.jjjjXjjjjjmjMNlLLl...lj.jj...l..ll.e.JMVL..jj..l....lll.lMljLMl.lLl.l...jjjjXXeem",
"LmjJNNBBKKZKKKKxxc;*<demXg*9+#08=qs5Ot<O5 1hy4qfuqdXej...LLL..ll.ljj.l...m.BzNBBBMLlMlMLllLlMMMJMLeLzzaJMll.LLllLlMMMMMJJJ.NVJMJVMMNLll.l..jjXem",
"MmjJNNNNBzzKKKBKKNvo;bXmmXbO99*0@<Or2#5=q4hq7451ui#,jX..lLMMl.lllLl.ll...eLzZBzzzVMNNNLNNLMLNVMJJMXMaaCzzJMLMMMMMMMVVMJVJVlZaazVzNNBNMMLLLljjjXm",
"Nm.JMN.NBzKKKKzKxxC>snXmmmXb#992%0*#42$22%#36$24642@;j.llNNNMlLLlll.lL.l.XBKZ-zzKzVVJMMNNMJLVBNJJJjVaznazVVNVNNNJNNNLMVSVSL--aaazNNzVJMLMMl.jjem",
"NmjJN.LBBBBKxvZKZCvn>AjmmmmXA&89#002#4186w$$q772q877@=..LNBBNLLLllllLL.l.XBKxZzKzzzBVLlNMMJLBzBJVNXV-zv--BzNVNNNVNNMlMaaV-l-C-aZaBzzVVNMMLL..jXm",
"VmjJL..B.jL-v;>KzccbsFjmemmmjH*@8*0%111$$2wq66467#87%8<LlNBBNMMLllllLL.l.eNKxZKz-zBBVL.MLMMLBzzBzNXaZZvCCBBNVNMNVVNMMNa-S-LZZCaZ-zzzVJNMMMNl.jXm",
"Vm.NNLjLXe.zx>>zLZv-pFjmXeemmjA<#82@%O%2$$14$241$7%6q88<LLzBMMLllllllllL.XBZxKzZCBNzBLlLLLMLB--BBVXz-zvZ-NNNNVNVJVVVzzZC-I.CvnZ--zzazVNMMMJl.jXm",
"Nm.MNLjjmm.NNCxBzKaC FjmXeeemmjA&08=%%%@q$$q17qq7q1612$8<NzBMlLMlllllLlL.XNZxZZCZBNzVLLMLMNLBZZBBNjzazv-zMVVNVBBVVaaZZCAaIlxvvvz----zBNVNJJL.jXm",
"jmXLNNjXmmj..LLBKZaAuA.mjXXXXmm.D<#@=<<%@q$$%27%217667468=zNNLLMllLlLLlljeNZxZCZCzNzBLlLLLNLN-CzzNjzazvZzVVNMNVBzzavxCnCSILvcvva-ZZZ-zNJVVJL.jXm",
"jmelMLjemmmeeelzKZBngDlejXXXjXmm.D<#9Or3%$2$8%27%q776$7488<VLLlMllLLLllljXBKxZ-ZCzNzBL.LllNMNZCZzBjVzzvCZzVNNVVzzzncxnbnSFlxcvx-azZ--zVz-aVL.jXm",
"LmXMM.jjmmmmmmNBBNMfGyMejXjXjjXmmlDr%8@=i%%1$8%q666777661$8<M..MLlLLLlL.jjBKxZ-CCzNNNL.lLLMMzZCZzNjJaavZZBJJVVzaazn>vCbbaF.v>cxZ-a-ZCzzFDHSM..Xm",
"lmXML.jeXmmmmjzB.MkuffJejjjjjjjXmmlHp=89q2%%q%8@%q%$qq767wq8*l.LlllLl.l.jXBKZ-K-zBMMNl.llLJMzZxZzNjJzzvZCzJNJJzZ--CdnAbbIA.v,>xZ-K-CCzCyfkSM..Xm",
"lmXMl.jeXXXee.KNVpwhf aXj......jXemlkf4qq#1$$1#$%%7761q66qw18<llMLMLLLl.jjzC-ZZZzMLJJNLMLLSJzxvx-BjaCacvv-SazV-nCADbDypgFD.v,,vn---CZAp uDSLl.jm",
"lmjNl..jXXj.jj.zp4wif5Aj......l...emMf =#$q<@@7##%@77$qq674i18=JVVVVJNMlljzdnnddCaJzS-aSVJIaZd;>dzjAgntppnADDFAbbg  puh>y ld,,>vC-Cnb 5whyaLl.jm",
"lmjVMl.l....lN-b=4wwhwDj.lL..lLlLMjmmJuu5#@q=%$q77%866$77661w6U=PI-aJNVNN.-pbbgpbnSSIFCFSSHPAg;:>-.byp53sgyggDyyss 3 i4rtwMt;;tbnCCnt54wigIML.jm",
"lmXVNLlMVaSaAf4512w1iiDjlNLLLNMMNNlXmmJ 3=O8#4$@%%766$6$$676618U5HIPaVazVlZpp ggbnaSFDDDIkDHy =::nLbkpwr GG Gb gg3 5uh=r54J;<=;gnCZn521whGFVLljm",
"MmjzNNMzA f iw72#1w1wikjNBNNNNMMBBLjjXmVsu4%8#i$@6612$86$8qq661885PIFSaaVjC,p  gybnakGgbDHDHG3<;=vMgb w3 GGgyD yg  i uiu=2J<*==pCZng51qwhGAzL.jm",
"NmXBBNVZpw5iw467%61ww4plB-zNNNBBBBLjjjemVtr1O@7i$#%$61%86$67$672885FIIaazlnpD f 3gAHDGDDDkkHG2<;*vlpgpir gypDyGgp 3h ii r2N&O2<pFnpg=11whGnzL.jm",
"VmXBzaaD51141186#$61w7rNzCZzBzBBBzMj..jmma352#8#5$6$$$2%81$$$$21#682FIIIalCpg gui FIDfDFAkkHf2*;*v. pphrygbgDfGg 33h3ui3u4Jq%22skFpp4qq4iGAzMljm",
"VmXBaCA w67141$7%$8qwqizzcvZzzzzzzN..l.XmmPh52#@6i7788$176788$$21%784AFIzlbp s 5i kHyGDHFkkHg<&<&x.ggsr:bngyDg yg   55ih=2L1%21<DIgs=2q45gAVMlXm",
"zmX-nDD w66qw177@881w7ia->>vZzzzzzVLlLljXmmS3=1q%$w6788$6q$6$$$$2&%181A-aNpts3 i53 gffyFFHHHs=&&&v.gb,rtAFspD uDy 3 r1ii2<M1%#OObIgp54q4igAVM.Xm",
"-mXvdgy w7$7117q@$6227iFZ,o>vCazZzNMMMLjjjemS =Oq77wq2$$86766$668<&#w64AaNc=3hu3=5i yGfDHHkD5**&*cj b=33Db5hD hfG3hh=O454<M*0##%bF3 i412iGFVMljm",
"Zmjdpp  w6$q11748$621q5Avo<:dnZCx-VMNNL..jjemaf51214q616$8667$$%68iO#h7=lN,<=i h==4u G Dkkk <**O*>j b=rigf5hD i G=ii*#254*l*0*1$ H3ui211iG-VMlXm",
"nm.>gpuu16611wq188$2174p>**o>bnp>CaBBNN.ll.jemSG=2q212q1#$$767#%66$4%qi4p-;<<< 5=<4i= uyDyf <o;&*cltpts gf5hD 5  r5w*O4w4;NO+11$rA=hi2115g-zN.Xm",
"bel,ppu w671ww1q@%$21qwp>&&<,dbs;cCzBBNLlMMl.mmSf=4747w6O%@%16776$674@2i45,<<:3i=#==5 hDgp  <o:&&cLr :3sy 55D i s==w<O2ww;-#@OO%=b152214uy-zMlXm",
"pXLtpp  w7qqw4w4@#6217h>d**o,dg5*:g-zBBMMNMllXmmFuw1146w6#%86q777%8$22@4w12==rhr3#q2<35yg ur&*<O+>L5 tssg 45D u 3<=4<+2wwtc@@O##<pq==41w bZBMlXm",
"pXLtppgG47qq1www$%q426r>>&*<rp 2O;rgCzZLMMBMNjXmmbi551wqw6##$$q66%%8%228qwqqr3u5:20&2rrsgtr5OO&O&>.:tppggp5=Df uh254#+4iwgv80q7#q:125i2w D-zLlXm",
" Xlt> pG1117wwwq7#1441 d;+q5igf2#*1rdZ-MNNBNNljmmmyiuh241w67686q6$668$448qw11h r:O0&&2<s35r=O+*O*;js3tsyygr5ygu3h4i4++Oiwbc8##7q##212i4w b-zNlXm",
" jltpp Gq1171ww7777121 b=O253gg4#&O2=vCVNzzNNLjemmmyiii14q46qq%66$676$$w481i62tr,O0#O%*r==r=+O&O&,j tspgybt3gfhui=i&0+O5wyv@##%2q#O12iw5 b-zNlXm",
"sjlsp fG111q11w1q%q=41sb=O22hgG1#*qq2>vzBazVzN.jmmmmbi55147162%%666$768$117ww61>r&@++0&5<<==&OO+O,.tt>bbbFtrg uu5=51@0+7wgZ927%1211714=5 nazNLXm",
" XlpgpgGq117qqwO=@q5wq b;O125i 2%*211,cazaZzzNLjmmmmmDiw541q7627$676$q6$$14www$O<#0@0+O<42=2+OO+O;Lrt,gnnFg3G  i445<@0+$wya9227q1221O02hpnazBlXm",
"pXlpgpyG44q6q1w$442h5q d;O#4r5f4#=i52:paVaAaaJN.meemmmk5w541w6772@77666$66q1wiw8q##@+#%&12<<OO*+Ocl=::tbnFg3g  h44=3@0+@wya925=2q%#O2223gAazNlXm",
"gXlppgGD11q6q1w@7i4uh1 p**1h=4fh&r5i3ddaaaA-ZzzNmXXemmmD4244116q628617$6$66q7wiw$@O800@21O1&O+*++vL=r;,dnAg gfgu55O#90+@1pa91=h52%q%2b43 FzBNlXm",
"pXlppgfD4w17wwu#2=4hh4 ,+*<r22h5#<4i3AdaVanCv-zNmjXXemmmDwwww126qqq$716$7$6671www808%88<2#11&0&++cN<r;:bZZnpgug rh2999@%4 z9O=u=rt1$qg4ipCzBN.Xm",
"gXjpppyDii1qwwh%15ww54 ,&#q5<4i=+*45iDd-SFbbbZ-NmjjXemmmmkiwwiw46q7q6717616$7774ih$@O%8<1##&*+&++cN2=o,dZZng rpgr5189U97w3N9%=3<=D184 4hpCzBM.Xm",
"Dejgp DDiwwqwh O2w54iq3:O&O==2r=0*=iub,CIFAbnCCBm..XXememmkiw7ww571667q77647$61q4hh$%#84*OO*1#O+0czq=o,pCCnps=gg33#@9U9%4iJ90<r21s#8O5=hg-zBLjem",
"DXjgppDkhwwwuug#244457r;#<1==4r;+<<=5yonFA-AnCCVm..jXeeemmmDiw6w4w7476q77qq17$qwq4iu$80==O&&*&#+0v-O;o,pCbbbp=Dpug%@@99$wiN88=52O<#@#45uy-zBMjem",
"ye.g pkkuw4wiug#2=52wq3:O2#254&o0*<22b>tgnAbgnbam..jXXXXXemmg456ww4qw76111ww47$2wq1wh$@5rO***<+0@v-#<<,cCbnb rg 3b0UU9@qwul@8551O5#@#4=uDZzNMjmm",
"De.g pDkuww1hug&25h5w13>*q#241%*9+<&1bF=:>-btggvX.ljXXXjjXemeg=i7www1wq61q4wwwq$24q%wi61=&=*<*+0@vzO*o:dCbAp:,ggtbO@99*<13M@925O#r#$#44hDZzNNjmm",
"yX.gpggAfw44hug&4i3iw1:>;O#<=6#<0O;*&>AFv>z-dgbcjLl.XXjXjjXemey5i4wwiww1q171www7$144$24672r*=<#0+xz%&o,bCnAp::pgpF<0;cv*qiV+8&2##3O@#==3D-zNNjmm",
"De.bgybAfi4wufgO4= h4qr:;1#<16#2@O,<&:bCaBzzvbn;jMl.jXXjjjjXXmmpiwwhwhwiw1w61w27661i5$4w6%=<<<O++Cx9*<:n-nAgstggyFpOzNx<2iV@#<O%$=1@#443k-aNNjmm",
"be.bgyAAfhwwufg*== 422,,=%#4277O0+=<*=-nb-Zc;,A>jJJljXXjjj.jjemmgiwhiihii1ww712q16$135%=2$%rr<O++Zx9&<,nCnAbppbbnFacLLc<wiJ9#bt#@1#%q5=hk-aBNjmm",
"ye.nbbFAui5wufp<54524w:>=#%<42%1#O<<O,-n:cv;dtbdjPPJ.XXjjjj..jXmeg5wuwhwww1wwq1w14%82f5$=167 rO#&-c@*odCnCCAppbgASVjjLn uuJ90sp&8qO$O453kazNMjmm",
"ye.DbyFFui51iGs<h=444w,:*#%r46$1&O*O+p-s<ocv>>bnjIPPJjXjjj..ljjXmXs5wiwh11q1w121wqw6%4f28=1$#=<#*a>+&=d-nnC-pgnbAJzM.Nabfuz905 <$11$O2=3kaaBLjmm",
"yelpgbnF i52iGt<h54224:t<&Oiw6%O&+O+#>ngr;;;,p bjIHHPljjjj..l.jjemjth4wii171ww1w1wq21huf1$w480=*<->&&<>-nbnSDybbAMJzlzaDf N90t3=##%%q1= kaaNLjmm",
"ym.pbnnAfww2ifs<ii4224:p*&q516##O+O+*pkb:ooo,:rpjHHHHJljjjj.l..jjXmjshqwww1qw4wwh2474q25uw75qU9*rZ>*O<tACZbVDyybnJJMLzaDu zU8rr=1#$#q15 kaaNLjmm",
"bmlgbbDFfiw15Gr<5w1222rd*O1 17#+O0++*tkn,**,;+rsjkkDHPJljj..Ll.l.jem. i15ww11w4wwu2w442hGiiq78U@<a>:#<,n--dVkygDAaVlLVzAufzU82==41%OO2r FazNLjmm",
"ym.bnbDkfui4hGr<iwq42=rb**< 16#0O9+O<sDFc&**O0tpjHkDkHPJ..j.L...ljXemjgiwiwhw4w1whfwi521 f2w7@9U9nc>#rrnZCbzPkyDFCalLza-u M99=3=2q%#&1r Fa-Nljmm",
"Dmjgbbyy uiqiG h5iq42==b<&ti160+*00&;tDF-v,*OO:bjPHGDHHPJL..l...ljjjXmjfwwuhhwww15ff4hi27iu1w$@9U0dn&ttC-Zn-SFbnnbIMla-afuzU92r<<1#O1Or HzzNljmm",
"Dm.ggDby uh4uG 5wiq425=d<Osw1%8@*09&<rDFCZd,&O<d.IHDkkHPPJM...j.l.jjjXmjf4wuhi4iiwiffhu577wu62%$8U%p:gs--ZAAaIDAbbFSMandpuM99Or=3=q#*q5 IzzBLjmm",
"DmlgggyDuuuwiGfiww244=:d;235q%89&+9Ot3b-nnv;&Oop.HDDDDkHPPSll...l.jjjXXmjfwwff525iwiGGuhh764h6q6#8U8tbgaCAAAaPDAbFAFJSngs3N98#5<u3<#11= HzzNljmm",
"bmlbbyDD  u45G hww4=4w3C>4sh6$8@O+9+p,bCndc,+;dpjHDDDDDDHHILljjll.j..jjmm. =wGu1q2h44h 55h67whq6%18U$gA-CAAAISFFbAAna-Abt L@8%52 g5#qO= IVzVljmm",
"nmLggyDDGfuw5Guu5w==4wtZ>< u7q%0O+9+>:bbAdc;OcncjHkDDDkGkkkJM.j.ljj....XXm.p<=fw17wfw45hq3u145w7$%#88#D-CAAFISFFDAngCFng  l@9#22ryuOOq= IVzVlXmm",
"bmM>gbGDGfuwiDuuiw4=4h3np=3i66#@++0+ttvdnb>OO;pdjkDDHkDGDDDVVMlllj.....jjmm.g4=fw17wuuh5u23u1ww47%$%$8#AZAFFISIFbAgtb-D   l+8##25f 2O1= IVBVlXmm",
"bmMtgygDGf fuDfuiw444u Z>rs368$@@+++;>bbnnc&&o>vjkkkHkDGDDyIVJMMLj...jlj.mem.y4iGw$81ufwwiqih45421q$$$8OnnAFISInbDgppbysi .+8qq42  =q1= IVBVlXmm",
"dmNsg  Dyfuf yuuhw55=ipCtru3q8$8@O@O,pbZAd>*Oo>>jFkkHHGGDDDISVJMM.l....jlmjjm.Di5fw$$4uu44i1wiii2%1q$66$qgAAHPInnDyt:>gruu.+81222  5q15 IzzBlXmm",
"gmNtg  DD uffD uww=iiugAtrpuw$%88O0*sdb-Ab>&+o>,jHkkHkfGDDkaSSSMLlL..ll.lm.lXm.yr5u2@8wff22iq1iiu7@%6$66$qDFHPIkkDDp:rprfhjO8q4q<gp=1q5fHzzBlemm",
"beN,dt yDGufGkffw422   Atrsp5%%88O+*tbd-Cng*&<r>jIkkHkfGDDkaSJIJMNMllLl.lmlM.Xmlb=ru7@82fi72u2q5hhq%7q%6667bPPIkAkDpsrg3fu.+8q271pg5115 HzBNlemm",
"beN,ds  G ufDHf w22wf  ns33 5%@98O+*tbpCCng*&o:,jIHkPHGGDDDHaJaJJVVMll.l.mlNljXm.b3Df%881w224 27hhw%%qO666$7kPIAADbst3puu l+011#q  522i HzVNlemm",
"gXBtdty u fGDHfhwq#4 h b33sph#@88&+=tgdAAdd*+ogdjPkkPkGDDDkFaJSSVVzVLM.l.mlVM..je.b=F=08$17%2w 1%5i2$8#7666$qDIkHkyttrruhul+0147# p=q1rfHzzBlemm",
"gXNr>:g ihuGDDuwwq#2 htAs3sy3q$@8O*<:>bbbgp*O;tdjIkkIkGDDGkHPJaaJJaaVzJJlmlJMLLl.e.p3F<@8$7%824 4%ww28@766666qykHk :sr=uhu.+@22#%r 4Oq5 kzzBlemm",
"gXN<trsuhhifGGfww174 isFp gk 5O#%&=2tgdnbbt<&orpjHkkIkfGDDkHSJaaVJa-zZ-VlmlVJMMLL.XjbDH298$%6%4hu264w18$6%7666qgFD st33uuul+021%$5g<qq= DazN.emm",
"pXN=,=rhwwiuufuw7%Oqh5sCusDIfhq%%#;<tppbng:*+;t:jIDkIHGDDGGkIJaSzVa-anbaJmLzVJJMLL.mjPIF*@@$%$%5ihq$1468%$#q76$%yAb:r33uhuj+0q2774 =O#= kazNlXmm",
"tjB=:5454q4uh iw6@O7iw3FupDHgr1OO&,;pbgbdgp*O,,djIGDPkfDGfGDHSSSSz--avgb-mMaJJJMMMLjmjaFFq@@$$%q=iuq$6q$%767276$#yDs3r3 uf.@0q1171h=#q5uDSzNlXmm",
"sjB;rr45467hw5ww7#O75w:FupDHDrq&*<p:gAdbggp=*>=djaGDHkGGDGgDFSSSSJ-FandbCeV-VMJMLJN.jejaDb#00%%#15isq8666q%$72768%fgstsfufl9@12q7q=4#qiukazVlXmm",
"pjz;:<14276ww24w6##q=w:Zs yHku##&rg;dnbng>>;&><dXFGDPkGGDDykkaSSSJa-ZCppbXaFaJJMLJNLl.ejPkb&%@##%15i 4$617668647$$6 g   ffL9@247#24=#q= kzzN.Xmm",
"pX-;:<q24q$4552w6##2h5:ZpfyHk #0#rp>bnnZgtt<*><,jFDHHkGGDGyyGISSJMS-ZCdppjZn-JJJJJJMMMjejSFy1##q%%145g467qq6$87w768$ f  f N902=#q=4=O14 kaBN.Xmm",
"pXC<==125781wiqw6%q2uwrCbyGHAyO8&r>pnCnnd>:*&;*>jPHkHGGGGGgGGkSVVLSI-Cbg>jZnAaVJJJJNBVLjXjJFp1O##%#22iy46qw47$874768$ufff N9$<=#1=21O14ukazVlXmm",
"gXC=;=<<5q644iw16$q4h4rCyDgkkD28&>tpbAnnnn*#O<<vXIHHHGGGDDDDDkSVVLSI-npppj-bgAaJMMNNzzMLjmXPDs1%$#%72O5y=8wi1q$$776$8$ f uz9#==q1222124hDazNlXmm",
"beC;:<<=4qqw444w6$#<h4rCgDyHkD<#=>pnnCCdbF;*Oo;vjHHHDGGgDDDykkSJMlSaanpDgjag yFIVJNNzVNNLjeXPgf2OO#%74q5 O84w44$67666$8uGuz8#==21241<223DazM.Xmm",
"bmx;;<<r474hw21w$%$2hw:CgDyaFD<*rpban-Zddbt<Or,cXPPHkDGGDDgDkFaVMlaIaCbFpl-p gkkHSJMzVNVNljmeP 321Oq#14q4 2@whi486671688us-@q=4222=q522hg-zN.Xmm",
"gex;:<=t=42hw111$%$#5w:ngDgIFD=<spbFCCFbd>:<+=:,XPPPkDGGDDkDkFaVMlIZaCdFd.-g fDDDaVJaVzVNMljmeP u12qqq24q4f481wh4866q1788r-%<<24224#5<2ig-zM.Xmm",
"geC,t==t5q4wi7qw$$%$4=:CbDyIFbo< pb-CbFng>t<O<;;XJPPHGfDDDDykkaVJ.aF-bpnslagffDDyFaa-zVzBVMljmePg 5424114q2fi@6wi4$$61q788;O<=q4542#5=4rgIzN.jmm",
"bmZ:>:rtrq5iu7qw66#%q2;npyySAD<=3pbC-gCCgp;&O*o,jJJPHGGDDDyGkkSJJ.IACdpntlaff DygDFZnaVVVVMLl.mePD =54111=7#fu$7ii8866qw7$@4=r%q554O<<15p-zN.jmm",
"Am-:>tts 4w5i1qwq6%1*2rCpgDVbg*rrsgFVbZFnsr*#<*,XJJPHDDDDDDkFFSJJ.FbAdpA>.-fggDDGDkbsnVNNBNLMLjeePbp4q745q4qOuh@14@U8@61w66#rp7O4<1O24O= -zNljmm",
"Amz::,> gu5ww21q76$<p=rngyDVys<=rssAJbnAn>=<&=<veMPPHDkkkFFHIFaJJlIAAdtDtl-fgyDDGDkgisaJNVNMNMljmXPbp2$7w=141O31O4289887q116$t=2245#q1q=sFVM.jem",
"Amz,p,>py uwiw177$%Or4:vbygJbu*:5tggIAnbbt<=&O;,XMPPkDDkADFF-IaJVlIAnbpAsl-gGykDykFg5ibzNzVMBNMLjmeFbD28%4272225@#418$$86147q%h5223O#1123CzM.jem",
"Am-,ppggDf huwq76$7qu5<vnybJDs*r=rpba-bnk:Or*#o;jMJPHkDAnnAAFIaVVlanbbgF,MAfgGkDDkIg52,CVzNNBzNNlXmjDpD58%i21253q91278#$$6qq176i=2=OO22=tCzN..em",
"bm-;t>nbDg 3hh76$$67i5<bbAyJAs<ii:>b-AgbDt<:*#;;XJPPHkkFACZFA-IVJLIDbbpn,LA fykDDHI wqobazVNVBNNLjmmjDyy#U#h412uu#8OqO8#$861ww4%414#O145 AVM..Xm",
"nmZ;t:bdbyuhiu766871h=rbpDgVC =hi3byIa>bD <r&0>;jMPPHDkFFAZZAIaaVLInnbdnrNAgGykDGHP w*O:-VJVBBVNN.mmmjkGD*9@5455uh@$53=@+%$6www16q2q124rpnzNl.Xm",
"bez,c;dpbD hi5166$61hrrngD aAs452iAgAJpbD *:&8g;jJPPPHkFFbZanZaSVLaDbnnC,NnGgyDDGHP 42&3FVNVVBBNBlmXem.DgG<98=45wh4@=Ddo;=2661www67=4225pnzNl.Xm",
"bmz;d:gdbnfiuuq6$$71iu*ngApI-32=2=DDyadbDp*t*+p>XJPPIkkIZ--aACaSVLaFAndn:MAfgyyyDHP 2<4 AZVJNVBBN.mjXmm.D s1@0q2iug=9OgZZ i2$67422$2542r>bzNL.Xm",
"Dmz<>:ddbAu5uh16$8%7ur<ngb FIg4=4iDDgSdDDp*r*0g,XJPPIFnn-zzZnZaaVLIIFAbn,MFfgbDyDHP h5=gDn-VJVVNM.mjjXemjD s2@@O2=5 *8pSI3#qq$$$711%=5=rpbzNL.jm",
"nmz*ctddbFgiuiwq$866hhtndbuyIDii2wDD SdAkbO=<0bcXJPPPFbb-aannCSVSMFIFFnn:MFfyDDDkHPg s3ykA-aVzVMNNmjjjjemjkgs2$@#14hf<2yy=#$q1686677$2r3bCzNL.jm",
"gm-&c>gdbnpuui4q8$7145tbgb  ng u1wyFgIAbkk&rr&nvXPPPIFgpbnanACaJSMFFnCbn,lF gbDyDHPgg fybDCaVzzNBNe.jjjjem.HyuO88#14uGirb316$716$776%$5 bZBL..jm",
"gmz*>gddbDp  hqq881q1itnpg gb pu4iGkgPbbDk&rr*bvXPPPIFg>dnzZbA-VSVIFbnbn,lC GyDDGkPDggpybDnnaaaBBLel..jjXemlHg=%00Oq4Gktpg41q$q66$767883b-BL..jm",
"gmK<>>dnnAg uhqq$8q7wutnppu pi5 25gDGSbDDk=;>&nvjIPPPFg,pb--nCaVVJSFAndb:.FufybDDkPDypuybnAddnC-B.e.L...jjjmlHg=#$@#4ukIbp5w178776$%$76@ zN..jXm",
"ymZ*,,pnFFy ui76$8q64upZgp3 pii whykfSDbDD<<;*AnXHIPIkt,>dnCnZ-zVMSI-bddr.Fu pbDDHPDyggkbbAgtpgc-LelLlL..lMjmlHg<##@1hgbsi4q77%8qq#$$$166nl.jjXm",
"bmZ<>>pAZFD  hq66$1725pZpp3ug33 w DHGSFkkA&+&&DCXaIHIb>:>gnnbnaVVJ-FFbbdr.Iu fyyHPJIDygkDbpgr;:o>zjMLLLlLMzMjmMky31$@4iDhq7qq7#7811%@@647%aj.jem",
"Dmz<,pdnIIb ff177$771ipZp 3ugpuu5gDkDIFDkk*+&&ACXSPFFDg,,gddbnaazVFADdbd;.FffgDyHHJPkDgDkp;p=*;&o>jMMLllMNzBlXmMkH3#4O4fGiq7q17%1811$@$$2q1Bjjem",
"gmK*>dpnCIA  f1qq81qw >-bg3uyp  uDykkFJDFH<+&&k-jIIH-pp>,pt>bCaVzaAFbnbp:.IfGyygHHJHHDyFbbt:<*o+*;jJJJl.NBzBNLXmJkH52<124Gw77q2#%q811$$$6412LXmm",
"bmZ&,bpnCIFu Gw11641w sCgg3ugp3 fDGDkFSkkH<+&&n-XIHIa>>;;,,>gAazzabAbgnp,.FfGyDGkHPPDDDHAAs:=<<*o;jJIJLLzzZzBzlXmJHk55521=u166747$O8q1%7674w4.mm",
"DmZ*;ppn-IA  fhww6w1w5s-Db up 3 GHDDkDPkHI;++*b-eaPII>;oo,dg>nC-aAyDggnds.FffyygHHJPHkDPHbp,,t,>dcXSISMJazZ-BZNlXmMPg3u=<1=576%#4q8#@qq%272wqrjm",
"kmC&<tsb-ID u uwq6w154t-nnp pp GkHkkHHPHPP,++;DCXaPIF>**,>c,tbACCDbDppbbtlIGfyyGkHPHkDyFIgt<,s,>>cjPIaVVZa-zzZNBlemMIyp5<524477%%4q9O8%771qwwwbm",
"AmxOO::b-FGu fhw4#2wiip-bn   g DkFkkHHIkPP,++,n-XaIFA>*&;,c=<dnCbDbgypbgs.IyGyDGDHJHDDggFgrrstoo;cjIkIaabC--zCzZN.em.SA ===22266##w29&8$77O%2wiZ",
"Fmx+O;rgCFDiufuh511whh>Zbn ufy GDkkkkHPDIH;+O;DaeaPFnp;*o;>;<>bbpyD  pbbplIDDDDGDkHHDDgpAbs>;o&*;xXIAIFAynZxCxZCNL.em.JI h=442q677%249&8@O7%#4wh",
"FmC&*;=gnFk hffuwnrihitZbAfuff yDDDHDDPkPP>+O:b-eaPAnp;&oo;,;>bbbbb  bpgplIDDFgGGGkkDkggDy>o*o&&;vXFDInD pvxZxZxzNLjmm.lP h4551467#8q19<88q##q44",
"AmK**=<gnFkf5fffipDihi>ZbDfhfG  DkkFDkHASJp+O:nVeaHHnd;*o;,Z:>bbdnp s  bgLaDDFGfGGDkDkybkbso;oooocjFDFbgh=>CCxxvzBMljmm.lPg3hu=24qq#8O2@=8@777q2",
"DmK&*r=>bAkf=ffhhhfhwwp-bbfigDG GDkFDDFAIJgO :DaeIkFD>;o;,cv:tbd>dt3  3ygMIkDHGGGfyDDDDyFpp;;ooooxXAbAy h=;,vCxvzBLL.jmm.JFb   542q%%@qq$5@8$771",
"Dmz+&2<bnFDfi  iwhfi14,-nDGugDGGykkADDkaIJg*D;gZeFDDDb;o;c>v,:pgtpr333uybLIkkkGGGfGyDDkDFp>ooooooZXFnCppi*+;>ZvxZzMMl.jmmlSIDs  54q7#$$##$4$@#1q",
"DmK+O1qgCFDGu3h4wwuuuu,-CDDfyGGGGDkIDDkPHPg=g,CzXHDkAb;o>v;v:;>gsb33huh gLIkFkDDffGDDGDAFgto*ooo;xXCC-gp5O0;tdvxxzNNNljXmXMJMFrrh5=w6$#%#$%w$8#2",
"Dmz+*OOrnDgGghh1wwhGy5:-IDGuGGDGDGkHDkkPIPb&<p-leHkFHFg;>nod:;,>ts53uhuspLIkFkGkGfGDDyDDkb>>;ooo;xeCZ-g =O+;:t;cZzzzNl..jmeJPMnrr5424#O#1%@7i$$=",
"DmB+OO%2gA fy351wwhGZtraIDG GGHGDGHIkHDFIHn09sDVeIkIFHA==v;c,=rpps3 r upnlHFPkfDGfDDkDDDFbp,;;o*;xeAA-pr<++;:;o;vzzNBl.l.XmeJPMFt554qw1$#27%14$#",
"bmB++0$qgFg G 541wfhndsaFDDkyGPDDDPPIIDDHDb@9 kZjHIIkFb*oC;>;;>pps3prpstgLaHPHGGf gDkkDkAn>:;;oo,xeACIbs2O+oto&o;-zNBL.NN.mmXPISCsii414%%q7@%227",
"ymN&+%#1yADGy 4w1fG tdtaFGDIDDHGfyIJPIkDPHb09:HajIPPF->ocBc>d>>ppbtrttt bjakHHDDG  GDkkbnAp,;>*;,xebZnpt<o&;r<++oZaNNLlBNLmjXePIJnh242q1@%#$8O=2",
"ymN*&O#1ynyDF 1w1fDbCdtaF HFGHHG ykPPPHDIFb0U=HVePHHFIAd-Nnngptspb rtsspbjIAFIDkG  DHDDkAnp,,,o;>xen-ptr=<*;=<++&v-VJlLNBNmL.eePI-b=714778@#@8#<",
"GmNO&#%2 yyDF3q113pban zAuPVkHHGfgHIPPPHHHA09tIJmJHFAF-CMlZnb>tgpbs3rttsp.akHIDkGffkIgDFAbd>,c,;,ZeCAgs:=;&<**o*+,C-VMLNBNeNL.mmHDID=#72$@8%$80*",
"GmN&o&%qrggsp32442t -bpVyuPJkIHGGGHPJJPHHPSO0pHJeJIIHAZaLlbCbt>bpp3rr>ssn.aFHPkkGffDHbyAAbd>,v;;>ZeCbd>:=r*=**&*&ogASJJBBNeNNljemAyFs<$7q@$8%88#",
"gmLoo&%Ors psr4241=5DbpVkfPJFPHDGkHPJPJHHJSo*gkJmJHIHggCN.bCAppnggr<=gbsajaFHHkHkfGDkbgkFCv>;c;;,zeCbd>=r3<:o****o:pIJVzzNeNNL.jeekDy<2%#%@$8%8@",
"gmLo&+%q3 upt<2412<=g pVFfPL-IHkDkHPJPJIHIJ**yFJmJIPFgs>alnbFbAbbb34rbypZjSIHHkHkGGkFbgDCCv>;,;ocZmCvdt=rt=t;o<*o;;sDaVzzNeNBNl.jmePkp<2%$@$$8%0",
"gmN&OO0#= r :*q4q4<4fgpJaGPMAIHHPHPJJPMPHIJo<kPJmJPPbdn>CLCbFbDddg3=:gDgcjSIIHkFkGfkHDyDCCc>,;;o>xmndd>=rs;>o<*<o<rsbF--zNeNNNMLl.eeJkp<2%%$#@0%",
"gmN**<0qhu4sdOO11224hADJSDPlAIHPPHPJMPJJHPM;,kPMmJIPnbbbaL-Dabnbdg33tgAgcXVHFkDIFyGDHDGkCCd>,>;,cKmnc>,;ts<>o<<o<*; DDn-zzXLNNNMLL.XXJGr*O$@@#@#",
"pmBo<+01ir<3dO&O2144wHAVSHPlASPHJPPJJPPJPPJ:pFIMmSIAF-nnVJFHSnAdCnpr:>Fn-jSHFkHHFyyDkyDFFCv>,>;,xKmCdc>;t:<,;=<r:=rpkDn-aBeLLBBNNNN.eXPs=&O$0%#0",
"ymBo<+925r<:;#&@q24=wFFJSPPLFVHHPHPJJPPPPPJ,>FIJmSann-CdzJgISnC>nbyr;pInveJaHHIIFyykDgykFCvp>cc;cxmCcc:;srrttr<:t,rsGDZa-NeLLNBNMLNN.mXH3<1#@0#*",
"DmBo<+9=5<4r;+&@O12=5kIJJPSLaSIPPDPMJPJPPJJdvFINmJInnZ-ZVMbaVnZ>Cnb;o>C-xmJaFFHIFDkHDGyFFZvt>cx,xCmCc>>:>tpsp:<,trrrfynZ-BXLLMNMMLNBNjeXH==1q%0&",
"kmz**+0=r51r<0&0#&*=iDPJJPMlJaIMJkalMJJPPMMvvaSMeVaAC-aaMM-MMn-v-aFo;>IzxmVaIFIIFyDbnbbnCax>pcxvCCmCcccptpbppoottr:=tpbZaVXMlLMNNLNNN.jmXD=<qqO#",
"FmK&++0*ri14*00@@O&<uGIMJPM.LSHlSISMMJMJJMlvvzaleJJaa-V-VMVlNZ-vVJI>;daJxmJVa-a-IgddcddbCzxvcvZxxZmCccdpp>nd>,>>t:ttstbazNXMLlNNNMNNNNLjmXF=O#4<",
"kmZ&O+#<ti442%888%*<u Z.LMlXjLJ.JSM..LjlljjNBLM.mLl.NzLLM..j.Nlz.lZvvZJ.Bm.LVazZ-nvvvvxxZBZxvxKZzNmzCxnCnd-C-CxvCcnCbdaNL.e...NLL..LLL.jmmeMr#1=",
"kmZ&&O&<t574O080@@&*i aVaaazBVBVBVVNMVNNMMMMNMMLLBBMNNNNNNNLNNNNBNzzzaVJzVSSaaa-FFF--aSazzaaaazzBNMzaaazzzzVVzzzzzNNNNLLLL..........jjjXemmXL>>>",
"kmxO0+#*ti6O#89@0@+&4bZ3tttpbbdbnbdddbnnADAAbbnDbbbnnnnnnbDbbDbbAbbnbgygp    fffffGfGGDGGGGGDkFAnDDDDkkAF-FFnDDDnAFCZCnnnnvxCnnCCCnCZZZKKKzzBBKB",
"yex&<O#<pww2O0@999+O=nagbbbnbggggggggggbbDDnAnnAFAkbgggyDbyDnDDbDyyygpg p f  f GfGDggDDkDDkbbDDbpggbDkDyAAAFDGgpDAFFZ-zBzKKZKZZzzzKxZKzKKZKzBKZZ",
"DmC<t#%*b52q#OO9U9+#=n-bbbgbAnA---a-FAFFgDbbbbybDy   ppgpppggf p 3  u     gpp pgybbAAAnbDDnDbDnbggpyyGgGbyggyyDbDnIaMLzzKKzKKZKzKzKKKCCKKzZZKKzz",
"kmv2 Oq<nu2q%O099@+#=naAZ-FAFCZ-FFFFFFIFnDAFAAADkDDDDygygybyyypgg up ppy  gyp ggypgybAFFIIFAnDbbkIHIIIIIIIPaIaIFAn-ljLzKZZZCCKKKZZzzZxKzKzzKzKZK",
"Dev2p=1rCg447#%999#O1nann-aI-Z-ZaVaaFFIFFIFFIIICFFFADyDnDDnbbgppggbbp pgbbAAbFIIIFFFFIFFIFIIHFnnIkbnDbn-aISJSSSSSJllLzZxxZxxZzZKKKKKKKKZZKzBBKKz",
"yev=ys2=bu417%#@99###aabAFaaaSSa-nAa-aIAFIFFIFFFAFHFFFAbdb-Znxvvc>,cddvZnZa-aJaCADDDbybkAAFAAHIaVSIIIIIzSPJJVaIPSLNNBKZKZZKZKKKKKKzKKKKKxKzNLzKz",
"genrgt2=gu27%$#%++O##aVbFAnnFCZa-CFDbA-CAAnFIIISSJVaaSaI-FACFSzVJVzzz-az-VJaIII-IaIISIkIAnAnDFIAnAnnAHI-FFISSSSSLBzzKKZKZxKxxZKKKZKKKKxKKKzNNKZZ",
"Devrgp=s h226@%%#0**OZzgbgnAFAF--CADAFIIIHFFIIIFDAFIPaIIIIFkIIHHPPPPJM.lJMIAPIFnAFDn-ZAaS-AnAFI-Z---IaJJJJJLLJSSLNKKxCxZKZxZZKKKKKKZKKKZKKzBNzKK",
"Gen3gpr su12q@#%0@<2&-agbbAFAFFaSIHFFFFFIaIHIISaIIIaSIngggbkkkFHIIPPJSMMM.j..llLLN-zaaaMJJa-aa-AnZaSSSSSVSaSJSSVMjLLBCxZZxxKxKxZKzKKzKKxKxKNNBZK",
"GXnu pgs uqq7$#%00*<&CabAAACA--IIIaSaaaSaSSaIIIFnAAAFAAFFAADDkAkkkFIPPPJJJJSSJJMMNzzMMMMLlLlLL.LJJJJJMMMMMJJJJJMLjNBjNxxZZxZKZxKZZZKZZZKKxZBNzKZ",
"DXn3pgbr h166#%%+0&<1ZabnnDyAFIIHISSJJVJJSSaaIaaI-a-nCZCFAFFIFkkFHHPPPPIPJSSJMJJJaIFPPPSSaHI-aJJSSSSaSPHHHHHHHIPLjLzNjNCxxxxxCZZCxZKKZCZ-KKKBBZK",
"Gev3gA-3f5w#%q42%+*<<CIDADADAFHFAAAFIIIaSSSSaFDnFFFFAFAAFbgsgpg ykHkIPPISMJJJMJaSSIFFFFIAkkAAFFIIaIFAAAHAkIHHHDDS.NBBljLLNNNBNNNLNLL.L.....jj.jX",
"GebrbaJgph51>qw3*O*<4CakFAAnDFFAAFFIIaJJIIaFIIFFIIaIIIbgbgt3gy yDkkDAIIIaJSaaSSFFAADggbbbyAnbyyDkAAAFIFHFDDDygffF..zCZZZaazzzVVzzVVzVNMLllljjjee",
"Gen=bzzan 31C44 =*<<5naHFAAAAFAnAnFFFISJJSFAFFAAACFAAFDgbps3sppbDDDkkFIHIJnDFnAkbbbgggyDDyDkbDyDAkDkAFAkHkHHDDkHS..BzzaaazzaaSaFFIIIaSaSVJJMll.j",
"feC=sV-aag q224sr*=25ZVnbbbAAAFAACICCCIIIIaIFC-FCbbnbgggyDkybDDkFAAHIIHIPIFFIFIFbDkDDypbDAkkDkkFFFFIIIIIHkkkkyGDkVB---a-aaaaaaaIFII-aaazVJJJJVNM",
"fe-=iaabAyu1wui3t*;=r-.NzVJJMMLMMl...l..LLLLLLlllLJJzaaaaaaaaaaaVVVVJJJLllLJVJJMMMMMMMJJJJJJJVVVzVJJJJJz-aaaaaSSJMNzVBNLMMNVJJVVVVVzVVJJNMMMLMNB"
};
